;Sliced at: Wed 24-12-2014 01:04:00
;Basic settings: Layer height: 0.2 Walls: 1 Fill: 20
M140 S65		    ; Turn the bed on
G21             ; metric values
G90             ; absolute positioning
M83             ; Relative extrudes
M107            ; start with the fan off
G28             ; zero the machine
G1 Z5 F200      ; Go to...
G1 X5 Y30 F2000 ; ...wait for warm position
M116            ; Wait for the bed to heat
G10 P2 S185 R160; Tool 1 Operating and standby temperatures
G10 P1 S185 R160; Tool 2 Operating and standby temperatures
T1              ; Select Tool 1
M116            ; Wait for tools to get to their operating or standby temperatures
;Layer count: 30
;LAYER:0
G1 F1800.000 E-1.0 ; Start the print...
G1 Z0.200
G1 F15000 X81.252 Y88.397 
G1 F1800.000 E1.0
G1 X81.373 Y88.651
;TYPE:SKIRT
G1 F1200 X81.252 Y88.397 E0.01170
G1 X82.924 Y87.086 E0.08833
G1 X88.453 Y81.503 E0.32668
G1 X89.531 Y81.947 E0.04847
G1 X89.743 Y81.915 E0.00891
G1 X108.183 Y81.919 E0.76665
G1 X109.071 Y81.999 E0.03707
G1 X109.609 Y82.084 E0.02264
G1 X110.470 Y82.280 E0.03671
G1 X111.351 Y82.565 E0.03850
G1 X114.048 Y83.710 E0.12181
G1 X114.048 Y84.077 E0.01526
G1 X114.528 Y84.460 E0.02553
G1 X115.198 Y85.099 E0.03850
G1 X115.810 Y85.799 E0.03865
G1 X116.354 Y86.547 E0.03845
G1 X116.512 Y86.810 E0.01276
G1 X116.946 Y86.810 E0.01804
G1 X118.910 Y93.922 E0.30675
G1 X118.061 Y93.922 E0.03530
G1 X118.057 Y109.088 E0.63053
G1 X118.360 Y109.315 E0.01574
G1 X118.057 Y110.281 E0.04209
G1 X118.057 Y110.486 E0.00852
G1 X117.732 Y111.825 E0.05729
G1 X117.442 Y112.241 E0.02108
G1 X117.152 Y113.166 E0.04031
G1 X117.051 Y113.202 E0.00445
G1 X116.847 Y113.871 E0.02908
G1 X116.535 Y113.892 E0.01300
G1 X116.493 Y113.966 E0.00354
G1 X115.945 Y114.738 E0.03936
G1 X115.312 Y115.451 E0.03964
G1 X114.609 Y116.090 E0.03950
G1 X113.840 Y116.652 E0.03960
G1 X113.247 Y116.994 E0.02846
G1 X113.196 Y117.110 E0.00527
G1 X112.301 Y117.444 E0.03971
G1 X112.132 Y117.537 E0.00802
G1 X111.675 Y117.794 E0.02180
G1 X111.664 Y117.797 E0.00047
G1 X111.611 Y117.826 E0.00252
G1 X111.202 Y117.912 E0.01737
G1 X111.177 Y117.918 E0.00107
G1 X111.051 Y117.943 E0.00534
G1 X110.381 Y118.084 E0.02847
G1 X110.356 Y118.084 E0.00104
G1 X108.891 Y118.380 E0.06213
G1 X108.690 Y118.084 E0.01488
G1 X91.816 Y118.083 E0.70154
G1 X90.929 Y118.003 E0.03703
G1 X90.391 Y117.918 E0.02264
G1 X89.530 Y117.722 E0.03671
G1 X88.646 Y117.436 E0.03863
G1 X87.791 Y117.071 E0.03865
G1 X86.973 Y116.631 E0.03862
G1 X86.198 Y116.121 E0.03857
G1 X85.472 Y115.541 E0.03863
G1 X85.430 Y115.501 E0.00241
G1 X85.430 Y129.749 E0.59237
G1 X70.270 Y129.749 E0.63028
G1 X70.270 Y114.589 E0.63028
G1 X84.529 Y114.589 E0.59282
G1 X84.190 Y114.203 E0.02135
G1 X83.643 Y113.451 E0.03866
G1 X83.489 Y113.193 E0.01250
G1 X83.057 Y113.193 E0.01796
G1 X81.090 Y106.082 E0.30674
G1 X81.940 Y106.082 E0.03534
G1 X81.943 Y90.664 E0.64101
G1 X80.736 Y89.295 E0.07587
G1 X81.373 Y88.651 E0.03766
G1 F3600 E-3.00000
G1 F15000 X85.943 Y90.402
;TYPE:WALL-INNER
G1 F3600 E3.00000
G1 F1200 X88.241 Y92.700 E0.13512
G1 X88.237 Y107.739 E0.62525
G1 X88.325 Y108.304 E0.02377
G1 X88.481 Y109.009 E0.03002
G1 X88.686 Y109.571 E0.02487
G1 X88.890 Y109.949 E0.01786
G1 X89.253 Y110.434 E0.02518
G1 X89.709 Y110.864 E0.02606
G1 X90.235 Y111.211 E0.02620
G1 X90.967 Y111.502 E0.03275
G1 X91.665 Y111.657 E0.02973
G1 X92.243 Y111.747 E0.02432
G1 X107.287 Y111.747 E0.62545
G1 X109.627 Y114.084 E0.13750
G1 X91.996 Y114.083 E0.73301
G1 X91.424 Y114.032 E0.02388
G1 X90.600 Y113.864 E0.03496
G1 X90.045 Y113.684 E0.02426
G1 X89.526 Y113.463 E0.02345
G1 X89.028 Y113.194 E0.02353
G1 X88.547 Y112.878 E0.02393
G1 X88.110 Y112.529 E0.02325
G1 X87.689 Y112.127 E0.02420
G1 X87.322 Y111.709 E0.02313
G1 X86.985 Y111.244 E0.02387
G1 X86.692 Y110.755 E0.02370
G1 X86.448 Y110.246 E0.02347
G1 X86.240 Y109.698 E0.02437
G1 X86.096 Y109.174 E0.02259
G1 X85.991 Y108.601 E0.02422
G1 X85.940 Y108.039 E0.02346
G1 X85.943 Y90.402 E0.73326
G1 F15000 X85.745 Y89.532
;TYPE:WALL-OUTER
G1 F1200 X85.743 Y89.514 E0.00076
G1 X85.791 Y89.544 E0.00235
G1 X88.693 Y92.446 E0.17063
G1 X88.737 Y92.509 E0.00319
G1 X88.741 Y92.583 E0.00308
G1 X88.737 Y107.700 E0.62849
G1 X88.816 Y108.211 E0.02150
G1 X88.962 Y108.868 E0.02798
G1 X89.143 Y109.365 E0.02199
G1 X89.313 Y109.679 E0.01485
G1 X89.628 Y110.100 E0.02186
G1 X90.020 Y110.471 E0.02244
G1 X90.467 Y110.765 E0.02224
G1 X91.115 Y111.023 E0.02900
G1 X91.758 Y111.166 E0.02738
G1 X92.282 Y111.247 E0.02205
G1 X107.453 Y111.247 E0.63074
G1 X107.484 Y111.254 E0.00132
G1 X107.529 Y111.282 E0.00220
G1 X110.437 Y114.187 E0.17089
G1 X110.530 Y114.305 E0.00625
G1 X110.545 Y114.347 E0.00185
G1 X110.458 Y114.380 E0.00387
G1 X110.421 Y114.470 E0.00405
G1 X110.398 Y114.497 E0.00147
G1 X110.376 Y114.509 E0.00104
G1 X110.017 Y114.584 E0.01525
G1 X91.973 Y114.583 E0.75018
G1 X91.361 Y114.528 E0.02555
G1 X90.459 Y114.344 E0.03827
G1 X89.872 Y114.154 E0.02565
G1 X89.312 Y113.915 E0.02532
G1 X88.766 Y113.621 E0.02578
G1 X88.254 Y113.284 E0.02548
G1 X87.782 Y112.907 E0.02512
G1 X87.331 Y112.477 E0.02590
G1 X86.925 Y112.014 E0.02561
G1 X86.569 Y111.524 E0.02518
G1 X86.247 Y110.985 E0.02610
G1 X85.988 Y110.445 E0.02490
G1 X85.765 Y109.856 E0.02618
G1 X85.608 Y109.285 E0.02462
G1 X85.495 Y108.670 E0.02600
G1 X85.440 Y108.062 E0.02538
G1 X85.443 Y89.940 E0.75343
G1 X85.514 Y89.642 E0.01273
G1 X85.532 Y89.615 E0.00135
G1 X85.560 Y89.593 E0.00148
G1 X85.745 Y89.532 E0.00810
G1 F3600 E-3.00000
G1 F15000 X86.117 Y91.421
;TYPE:FILL
G1 F3600 E3.00000
G1 F1200 X88.065 Y93.369 E0.11454
G1 F15000 X88.065 Y94.076
G1 F1200 X86.117 Y92.128 E0.11453
G1 F15000 X86.117 Y92.835
G1 F1200 X88.065 Y94.783 E0.11454
G1 F15000 X88.065 Y95.490
G1 F1200 X86.117 Y93.542 E0.11453
G1 F15000 X86.117 Y94.249
G1 F1200 X88.065 Y96.196 E0.11451
G1 F15000 X88.065 Y96.904
G1 F1200 X86.117 Y94.955 E0.11456
G1 F15000 X86.117 Y95.663
G1 F1200 X88.065 Y97.611 E0.11454
G1 F15000 X88.065 Y98.318
G1 F1200 X86.117 Y96.370 E0.11453
G1 F15000 X86.117 Y97.077
G1 F1200 X88.064 Y99.024 E0.11448
G1 F15000 X88.064 Y99.731
G1 F1200 X86.117 Y97.784 E0.11447
G1 F15000 X86.116 Y98.490
G1 F1200 X88.064 Y100.438 E0.11454
G1 F15000 X88.064 Y101.145
G1 F1200 X86.116 Y99.197 E0.11453
G1 F15000 X86.116 Y99.904
G1 F1200 X88.063 Y101.852 E0.11451
G1 F15000 X88.063 Y102.559
G1 F1200 X86.116 Y100.612 E0.11447
G1 F15000 X86.115 Y101.318
G1 F1200 X88.063 Y103.266 E0.11454
G1 F15000 X88.063 Y103.973
G1 F1200 X86.115 Y102.025 E0.11453
G1 F15000 X86.115 Y102.732
G1 F1200 X88.063 Y104.680 E0.11454
G1 F15000 X88.063 Y105.387
G1 F1200 X86.115 Y103.439 E0.11453
G1 F15000 X86.115 Y104.146
G1 F1200 X88.063 Y106.094 E0.11454
G1 F15000 X88.063 Y106.801
G1 F1200 X86.114 Y104.853 E0.11456
G1 F15000 X86.114 Y105.560
G1 F1200 X88.063 Y107.508 E0.11457
G1 F15000 X88.147 Y108.299
G1 F1200 X86.114 Y106.267 E0.11950
G1 F15000 X86.114 Y106.974
G1 F1200 X88.377 Y109.236 E0.13303
G1 F15000 X86.719 Y110.407
G1 F1200 X89.627 Y113.315 E0.17098
G1 F15000 X90.730 Y113.711
G1 F1200 X86.308 Y109.289 E0.25999
G1 F15000 X86.151 Y108.424
G1 F1200 X91.595 Y113.869 E0.32012
G1 F15000 X92.340 Y113.907
G1 F1200 X86.114 Y107.681 E0.36606
G1 F15000 X90.738 Y111.598
G1 F1200 X93.047 Y113.907 E0.13576
G1 F15000 X93.754 Y113.907
G1 F1200 X91.684 Y111.836 E0.12174
G1 F15000 X92.476 Y111.921
G1 F1200 X94.461 Y113.907 E0.11674
G1 F15000 X95.168 Y113.907
G1 F1200 X93.183 Y111.921 E0.11674
G1 F15000 X93.890 Y111.921
G1 F1200 X95.875 Y113.907 E0.11674
G1 F15000 X96.583 Y113.907
G1 F1200 X94.597 Y111.921 E0.11677
G1 F15000 X95.304 Y111.921
G1 F1200 X97.290 Y113.907 E0.11677
G1 F15000 X97.997 Y113.907
G1 F1200 X96.011 Y111.921 E0.11677
G1 F15000 X96.718 Y111.921
G1 F1200 X98.704 Y113.907 E0.11677
G1 F15000 X99.411 Y113.907
G1 F1200 X97.425 Y111.921 E0.11677
G1 F15000 X98.132 Y111.921
G1 F1200 X100.118 Y113.907 E0.11677
G1 F15000 X100.826 Y113.907
G1 F1200 X98.840 Y111.921 E0.11677
G1 F15000 X99.547 Y111.921
G1 F1200 X101.533 Y113.907 E0.11676
G1 F15000 X102.240 Y113.907
G1 F1200 X100.254 Y111.921 E0.11677
G1 F15000 X100.961 Y111.921
G1 F1200 X102.947 Y113.907 E0.11677
G1 F15000 X103.654 Y113.907
G1 F1200 X101.668 Y111.921 E0.11677
G1 F15000 X102.375 Y111.921
G1 F1200 X104.361 Y113.907 E0.11677
G1 F15000 X105.068 Y113.907
G1 F1200 X103.082 Y111.921 E0.11677
G1 F15000 X103.789 Y111.921
G1 F1200 X105.776 Y113.907 E0.11680
G1 F15000 X106.483 Y113.907
G1 F1200 X104.496 Y111.921 E0.11680
G1 F15000 X105.204 Y111.921
G1 F1200 X107.190 Y113.907 E0.11677
G1 F15000 X107.897 Y113.907
G1 F1200 X105.911 Y111.921 E0.11677
G1 F15000 X106.618 Y111.921
G1 F1200 X108.604 Y113.907 E0.11677
G1 F3600 E-3.00000
G1 F15000 X111.859 Y107.259
;TYPE:WALL-INNER
G1 F3600 E3.00000
G1 F1200 X111.864 Y92.253 E0.62387
G1 X111.776 Y91.675 E0.02431
G1 X111.617 Y90.966 E0.03021
G1 X111.404 Y90.379 E0.02596
G1 X111.094 Y89.844 E0.02571
G1 X110.816 Y89.494 E0.01858
G1 X110.352 Y89.056 E0.02653
G1 X109.821 Y88.706 E0.02644
G1 X109.251 Y88.462 E0.02578
G1 X108.025 Y88.141 E0.05269
G1 X107.981 Y88.288 E0.00638
G1 X107.755 Y88.254 E0.00950
G1 X92.926 Y88.256 E0.61652
G1 X92.805 Y88.206 E0.00544
G1 X90.514 Y85.915 E0.13470
G1 X108.003 Y85.919 E0.72711
G1 X108.576 Y85.970 E0.02392
G1 X109.400 Y86.138 E0.03496
G1 X109.960 Y86.320 E0.02448
G1 X110.462 Y86.533 E0.02267
G1 X110.971 Y86.807 E0.02403
G1 X111.453 Y87.124 E0.02399
G1 X111.892 Y87.474 E0.02334
G1 X112.311 Y87.874 E0.02408
G1 X112.684 Y88.300 E0.02355
G1 X113.013 Y88.753 E0.02327
G1 X113.308 Y89.244 E0.02382
G1 X113.553 Y89.755 E0.02356
G1 X113.760 Y90.301 E0.02427
G1 X113.905 Y90.826 E0.02265
G1 X114.012 Y91.403 E0.02440
G1 X114.062 Y91.965 E0.02345
G1 X114.057 Y109.449 E0.72690
G1 X111.859 Y107.259 E0.12900
G1 F15000 X111.434 Y107.541
;TYPE:WALL-OUTER
G1 F1200 X111.359 Y107.457 E0.00468
G1 X111.364 Y92.291 E0.63053
G1 X111.284 Y91.768 E0.02200
G1 X111.136 Y91.107 E0.02816
G1 X110.949 Y90.592 E0.02278
G1 X110.679 Y90.126 E0.02239
G1 X110.447 Y89.833 E0.01554
G1 X110.041 Y89.449 E0.02323
G1 X109.583 Y89.148 E0.02279
G1 X109.088 Y88.936 E0.02239
G1 X108.366 Y88.747 E0.03102
G1 X108.334 Y88.855 E0.00469
G1 X107.718 Y88.754 E0.02595
G1 X92.740 Y88.756 E0.62271
G1 X92.747 Y88.723 E0.00141
G1 X92.523 Y88.630 E0.01008
G1 X89.605 Y85.712 E0.17157
G1 X89.556 Y85.631 E0.00393
G1 X89.566 Y85.552 E0.00331
G1 X89.585 Y85.524 E0.00141
G1 X89.613 Y85.501 E0.00151
G1 X89.775 Y85.449 E0.00707
G1 X90.002 Y85.415 E0.00954
G1 X108.026 Y85.419 E0.74935
G1 X108.639 Y85.474 E0.02559
G1 X109.541 Y85.658 E0.03827
G1 X110.128 Y85.848 E0.02566
G1 X110.681 Y86.083 E0.02498
G1 X111.233 Y86.381 E0.02608
G1 X111.740 Y86.714 E0.02522
G1 X112.225 Y87.101 E0.02579
G1 X112.669 Y87.524 E0.02550
G1 X113.075 Y87.988 E0.02563
G1 X113.433 Y88.481 E0.02533
G1 X113.749 Y89.006 E0.02548
G1 X114.013 Y89.556 E0.02536
G1 X114.237 Y90.148 E0.02632
G1 X114.395 Y90.720 E0.02467
G1 X114.507 Y91.332 E0.02586
G1 X114.562 Y91.942 E0.02547
G1 X114.557 Y110.067 E0.75355
G1 X114.485 Y110.364 E0.01270
G1 X114.470 Y110.385 E0.00108
G1 X114.438 Y110.409 E0.00166
G1 X114.401 Y110.422 E0.00163
G1 X114.346 Y110.422 E0.00229
G1 X114.298 Y110.395 E0.00229
G1 X111.434 Y107.541 E0.16809
G1 F15000 X112.033 Y106.729
;TYPE:FILL
G1 F1200 X113.882 Y108.579 E0.10875
G1 F15000 X113.882 Y107.871
G1 F1200 X112.033 Y106.022 E0.10871
G1 F15000 X112.033 Y105.315
G1 F1200 X113.882 Y107.164 E0.10872
G1 F15000 X113.883 Y106.458
G1 F1200 X112.033 Y104.609 E0.10874
G1 F15000 X112.033 Y103.902
G1 F1200 X113.883 Y105.751 E0.10874
G1 F15000 X113.883 Y105.044
G1 F1200 X112.033 Y103.195 E0.10875
G1 F15000 X112.034 Y102.488
G1 F1200 X113.883 Y104.337 E0.10871
G1 F15000 X113.883 Y103.630
G1 F1200 X112.034 Y101.781 E0.10872
G1 F15000 X112.034 Y101.074
G1 F1200 X113.883 Y102.923 E0.10871
G1 F15000 X113.883 Y102.216
G1 F1200 X112.035 Y100.368 E0.10865
G1 F15000 X112.035 Y99.661
G1 F1200 X113.884 Y101.510 E0.10872
G1 F15000 X113.884 Y100.803
G1 F1200 X112.035 Y98.953 E0.10874
G1 F15000 X112.036 Y98.247
G1 F1200 X113.884 Y100.095 E0.10866
G1 F15000 X113.884 Y99.388
G1 F1200 X112.036 Y97.540 E0.10865
G1 F15000 X112.036 Y96.833
G1 F1200 X113.885 Y98.682 E0.10872
G1 F15000 X113.885 Y97.975
G1 F1200 X112.036 Y96.126 E0.10871
G1 F15000 X112.036 Y95.419
G1 F1200 X113.885 Y97.268 E0.10872
G1 F15000 X113.885 Y96.561
G1 F1200 X112.036 Y94.712 E0.10871
G1 F15000 X112.037 Y94.006
G1 F1200 X113.885 Y95.854 E0.10865
G1 F15000 X113.885 Y95.147
G1 F1200 X112.037 Y93.299 E0.10866
G1 F15000 X112.037 Y92.592
G1 F1200 X113.885 Y94.440 E0.10866
G1 F15000 X113.886 Y93.734
G1 F1200 X111.974 Y91.822 E0.11241
G1 F15000 X111.786 Y90.926
G1 F1200 X113.886 Y93.026 E0.12348
G1 F15000 X113.886 Y92.319
G1 F1200 X110.957 Y89.390 E0.17221
G1 F15000 X110.869 Y89.302
G1 F1200 X107.660 Y86.093 E0.18868
G1 F15000 X106.953 Y86.093
G1 F1200 X109.103 Y88.243 E0.12641
G1 F15000 X108.144 Y87.991
G1 F1200 X106.246 Y86.093 E0.11159
G1 F15000 X105.539 Y86.093
G1 F1200 X107.524 Y88.078 E0.11671
G1 F15000 X106.816 Y88.078
G1 F1200 X104.832 Y86.093 E0.11668
G1 F15000 X104.124 Y86.093
G1 F1200 X106.109 Y88.078 E0.11672
G1 F15000 X105.402 Y88.078
G1 F1200 X103.417 Y86.093 E0.11671
G1 F15000 X102.710 Y86.093
G1 F1200 X104.695 Y88.078 E0.11671
G1 F15000 X103.989 Y88.079
G1 F1200 X102.002 Y86.093 E0.11679
G1 F15000 X101.295 Y86.093
G1 F1200 X103.282 Y88.079 E0.11680
G1 F15000 X102.575 Y88.079
G1 F1200 X100.588 Y86.092 E0.11683
G1 F15000 X99.880 Y86.092
G1 F1200 X101.867 Y88.079 E0.11683
G1 F15000 X101.160 Y88.079
G1 F1200 X99.173 Y86.092 E0.11683
G1 F15000 X98.466 Y86.092
G1 F1200 X100.453 Y88.079 E0.11683
G1 F15000 X108.405 Y86.131
G1 F1200 X113.850 Y91.576 E0.32014
G1 F15000 X113.690 Y90.709
G1 F1200 X109.272 Y86.291 E0.25976
G1 F15000 X110.374 Y86.686
G1 F1200 X113.281 Y89.593 E0.17092
G1 F15000 X107.750 Y88.305
G1 X99.747 Y88.080
G1 F1200 X97.758 Y86.091 E0.11695
G1 F15000 X97.051 Y86.091
G1 F1200 X99.040 Y88.080 E0.11694
G1 F15000 X98.333 Y88.080
G1 F1200 X96.344 Y86.091 E0.11695
G1 F15000 X95.637 Y86.091
G1 F1200 X97.625 Y88.080 E0.11692
G1 F15000 X96.918 Y88.080
G1 F1200 X94.930 Y86.091 E0.11691
G1 F15000 X94.222 Y86.090
G1 F1200 X96.212 Y88.080 E0.11701
G1 F15000 X95.505 Y88.080
G1 F1200 X93.515 Y86.090 E0.11700
G1 F15000 X92.808 Y86.090
G1 F1200 X94.798 Y88.080 E0.11700
G1 F15000 X94.091 Y88.080
G1 F1200 X92.101 Y86.090 E0.11701
G1 F15000 X91.394 Y86.090
G1 F1200 X93.384 Y88.080 E0.11700
G1 F3600 E-3.00000
G1 F15000 X96.410 Y92.562
;TYPE:WALL-INNER
G1 F3600 E3.00000
G1 F1200 X96.869 Y92.310 E0.02177
G1 X97.314 Y92.106 E0.02036
G1 X97.775 Y91.934 E0.02045
G1 X98.505 Y91.721 E0.03162
G1 X99.175 Y91.721 E0.02785
G1 X99.175 Y91.522 E0.00828
G1 X99.744 Y91.477 E0.02373
G1 X99.991 Y91.472 E0.01027
G1 X100.506 Y91.489 E0.02142
G1 X101.017 Y91.544 E0.02137
G1 X101.503 Y91.631 E0.02053
G1 X102.003 Y91.759 E0.02145
G1 X102.479 Y91.917 E0.02085
G1 X102.960 Y92.116 E0.02165
G1 X103.849 Y92.600 E0.04208
G1 X104.265 Y92.890 E0.02108
G1 X104.655 Y93.204 E0.02082
G1 X105.032 Y93.554 E0.02139
G1 X105.380 Y93.928 E0.02123
G1 X105.844 Y94.523 E0.03137
G1 X106.120 Y94.953 E0.02125
G1 X106.371 Y95.412 E0.02175
G1 X106.577 Y95.860 E0.02050
G1 X106.752 Y96.329 E0.02081
G1 X106.898 Y96.825 E0.02150
G1 X107.008 Y97.330 E0.02148
G1 X107.079 Y97.820 E0.02059
G1 X107.116 Y98.336 E0.02151
G1 X107.121 Y98.582 E0.01023
G1 X107.104 Y99.096 E0.02138
G1 X107.049 Y99.608 E0.02141
G1 X106.836 Y100.589 E0.04173
G1 X106.675 Y101.075 E0.02129
G1 X106.479 Y101.545 E0.02117
G1 X106.367 Y101.783 E0.01093
G1 X106.127 Y102.223 E0.02084
G1 X105.702 Y102.858 E0.03177
G1 X105.390 Y103.245 E0.02067
G1 X105.037 Y103.626 E0.02159
G1 X100.055 Y108.565 E0.29166
G1 X94.869 Y103.384 E0.30477
G1 X94.539 Y103.003 E0.02096
G1 X94.097 Y102.391 E0.03138
G1 X93.723 Y101.734 E0.03143
G1 X93.516 Y101.280 E0.02075
G1 X93.342 Y100.812 E0.02076
G1 X93.199 Y100.323 E0.02118
G1 X93.092 Y99.841 E0.02053
G1 X93.022 Y99.357 E0.02033
G1 X92.981 Y98.589 E0.03197
G1 X92.998 Y98.094 E0.02059
G1 X93.051 Y97.595 E0.02087
G1 X93.143 Y97.092 E0.02126
G1 X93.264 Y96.617 E0.02038
G1 X93.419 Y96.149 E0.02049
G1 X93.618 Y95.668 E0.02164
G1 X93.831 Y95.241 E0.01984
G1 X94.099 Y94.788 E0.02188
G1 X94.694 Y93.997 E0.04116
G1 X95.027 Y93.640 E0.02029
G1 X95.606 Y93.117 E0.03244
G1 X95.984 Y92.834 E0.01963
G1 X96.410 Y92.562 E0.02102
G1 F15000 X96.167 Y92.124
;TYPE:WALL-OUTER
G1 F1200 X96.645 Y91.862 E0.02266
G1 X97.114 Y91.648 E0.02143
G1 X97.622 Y91.457 E0.02257
G1 X98.341 Y91.248 E0.03112
G1 X98.334 Y91.221 E0.00116
G1 X98.675 Y91.221 E0.01418
G1 X98.675 Y91.088 E0.00553
G1 X99.181 Y91.015 E0.02126
G1 X99.719 Y90.977 E0.02242
G1 X99.997 Y90.971 E0.01156
G1 X100.535 Y90.990 E0.02238
G1 X101.088 Y91.049 E0.02312
G1 X101.616 Y91.144 E0.02231
G1 X102.143 Y91.278 E0.02260
G1 X102.654 Y91.448 E0.02239
G1 X103.163 Y91.659 E0.02291
G1 X103.646 Y91.898 E0.02241
G1 X104.120 Y92.179 E0.02291
G1 X104.556 Y92.483 E0.02209
G1 X104.993 Y92.835 E0.02333
G1 X105.385 Y93.199 E0.02224
G1 X105.753 Y93.594 E0.02245
G1 X105.926 Y93.799 E0.01115
G1 X106.263 Y94.248 E0.02334
G1 X106.547 Y94.691 E0.02188
G1 X106.815 Y95.183 E0.02329
G1 X107.036 Y95.662 E0.02193
G1 X107.230 Y96.179 E0.02296
G1 X107.385 Y96.709 E0.02296
G1 X107.499 Y97.234 E0.02233
G1 X107.577 Y97.770 E0.02252
G1 X107.616 Y98.309 E0.02247
G1 X107.622 Y98.583 E0.01140
G1 X107.604 Y99.120 E0.02233
G1 X107.544 Y99.678 E0.02334
G1 X107.449 Y100.210 E0.02246
G1 X107.319 Y100.723 E0.02201
G1 X107.148 Y101.240 E0.02264
G1 X106.937 Y101.747 E0.02283
G1 X106.562 Y102.469 E0.03382
G1 X106.416 Y102.708 E0.01165
G1 X106.111 Y103.146 E0.02219
G1 X105.759 Y103.583 E0.02332
G1 X105.397 Y103.973 E0.02213
G1 X100.308 Y109.018 E0.29792
G1 X100.181 Y109.116 E0.00667
G1 X100.118 Y109.145 E0.00288
G1 X100.094 Y109.149 E0.00101
G1 X100.099 Y109.130 E0.00082
G1 X99.831 Y109.020 E0.01205
G1 X99.720 Y108.939 E0.00571
G1 X94.497 Y103.718 E0.30703
G1 X94.146 Y103.313 E0.02228
G1 X93.674 Y102.659 E0.03354
G1 X93.279 Y101.966 E0.03316
G1 X93.052 Y101.466 E0.02283
G1 X92.868 Y100.974 E0.02184
G1 X92.714 Y100.448 E0.02278
G1 X92.598 Y99.922 E0.02240
G1 X92.525 Y99.410 E0.02150
G1 X92.480 Y98.588 E0.03423
G1 X92.498 Y98.070 E0.02154
G1 X92.557 Y97.518 E0.02308
G1 X92.654 Y96.984 E0.02257
G1 X92.783 Y96.477 E0.02175
G1 X92.948 Y95.978 E0.02185
G1 X93.161 Y95.465 E0.02309
G1 X93.402 Y94.982 E0.02244
G1 X93.675 Y94.521 E0.02228
G1 X93.960 Y94.111 E0.02076
G1 X94.320 Y93.665 E0.02383
G1 X94.672 Y93.287 E0.02147
G1 X95.285 Y92.734 E0.03433
G1 X95.700 Y92.423 E0.02156
G1 X96.167 Y92.124 E0.02305
G1 F15000 X96.565 Y92.676
;TYPE:FILL
G1 F1200 X105.993 Y102.104 E0.55433
G1 F15000 X105.711 Y102.529
G1 F1200 X96.130 Y92.948 E0.56333
G1 F15000 X95.722 Y93.247
G1 F1200 X105.411 Y102.937 E0.56970
G1 F15000 X105.084 Y103.316
G1 F1200 X95.351 Y93.583 E0.57227
G1 F15000 X94.992 Y93.932
G1 F1200 X104.735 Y103.675 E0.57285
G1 F15000 X104.380 Y104.027
G1 F1200 X94.670 Y94.316 E0.57094
G1 F15000 X94.367 Y94.721
G1 F1200 X104.026 Y104.379 E0.56788
G1 F15000 X103.671 Y104.731
G1 F1200 X94.087 Y95.148 E0.56347
G1 F15000 X93.842 Y95.610
G1 F1200 X103.316 Y105.083 E0.55701
G1 F15000 X102.961 Y105.435
G1 F1200 X93.627 Y96.102 E0.54877
G1 F15000 X93.444 Y96.626
G1 F1200 X102.606 Y105.788 E0.53869
G1 F15000 X102.251 Y106.140
G1 F1200 X93.302 Y97.191 E0.52617
G1 F15000 X93.205 Y97.801
G1 F1200 X101.895 Y106.491 E0.51094
G1 F15000 X101.540 Y106.843
G1 F1200 X93.159 Y98.463 E0.49274
G1 F15000 X93.188 Y99.199
G1 F1200 X101.185 Y107.195 E0.47016
G1 F15000 X100.830 Y107.548
G1 F1200 X93.311 Y100.029 E0.44209
G1 F15000 X93.612 Y101.037
G1 F1200 X100.475 Y107.900 E0.40352
G1 F15000 X100.120 Y108.252
G1 F1200 X94.451 Y102.583 E0.33332
G1 F15000 X97.026 Y92.430
G1 F1200 X106.239 Y101.643 E0.54168
G1 F15000 X106.453 Y101.150
G1 F1200 X97.519 Y92.216 E0.52529
G1 F15000 X98.047 Y92.037
G1 F1200 X106.638 Y100.627 E0.50509
G1 F15000 X106.772 Y100.054
G1 F1200 X98.613 Y91.896 E0.47969
G1 F15000 X99.320 Y91.896
G1 F1200 X106.887 Y99.463 E0.44491
G1 F15000 X106.937 Y98.806
G1 F1200 X99.783 Y91.651 E0.42065
G1 F15000 X100.504 Y91.665
G1 F1200 X106.923 Y98.084 E0.37742
G1 F15000 X106.815 Y97.269
G1 F1200 X101.323 Y91.777 E0.32291
G1 F15000 X102.293 Y92.040
G1 F1200 X106.554 Y96.301 E0.25053
G1 F15000 X105.910 Y94.950
G1 F1200 X103.654 Y92.694 E0.13264
G92 E0
G1 F3600 E-10.00000
;Switch between the current extruder and the next extruder, when printing with multiple extruders.
;This code is added before the T(n)
G1 X0 F12000

T2
;Switch between the current extruder and the next extruder, when printing with multiple extruders.
;This code is added after the T(n)
M116

G1 F15000 X82.180 Y117.839
;TYPE:SUPPORT
G1 F3600 E10.00000
G1 F1200 X82.180 Y126.499 E0.36004
G1 X73.520 Y126.499 E0.36004
G1 X73.520 Y117.839 E0.36004
G1 X82.180 Y117.839 E0.36004
G1 F15000 X82.254 Y117.963
G1 F1200 X82.054 Y117.763 E0.01176
G1 F15000 X81.347 Y117.763
G1 F1200 X82.254 Y118.670 E0.05333
G1 F15000 X82.254 Y119.378
G1 F1200 X80.640 Y117.763 E0.09493
G1 F15000 X79.933 Y117.763
G1 F1200 X82.254 Y120.085 E0.13649
G1 F15000 X82.254 Y120.792
G1 F1200 X79.226 Y117.763 E0.17807
G1 F15000 X78.519 Y117.763
G1 F1200 X82.254 Y121.499 E0.21963
G1 F15000 X82.254 Y122.206
G1 F1200 X77.812 Y117.763 E0.26120
G1 F15000 X77.105 Y117.763
G1 F1200 X82.254 Y122.913 E0.30277
G1 F15000 X82.254 Y123.620
G1 F1200 X76.397 Y117.763 E0.34437
G1 F15000 X75.690 Y117.763
G1 F1200 X82.254 Y124.327 E0.38594
G1 F15000 X82.254 Y125.034
G1 F1200 X74.983 Y117.763 E0.42751
G1 F15000 X74.276 Y117.763
G1 F1200 X82.254 Y125.741 E0.46907
G1 F15000 X82.254 Y126.449
G1 F1200 X73.569 Y117.763 E0.51068
G1 F15000 X73.445 Y118.346
G1 F1200 X81.671 Y126.572 E0.48365
G1 F15000 X80.964 Y126.572
G1 F1200 X73.445 Y119.053 E0.44209
G1 F15000 X73.445 Y119.760
G1 F1200 X80.257 Y126.572 E0.40052
G1 F15000 X79.550 Y126.572
G1 F1200 X73.445 Y120.467 E0.35895
G1 F15000 X73.445 Y121.174
G1 F1200 X78.843 Y126.572 E0.31738
G1 F15000 X78.136 Y126.572
G1 F1200 X73.445 Y121.881 E0.27582
G1 F15000 X73.445 Y122.588
G1 F1200 X77.428 Y126.572 E0.23421
G1 F15000 X76.721 Y126.572
G1 F1200 X73.445 Y123.296 E0.19262
G1 F15000 X73.445 Y124.003
G1 F1200 X76.014 Y126.572 E0.15105
G1 F15000 X75.307 Y126.572
G1 F1200 X73.445 Y124.710 E0.10947
G1 F15000 X73.445 Y125.417
G1 F1200 X74.600 Y126.572 E0.06791
G1 F15000 X73.893 Y126.572
G1 F1200 X73.445 Y126.124 E0.02634
G1 F3600 E-3.00000
G1 F15000 X77.850 Y122.169
G1 X90.260 Y109.778
;TYPE:WALL-INNER
G1 F3600 E3.00000
G1 F1200 X89.990 Y109.503 E0.01603
G1 X89.747 Y109.144 E0.01802
G1 X89.636 Y108.906 E0.01092
G1 X89.539 Y108.615 E0.01275
G1 X89.400 Y107.948 E0.02833
G1 X89.354 Y107.644 E0.01278
G1 X89.354 Y92.874 E0.61407
G1 X89.360 Y92.431 E0.01841
G1 X89.289 Y92.167 E0.01137
G1 X89.123 Y91.927 E0.01213
G1 X86.428 Y89.232 E0.15846
G1 X88.964 Y86.671 E0.14984
G1 X91.711 Y89.416 E0.16146
G1 X91.965 Y89.568 E0.01230
G1 X92.168 Y89.640 E0.00896
G1 X93.055 Y89.656 E0.03688
G1 X93.077 Y89.556 E0.00426
G1 X107.473 Y89.554 E0.59851
G1 X107.603 Y89.574 E0.00547
G1 X108.764 Y89.954 E0.05079
G1 X108.974 Y90.059 E0.00976
G1 X109.316 Y90.305 E0.01752
G1 X109.477 Y90.458 E0.00923
G1 X109.728 Y90.782 E0.01704
G1 X109.909 Y91.140 E0.01668
G1 X109.999 Y91.411 E0.01187
G1 X110.128 Y92.015 E0.02568
G1 X110.181 Y92.364 E0.01467
G1 X110.176 Y107.573 E0.63232
G1 X110.235 Y107.864 E0.01235
G1 X110.446 Y108.150 E0.01477
G1 X111.175 Y108.879 E0.04286
G1 X111.108 Y108.862 E0.00288
G1 X110.878 Y108.830 E0.00965
G1 X110.631 Y108.824 E0.01028
G1 X110.196 Y108.883 E0.01825
G1 X109.766 Y109.045 E0.01910
G1 X109.379 Y109.297 E0.01920
G1 X109.075 Y109.611 E0.01817
G1 X108.923 Y109.830 E0.01108
G1 X108.736 Y110.224 E0.01814
G1 X108.638 Y110.657 E0.01845
G1 X108.624 Y110.929 E0.01133
G1 X108.672 Y111.361 E0.01807
G1 X108.730 Y111.532 E0.00750
G1 X107.945 Y110.747 E0.04616
G1 X107.708 Y110.550 E0.01281
G1 X107.433 Y110.454 E0.01211
G1 X107.201 Y110.447 E0.00965
G1 X92.162 Y110.448 E0.62525
G1 X91.719 Y110.379 E0.01864
G1 X91.288 Y110.290 E0.01830
G1 X90.827 Y110.138 E0.02018
G1 X90.613 Y110.031 E0.00995
G1 X90.260 Y109.778 E0.01805
G1 F15000 X93.122 Y103.850
G1 F1200 X93.096 Y103.902 E0.00242
G1 X98.776 Y109.595 E0.33434
G1 X99.012 Y109.806 E0.01317
G1 X99.287 Y109.962 E0.01314
G1 X99.493 Y110.027 E0.00898
G1 X100.346 Y110.150 E0.03583
G1 X100.442 Y109.788 E0.01557
G1 X100.657 Y109.619 E0.01137
G1 X106.181 Y104.140 E0.32347
G1 X106.168 Y104.109 E0.00140
G1 X106.349 Y103.907 E0.01127
G1 X106.810 Y103.285 E0.03219
G1 X107.207 Y102.631 E0.03181
G1 X107.547 Y101.932 E0.03232
G1 X107.824 Y101.203 E0.03242
G1 X108.030 Y100.455 E0.03226
G1 X108.165 Y99.702 E0.03180
G1 X108.231 Y98.930 E0.03221
G1 X108.238 Y98.531 E0.01660
G1 X108.227 Y98.142 E0.01617
G1 X108.151 Y97.377 E0.03197
G1 X108.007 Y96.627 E0.03175
G1 X107.792 Y95.883 E0.03219
G1 X107.505 Y95.154 E0.03258
G1 X107.160 Y94.469 E0.03188
G1 X106.751 Y93.813 E0.03214
G1 X106.276 Y93.188 E0.03264
G1 X105.754 Y92.619 E0.03210
G1 X105.187 Y92.103 E0.03188
G1 X104.560 Y91.633 E0.03258
G1 X103.909 Y91.232 E0.03178
G1 X103.207 Y90.883 E0.03260
G1 X102.488 Y90.606 E0.03203
G1 X101.742 Y90.393 E0.03226
G1 X100.987 Y90.252 E0.03193
G1 X100.215 Y90.181 E0.03223
G1 X99.814 Y90.171 E0.01668
G1 X99.175 Y90.199 E0.02659
G1 X99.175 Y89.956 E0.01010
G1 X98.250 Y90.215 E0.03994
G1 X97.503 Y90.390 E0.03189
G1 X96.759 Y90.637 E0.03260
G1 X96.040 Y90.952 E0.03263
G1 X95.356 Y91.332 E0.03253
G1 X94.707 Y91.773 E0.03263
G1 X94.103 Y92.271 E0.03254
G1 X93.545 Y92.822 E0.03261
G1 X93.042 Y93.424 E0.03261
G1 X92.596 Y94.067 E0.03253
G1 X92.210 Y94.751 E0.03266
G1 X91.890 Y95.466 E0.03256
G1 X91.636 Y96.206 E0.03253
G1 X91.232 Y97.884 E0.07176
G1 X91.331 Y97.884 E0.00412
G1 X91.296 Y98.534 E0.02706
G1 X91.325 Y99.308 E0.03220
G1 X91.428 Y100.086 E0.03263
G1 X91.601 Y100.850 E0.03257
G1 X91.841 Y101.593 E0.03246
G1 X92.337 Y102.746 E0.05218
G1 X92.387 Y102.746 E0.00208
G1 X92.527 Y103.002 E0.01213
G1 X92.962 Y103.653 E0.03255
G1 X93.122 Y103.850 E0.01055
G1 F15000 X99.505 Y109.976
G1 X100.271 Y110.038
G1 X107.681 Y110.598
G1 X109.469 Y112.542
G1 X110.196 Y112.929
G1 F1200 X110.631 Y112.988 E0.01825
G1 X110.878 Y112.982 E0.01028
G1 X111.126 Y112.948 E0.01040
G1 X111.527 Y112.824 E0.01745
G1 X111.772 Y112.697 E0.01148
G1 X112.104 Y112.453 E0.01713
G1 X112.295 Y112.258 E0.01134
G1 X112.529 Y111.917 E0.01720
G1 X112.648 Y111.670 E0.01140
G1 X112.763 Y111.260 E0.01770
G1 X112.791 Y110.903 E0.01489
G1 X112.763 Y110.552 E0.01464
G1 X112.730 Y110.433 E0.00513
G1 X113.455 Y111.158 E0.04263
G1 X113.370 Y111.361 E0.00915
G1 X113.112 Y111.818 E0.02182
G1 X112.810 Y112.244 E0.02171
G1 X112.460 Y112.638 E0.02191
G1 X112.077 Y112.985 E0.02149
G1 X111.657 Y113.293 E0.02165
G1 X111.194 Y113.560 E0.02222
G1 X110.894 Y113.696 E0.01369
G1 X110.085 Y112.887 E0.04757
G1 X110.196 Y112.929 E0.00493
G1 F15000 X110.658 Y112.487
;TYPE:WALL-OUTER
G1 F1200 X110.837 Y112.483 E0.00745
G1 X111.018 Y112.458 E0.00759
G1 X111.337 Y112.359 E0.01389
G1 X111.508 Y112.271 E0.00800
G1 X111.775 Y112.074 E0.01379
G1 X111.908 Y111.939 E0.00788
G1 X112.095 Y111.666 E0.01376
G1 X112.178 Y111.493 E0.00798
G1 X112.268 Y111.171 E0.01390
G1 X112.290 Y110.904 E0.01113
G1 X112.268 Y110.641 E0.01098
G1 X112.178 Y110.319 E0.01390
G1 X112.095 Y110.146 E0.00797
G1 X111.908 Y109.873 E0.01376
G1 X111.779 Y109.740 E0.00770
G1 X111.636 Y109.624 E0.00766
G1 X111.352 Y109.460 E0.01363
G1 X111.179 Y109.396 E0.00767
G1 X111.012 Y109.353 E0.00717
G1 X110.837 Y109.329 E0.00735
G1 X110.658 Y109.325 E0.00744
G1 X110.319 Y109.371 E0.01422
G1 X109.993 Y109.494 E0.01449
G1 X109.699 Y109.685 E0.01458
G1 X109.462 Y109.930 E0.01417
G1 X109.357 Y110.081 E0.00764
G1 X109.211 Y110.388 E0.01414
G1 X109.135 Y110.726 E0.01440
G1 X109.125 Y110.915 E0.00787
G1 X109.163 Y111.252 E0.01410
G1 X109.275 Y111.582 E0.01449
G1 X109.457 Y111.878 E0.01444
G1 X109.699 Y112.127 E0.01444
G1 X109.993 Y112.318 E0.01458
G1 X110.319 Y112.441 E0.01448
G1 X110.658 Y112.487 E0.01423
G1 F15000 X110.612 Y112.834
G1 X110.780 Y113.796
G1 X110.532 Y114.042
G1 F1200 X107.608 Y111.117 E0.17194
G1 X107.457 Y110.992 E0.00815
G1 X107.341 Y110.951 E0.00512
G1 X107.194 Y110.947 E0.00611
G1 X92.124 Y110.948 E0.62654
G1 X91.623 Y110.870 E0.02108
G1 X91.162 Y110.775 E0.01957
G1 X90.636 Y110.602 E0.02302
G1 X90.351 Y110.459 E0.01326
G1 X89.935 Y110.161 E0.02127
G1 X89.600 Y109.819 E0.01991
G1 X89.312 Y109.395 E0.02131
G1 X89.168 Y109.085 E0.01421
G1 X89.058 Y108.754 E0.01450
G1 X88.908 Y108.034 E0.03058
G1 X88.854 Y107.680 E0.01488
G1 X88.854 Y92.867 E0.61586
G1 X88.859 Y92.494 E0.01551
G1 X88.829 Y92.381 E0.00486
G1 X88.738 Y92.249 E0.00666
G1 X85.795 Y89.306 E0.17304
G1 X85.711 Y89.250 E0.00420
G1 X88.976 Y85.949 E0.19303
G1 X89.028 Y86.028 E0.00393
G1 X92.021 Y89.019 E0.17592
G1 X92.179 Y89.113 E0.00764
G1 X92.271 Y89.146 E0.00406
G1 X92.652 Y89.156 E0.01585
G1 X92.674 Y89.056 E0.00426
G1 X107.511 Y89.054 E0.61685
G1 X108.012 Y89.132 E0.02108
G1 X108.238 Y89.179 E0.00959
G1 X108.217 Y89.249 E0.00304
G1 X108.960 Y89.492 E0.03250
G1 X109.234 Y89.630 E0.01276
G1 X109.635 Y89.918 E0.02052
G1 X109.850 Y90.124 E0.01238
G1 X110.151 Y90.512 E0.02042
G1 X110.373 Y90.949 E0.02038
G1 X110.482 Y91.277 E0.01437
G1 X110.619 Y91.921 E0.02737
G1 X110.681 Y92.328 E0.01712
G1 X110.676 Y107.523 E0.63173
G1 X110.703 Y107.656 E0.00564
G1 X110.826 Y107.823 E0.00863
G1 X113.772 Y110.768 E0.17318
G1 X113.924 Y110.868 E0.00757
G1 X114.081 Y110.921 E0.00689
G1 X114.046 Y111.053 E0.00567
G1 X113.819 Y111.582 E0.02394
G1 X113.534 Y112.087 E0.02410
G1 X113.200 Y112.558 E0.02401
G1 X112.818 Y112.988 E0.02391
G1 X112.396 Y113.371 E0.02370
G1 X111.926 Y113.715 E0.02421
G1 X111.427 Y114.003 E0.02395
G1 X111.167 Y114.127 E0.01198
G1 X110.660 Y114.320 E0.02255
G1 X110.632 Y114.203 E0.00501
G1 X110.532 Y114.042 E0.00788
G1 F15000 X110.780 Y113.796
G1 X108.868 Y111.774
G1 X105.839 Y104.267
G1 X105.586 Y104.010
G1 F1200 X105.961 Y103.591 E0.02337
G1 X106.395 Y103.006 E0.03029
G1 X106.768 Y102.392 E0.02987
G1 X107.088 Y101.733 E0.03045
G1 X107.348 Y101.048 E0.03046
G1 X107.542 Y100.344 E0.03036
G1 X107.669 Y99.637 E0.02987
G1 X107.732 Y98.905 E0.03054
G1 X107.738 Y98.534 E0.01543
G1 X107.728 Y98.174 E0.01497
G1 X107.656 Y97.449 E0.03029
G1 X107.520 Y96.744 E0.02985
G1 X107.318 Y96.044 E0.03029
G1 X107.048 Y95.358 E0.03065
G1 X106.724 Y94.714 E0.02998
G1 X106.339 Y94.097 E0.03023
G1 X105.892 Y93.509 E0.03071
G1 X105.401 Y92.974 E0.03019
G1 X104.868 Y92.489 E0.02996
G1 X104.278 Y92.046 E0.03068
G1 X103.666 Y91.669 E0.02988
G1 X103.006 Y91.341 E0.03064
G1 X102.329 Y91.081 E0.03015
G1 X101.627 Y90.880 E0.03036
G1 X100.918 Y90.748 E0.02998
G1 X100.186 Y90.680 E0.03057
G1 X99.819 Y90.671 E0.01526
G1 X99.095 Y90.704 E0.03013
G1 X98.675 Y90.762 E0.01763
G1 X98.675 Y90.615 E0.00611
G1 X98.209 Y90.746 E0.02013
G1 X97.639 Y90.872 E0.02427
G1 X96.938 Y91.104 E0.03069
G1 X96.262 Y91.401 E0.03070
G1 X95.619 Y91.758 E0.03058
G1 X95.007 Y92.174 E0.03076
G1 X94.438 Y92.642 E0.03063
G1 X93.914 Y93.161 E0.03067
G1 X93.440 Y93.727 E0.03069
G1 X93.020 Y94.333 E0.03065
G1 X92.657 Y94.976 E0.03070
G1 X92.355 Y95.649 E0.03067
G1 X92.117 Y96.346 E0.03062
G1 X91.867 Y97.384 E0.04439
G1 X91.897 Y97.384 E0.00125
G1 X91.836 Y97.794 E0.01723
G1 X91.797 Y98.538 E0.03098
G1 X91.824 Y99.266 E0.03028
G1 X91.921 Y99.998 E0.03070
G1 X92.084 Y100.717 E0.03065
G1 X92.310 Y101.417 E0.03059
G1 X92.666 Y102.246 E0.03751
G1 X92.684 Y102.246 E0.00074
G1 X92.955 Y102.743 E0.02354
G1 X93.365 Y103.356 E0.03066
G1 X93.713 Y103.785 E0.02297
G1 X93.704 Y103.803 E0.00083
G1 X99.120 Y109.232 E0.31882
G1 X99.305 Y109.397 E0.01031
G1 X99.488 Y109.501 E0.00875
G1 X99.605 Y109.538 E0.00510
G1 X99.977 Y109.591 E0.01563
G1 X100.018 Y109.435 E0.00670
G1 X100.180 Y109.359 E0.00744
G1 X100.324 Y109.244 E0.00766
G1 X105.591 Y104.021 E0.30839
G1 X105.586 Y104.010 E0.00050
G1 F15000 X106.167 Y104.400
;TYPE:FILL
G1 F1200 X110.440 Y108.673 E0.25124
G1 F15000 X109.875 Y108.815
G1 F1200 X105.812 Y104.752 E0.23889
G1 F15000 X105.457 Y105.104
G1 F1200 X109.416 Y109.062 E0.23274
G1 F15000 X109.040 Y109.394
G1 F1200 X105.102 Y105.456 E0.23154
G1 F15000 X104.747 Y105.808
G1 F1200 X108.742 Y109.803 E0.23489
G1 F15000 X108.538 Y110.305
G1 F1200 X104.393 Y106.160 E0.24371
G1 F15000 X104.038 Y106.512
G1 F1200 X108.416 Y110.891 E0.25744
G1 F15000 X107.089 Y110.271
G1 F1200 X103.683 Y106.865 E0.20026
G1 F15000 X103.328 Y107.217
G1 F1200 X106.382 Y110.271 E0.17957
G1 F15000 X105.675 Y110.271
G1 F1200 X102.972 Y107.568 E0.15892
G1 F15000 X102.617 Y107.920
G1 F1200 X104.968 Y110.271 E0.13823
G1 F15000 X104.261 Y110.271
G1 F1200 X102.262 Y108.272 E0.11753
G1 F15000 X101.907 Y108.625
G1 F1200 X103.554 Y110.271 E0.09681
G1 F15000 X102.847 Y110.271
G1 F1200 X101.552 Y108.977 E0.07611
G1 F15000 X101.197 Y109.329
G1 F1200 X102.140 Y110.271 E0.05542
G1 F15000 X101.433 Y110.271
G1 F1200 X100.692 Y109.884 E0.03476
G1 X100.725 Y110.271 E0.01614
G1 F15000 X106.487 Y104.012
G1 F1200 X110.001 Y107.526 E0.20661
G1 F15000 X110.001 Y106.819
G1 F1200 X106.788 Y103.606 E0.18892
G1 F15000 X107.075 Y103.185
G1 F1200 X110.001 Y106.111 E0.17203
G1 F15000 X110.001 Y105.405
G1 F1200 X107.341 Y102.745 E0.15640
G1 F15000 X107.575 Y102.272
G1 F1200 X110.001 Y104.698 E0.14264
G1 F15000 X110.001 Y103.991
G1 F1200 X107.791 Y101.780 E0.12997
G1 F15000 X107.985 Y101.268
G1 F1200 X110.001 Y103.284 E0.11853
G1 F15000 X110.002 Y102.577
G1 F1200 X108.139 Y100.714 E0.10954
G1 F15000 X108.264 Y100.132
G1 F1200 X110.002 Y101.870 E0.10219
G1 F15000 X110.002 Y101.163
G1 F1200 X108.355 Y99.516 E0.09683
G1 F15000 X108.406 Y98.860
G1 F1200 X110.003 Y100.457 E0.09390
G1 F15000 X110.003 Y99.750
G1 F1200 X108.400 Y98.147 E0.09425
G1 F15000 X108.325 Y97.365
G1 F1200 X110.003 Y99.043 E0.09866
G1 F15000 X110.003 Y98.336
G1 F1200 X108.144 Y96.477 E0.10930
G1 F15000 X107.797 Y95.422
G1 F1200 X110.003 Y97.629 E0.12974
G1 F15000 X110.003 Y96.922
G1 F1200 X107.058 Y93.976 E0.17318
G1 F15000 X110.005 Y94.095
G1 F1200 X105.639 Y89.729 E0.25671
G1 F15000 X104.932 Y89.729
G1 F1200 X110.004 Y94.801 E0.29821
G1 F15000 X110.004 Y95.508
G1 F1200 X104.225 Y89.729 E0.33978
G1 F15000 X103.518 Y89.729
G1 F1200 X110.004 Y96.216 E0.38138
G1 F15000 X110.005 Y93.388
G1 F1200 X106.346 Y89.729 E0.21514
G1 F15000 X107.053 Y89.729
G1 F1200 X110.005 Y92.681 E0.17357
G1 F15000 X109.923 Y91.892
G1 F1200 X107.881 Y89.849 E0.12009
G1 F15000 X109.115 Y90.377
G1 F1200 X109.460 Y90.721 E0.02025
G1 F15000 X104.426 Y91.345
G1 F1200 X102.811 Y89.729 E0.09499
G1 F15000 X102.104 Y89.729
G1 F1200 X102.983 Y90.609 E0.05171
G1 F15000 X101.932 Y90.265
G1 F1200 X101.220 Y89.907 E0.03154
G1 X100.475 Y89.869 E0.02090
G1 X99.767 Y89.867 E0.01637
G1 X99.042 Y89.849 E0.01188
G1 X98.376 Y89.891 E0.00971
G1 X97.735 Y89.957 E0.01881
G1 X97.110 Y90.039 E0.02662
G1 X96.448 Y89.731 E0.03036
G1 F15000 X95.741 Y89.731
G1 F1200 X96.547 Y90.537 E0.04739
G1 F15000 X96.056 Y90.753
G1 F1200 X95.034 Y89.731 E0.06009
G1 F15000 X94.327 Y89.731
G1 F1200 X95.595 Y90.998 E0.07452
G1 F15000 X95.148 Y91.259
G1 F1200 X93.620 Y89.731 E0.08984
G1 F15000 X93.013 Y89.831
G1 F1200 X94.728 Y91.546 E0.10084
G1 F15000 X94.330 Y91.855
G1 F1200 X92.292 Y89.817 E0.11983
G1 F15000 X93.945 Y92.177
G1 F1200 X88.826 Y87.058 E0.30097
G1 F15000 X88.474 Y87.413
G1 F1200 X93.590 Y92.529 E0.30081
G1 F15000 X93.252 Y92.898
G1 F1200 X88.122 Y87.768 E0.30162
G1 F15000 X87.770 Y88.123
G1 F1200 X92.930 Y93.284 E0.30342
G1 F15000 X92.638 Y93.699
G1 F1200 X87.418 Y88.479 E0.30691
G1 F15000 X87.066 Y88.834
G1 F1200 X92.360 Y94.127 E0.31124
G1 F15000 X92.105 Y94.580
G1 F1200 X86.714 Y89.189 E0.31697
G1 F15000 X89.534 Y92.716
G1 F1200 X91.879 Y95.061 E0.13788
G1 F15000 X91.672 Y95.561
G1 F1200 X89.534 Y93.423 E0.12570
G1 F15000 X89.533 Y94.130
G1 F1200 X91.491 Y96.088 E0.11513
G1 F15000 X91.349 Y96.652
G1 F1200 X89.533 Y94.837 E0.10674
G1 F15000 X89.533 Y95.544
G1 F1200 X91.211 Y97.222 E0.09866
G1 F15000 X91.073 Y97.791
G1 F1200 X89.533 Y96.250 E0.09058
G1 F15000 X89.533 Y96.957
G1 F1200 X91.121 Y98.545 E0.09336
G1 F15000 X91.149 Y99.281
G1 F1200 X89.532 Y97.664 E0.09508
G1 F15000 X89.532 Y98.371
G1 F1200 X91.252 Y100.091 E0.10113
G1 F15000 X91.472 Y101.017
G1 F1200 X89.532 Y99.078 E0.11403
G1 F15000 X89.531 Y99.784
G1 F1200 X91.886 Y102.139 E0.13847
G1 F15000 X92.914 Y103.874
G1 F1200 X89.531 Y100.491 E0.19891
G1 F15000 X89.531 Y101.198
G1 F1200 X98.605 Y110.272 E0.53351
G1 F15000 X99.089 Y110.049
G1 F1200 X99.274 Y110.234 E0.01088
G1 F15000 X97.898 Y110.272
G1 F1200 X89.531 Y101.905 E0.49195
G1 F15000 X89.530 Y102.611
G1 F1200 X97.191 Y110.272 E0.45043
G1 F15000 X96.484 Y110.272
G1 F1200 X89.530 Y103.318 E0.40887
G1 F15000 X89.530 Y104.026
G1 F1200 X95.776 Y110.272 E0.36724
G1 F15000 X95.069 Y110.272
G1 F1200 X89.529 Y104.732 E0.32573
G1 F15000 X89.529 Y105.439
G1 F1200 X94.362 Y110.272 E0.28417
G1 F15000 X93.655 Y110.272
G1 F1200 X89.528 Y106.145 E0.24265
G1 F15000 X89.528 Y106.853
G1 F1200 X92.948 Y110.272 E0.20105
G1 F15000 X92.241 Y110.272
G1 F1200 X89.528 Y107.560 E0.15949
G1 F15000 X89.675 Y108.414
G1 F1200 X91.394 Y110.132 E0.10104
;LAYER:1
M106 S127
G1 F1800.000 E-1.0
G1 Z0.400
G1 F15000 X91.736 Y110.382 
G1 F1800.000 E1.0
;TYPE:WALL-INNER
G1 F1620 X91.116 Y110.242 E0.02642
G1 X90.835 Y110.141 E0.01242
G1 X90.606 Y110.027 E0.01063
G1 X90.260 Y109.779 E0.01770
G1 X90.083 Y109.609 E0.01020
G1 X89.903 Y109.392 E0.01173
G1 X89.748 Y109.147 E0.01205
G1 X89.638 Y108.912 E0.01079
G1 X89.495 Y108.440 E0.02050
G1 X89.354 Y107.639 E0.03381
G1 X89.354 Y92.622 E0.62434
G1 X89.362 Y92.449 E0.00720
G1 X89.293 Y92.173 E0.01183
G1 X89.123 Y91.927 E0.01243
G1 X86.428 Y89.232 E0.15845
G1 X88.964 Y86.671 E0.14985
G1 X91.723 Y89.428 E0.16216
G1 X92.109 Y89.635 E0.01821
G1 X93.056 Y89.656 E0.03938
G1 X93.078 Y89.556 E0.00426
G1 X107.474 Y89.554 E0.59851
G1 X107.782 Y89.602 E0.01296
G1 X108.772 Y89.956 E0.04371
G1 X108.860 Y89.997 E0.00404
G1 X109.081 Y90.125 E0.01062
G1 X109.412 Y90.392 E0.01768
G1 X109.565 Y90.559 E0.00942
G1 X109.799 Y90.904 E0.01733
G1 X109.903 Y91.124 E0.01011
G1 X110.038 Y91.570 E0.01938
G1 X110.177 Y92.358 E0.03326
G1 X110.176 Y107.574 E0.63261
G1 X110.235 Y107.864 E0.01231
G1 X110.446 Y108.150 E0.01477
G1 X111.175 Y108.879 E0.04286
G1 X111.108 Y108.862 E0.00288
G1 X110.878 Y108.830 E0.00965
G1 X110.631 Y108.824 E0.01027
G1 X110.196 Y108.883 E0.01826
G1 X109.766 Y109.045 E0.01910
G1 X109.379 Y109.296 E0.01918
G1 X109.061 Y109.625 E0.01902
G1 X108.822 Y110.012 E0.01891
G1 X108.671 Y110.448 E0.01918
G1 X108.622 Y110.909 E0.01928
G1 X108.669 Y111.344 E0.01819
G1 X108.720 Y111.522 E0.00770
G1 X108.065 Y110.867 E0.03851
G1 X107.788 Y110.598 E0.01605
G1 X107.459 Y110.455 E0.01492
G1 X107.203 Y110.447 E0.01064
G1 X92.161 Y110.448 E0.62538
G1 X91.736 Y110.382 E0.01788
G1 F15000 X93.467 Y104.275
G1 F1620 X98.885 Y109.702 E0.31882
G1 X99.121 Y109.873 E0.01212
G1 X99.309 Y109.970 E0.00879
G1 X99.497 Y110.027 E0.00817
G1 X100.330 Y110.148 E0.03500
G1 X100.439 Y109.789 E0.01559
G1 X100.657 Y109.619 E0.01150
G1 X105.831 Y104.487 E0.30298
G1 X106.336 Y103.922 E0.03150
G1 X106.802 Y103.296 E0.03245
G1 X107.200 Y102.643 E0.03179
G1 X107.545 Y101.939 E0.03260
G1 X107.814 Y101.229 E0.03156
G1 X107.939 Y100.819 E0.01782
G1 X108.104 Y100.090 E0.03108
G1 X108.207 Y99.329 E0.03192
G1 X108.235 Y98.595 E0.03054
G1 X108.239 Y98.536 E0.00246
G1 X108.199 Y97.774 E0.03173
G1 X108.088 Y97.008 E0.03217
G1 X107.911 Y96.265 E0.03176
G1 X107.660 Y95.521 E0.03264
G1 X107.344 Y94.815 E0.03216
G1 X106.969 Y94.144 E0.03196
G1 X106.531 Y93.509 E0.03207
G1 X106.036 Y92.913 E0.03221
G1 X105.481 Y92.360 E0.03257
G1 X104.897 Y91.876 E0.03154
G1 X104.549 Y91.626 E0.01781
G1 X103.916 Y91.236 E0.03092
G1 X103.224 Y90.889 E0.03218
G1 X102.504 Y90.611 E0.03209
G1 X101.752 Y90.395 E0.03253
G1 X100.999 Y90.255 E0.03184
G1 X100.228 Y90.182 E0.03220
G1 X99.812 Y90.171 E0.01730
G1 X99.062 Y90.204 E0.03121
G1 X98.588 Y90.269 E0.01989
G1 X98.555 Y90.145 E0.00534
G1 X97.516 Y90.387 E0.04435
G1 X96.771 Y90.633 E0.03262
G1 X95.625 Y91.133 E0.05198
G1 X95.625 Y91.183 E0.00208
G1 X95.014 Y91.554 E0.02972
G1 X94.409 Y92.007 E0.03142
G1 X93.828 Y92.531 E0.03253
G1 X93.296 Y93.108 E0.03263
G1 X92.820 Y93.731 E0.03259
G1 X92.404 Y94.393 E0.03251
G1 X92.049 Y95.092 E0.03259
G1 X91.764 Y95.812 E0.03220
G1 X91.632 Y96.220 E0.01782
G1 X91.233 Y97.872 E0.07066
G1 X91.329 Y97.872 E0.00399
G1 X91.297 Y98.542 E0.02789
G1 X91.323 Y99.288 E0.03103
G1 X91.348 Y99.518 E0.00962
G1 X91.245 Y99.518 E0.00428
G1 X91.709 Y101.211 E0.07299
G1 X91.984 Y101.944 E0.03255
G1 X92.325 Y102.652 E0.03267
G1 X92.729 Y103.321 E0.03249
G1 X93.188 Y103.944 E0.03217
G1 X93.467 Y104.275 E0.01800
G1 F15000 X99.509 Y109.977
G1 X100.260 Y110.038
G1 X107.757 Y110.644
G1 X110.084 Y112.887
G1 F1620 X110.401 Y112.967 E0.01359
G1 X110.651 Y112.988 E0.01043
G1 X110.878 Y112.982 E0.00944
G1 X111.128 Y112.948 E0.01049
G1 X111.548 Y112.816 E0.01831
G1 X111.941 Y112.588 E0.01889
G1 X112.282 Y112.275 E0.01924
G1 X112.529 Y111.919 E0.01801
G1 X112.648 Y111.670 E0.01148
G1 X112.763 Y111.260 E0.01770
G1 X112.791 Y110.903 E0.01489
G1 X112.764 Y110.570 E0.01389
G1 X112.733 Y110.436 E0.00572
G1 X113.456 Y111.159 E0.04251
G1 X113.370 Y111.360 E0.00909
G1 X113.118 Y111.809 E0.02140
G1 X112.810 Y112.243 E0.02213
G1 X112.469 Y112.629 E0.02141
G1 X112.085 Y112.980 E0.02163
G1 X111.659 Y113.291 E0.02193
G1 X111.212 Y113.551 E0.02150
G1 X110.890 Y113.694 E0.01465
G1 X110.084 Y112.887 E0.04742
G1 F15000 X110.664 Y112.487
;TYPE:WALL-OUTER
G1 F1620 X110.837 Y112.483 E0.00719
G1 X111.019 Y112.458 E0.00764
G1 X111.345 Y112.355 E0.01421
G1 X111.643 Y112.183 E0.01431
G1 X111.903 Y111.944 E0.01468
G1 X112.095 Y111.667 E0.01401
G1 X112.178 Y111.493 E0.00802
G1 X112.268 Y111.171 E0.01390
G1 X112.290 Y110.904 E0.01114
G1 X112.269 Y110.647 E0.01072
G1 X112.172 Y110.307 E0.01470
G1 X112.008 Y110.003 E0.01436
G1 X111.783 Y109.742 E0.01432
G1 X111.507 Y109.540 E0.01422
G1 X111.344 Y109.458 E0.00759
G1 X111.179 Y109.396 E0.00733
G1 X111.012 Y109.353 E0.00717
G1 X110.837 Y109.329 E0.00734
G1 X110.658 Y109.325 E0.00744
G1 X110.319 Y109.371 E0.01423
G1 X109.993 Y109.494 E0.01448
G1 X109.699 Y109.685 E0.01458
G1 X109.458 Y109.934 E0.01441
G1 X109.277 Y110.227 E0.01431
G1 X109.162 Y110.558 E0.01457
G1 X109.125 Y110.908 E0.01464
G1 X109.162 Y111.247 E0.01417
G1 X109.212 Y111.424 E0.00765
G1 X109.359 Y111.736 E0.01434
G1 X109.574 Y112.011 E0.01451
G1 X109.840 Y112.231 E0.01435
G1 X110.155 Y112.390 E0.01467
G1 X110.483 Y112.472 E0.01406
G1 X110.664 Y112.487 E0.00755
G1 F15000 X110.636 Y112.836
G1 X110.784 Y113.801
G1 X110.536 Y114.046
G1 F1620 X107.714 Y111.223 E0.16595
G1 X107.505 Y111.020 E0.01212
G1 X107.348 Y110.952 E0.00711
G1 X107.196 Y110.947 E0.00632
G1 X92.123 Y110.948 E0.62666
G1 X90.974 Y110.723 E0.04868
G1 X90.645 Y110.604 E0.01455
G1 X90.343 Y110.454 E0.01402
G1 X89.941 Y110.166 E0.02056
G1 X89.715 Y109.949 E0.01302
G1 X89.496 Y109.684 E0.01429
G1 X89.311 Y109.393 E0.01434
G1 X89.168 Y109.086 E0.01408
G1 X89.010 Y108.564 E0.02268
G1 X88.909 Y108.046 E0.02194
G1 X88.854 Y107.681 E0.01534
G1 X88.854 Y92.621 E0.62613
G1 X88.859 Y92.499 E0.00507
G1 X88.830 Y92.383 E0.00497
G1 X88.738 Y92.249 E0.00676
G1 X85.951 Y89.463 E0.16384
G1 X85.740 Y89.268 E0.01194
G1 X85.711 Y89.253 E0.00136
G1 X88.976 Y85.949 E0.19312
G1 X89.028 Y86.028 E0.00393
G1 X92.024 Y89.022 E0.17609
G1 X92.252 Y89.144 E0.01076
G1 X92.653 Y89.156 E0.01667
G1 X92.675 Y89.056 E0.00426
G1 X107.512 Y89.054 E0.61685
G1 X107.996 Y89.129 E0.02036
G1 X108.401 Y89.221 E0.01727
G1 X108.378 Y89.284 E0.00279
G1 X108.960 Y89.492 E0.02570
G1 X109.092 Y89.553 E0.00604
G1 X109.364 Y89.710 E0.01306
G1 X109.757 Y90.028 E0.02102
G1 X109.958 Y90.247 E0.01235
G1 X110.234 Y90.654 E0.02045
G1 X110.372 Y90.946 E0.01343
G1 X110.526 Y91.455 E0.02211
G1 X110.677 Y92.311 E0.03613
G1 X110.676 Y107.523 E0.63245
G1 X110.703 Y107.656 E0.00564
G1 X110.826 Y107.823 E0.00862
G1 X113.772 Y110.768 E0.17318
G1 X113.924 Y110.868 E0.00757
G1 X114.081 Y110.921 E0.00689
G1 X114.048 Y111.046 E0.00537
G1 X113.821 Y111.579 E0.02409
G1 X113.542 Y112.075 E0.02366
G1 X113.202 Y112.555 E0.02445
G1 X112.829 Y112.977 E0.02342
G1 X112.404 Y113.365 E0.02393
G1 X111.931 Y113.711 E0.02436
G1 X111.437 Y113.998 E0.02375
G1 X110.917 Y114.230 E0.02368
G1 X110.660 Y114.321 E0.01133
G1 X110.632 Y114.203 E0.00504
G1 X110.536 Y114.046 E0.00765
G1 F15000 X110.784 Y113.801
G1 X108.790 Y111.581
G1 X105.730 Y104.374
G1 X105.468 Y104.142
G1 F1620 X105.949 Y103.605 E0.02998
G1 X106.387 Y103.016 E0.03051
G1 X106.761 Y102.402 E0.02989
G1 X107.086 Y101.740 E0.03066
G1 X107.341 Y101.068 E0.02989
G1 X107.611 Y100.001 E0.04575
G1 X107.708 Y99.286 E0.03000
G1 X107.737 Y98.566 E0.02996
G1 X107.738 Y98.535 E0.00129
G1 X107.701 Y97.823 E0.02964
G1 X107.597 Y97.102 E0.03029
G1 X107.430 Y96.403 E0.02988
G1 X107.194 Y95.704 E0.03067
G1 X106.897 Y95.040 E0.03024
G1 X106.544 Y94.408 E0.03010
G1 X106.132 Y93.811 E0.03015
G1 X105.667 Y93.251 E0.03027
G1 X105.144 Y92.731 E0.03066
G1 X104.591 Y92.272 E0.02988
G1 X104.272 Y92.042 E0.01635
G1 X103.673 Y91.673 E0.02925
G1 X103.021 Y91.347 E0.03030
G1 X102.345 Y91.086 E0.03013
G1 X101.637 Y90.882 E0.03063
G1 X100.930 Y90.750 E0.02991
G1 X100.198 Y90.681 E0.03056
G1 X99.817 Y90.671 E0.01585
G1 X99.107 Y90.703 E0.02955
G1 X98.383 Y90.802 E0.03038
G1 X98.221 Y90.839 E0.00691
G1 X98.195 Y90.742 E0.00417
G1 X97.651 Y90.869 E0.02323
G1 X96.950 Y91.100 E0.03068
G1 X96.125 Y91.460 E0.03743
G1 X96.125 Y91.478 E0.00074
G1 X95.631 Y91.751 E0.02347
G1 X95.300 Y91.965 E0.01639
G1 X94.727 Y92.394 E0.02976
G1 X94.180 Y92.887 E0.03061
G1 X93.679 Y93.430 E0.03072
G1 X93.231 Y94.016 E0.03067
G1 X92.839 Y94.640 E0.03063
G1 X92.505 Y95.298 E0.03068
G1 X92.235 Y95.981 E0.03054
G1 X92.114 Y96.355 E0.01634
G1 X91.868 Y97.372 E0.04350
G1 X91.899 Y97.372 E0.00129
G1 X91.838 Y97.779 E0.01711
G1 X91.807 Y98.168 E0.01622
G1 X91.797 Y98.540 E0.01547
G1 X91.822 Y99.251 E0.02958
G1 X91.932 Y100.018 E0.03222
G1 X91.900 Y100.018 E0.00133
G1 X92.185 Y101.057 E0.04479
G1 X92.444 Y101.747 E0.03064
G1 X92.765 Y102.414 E0.03078
G1 X93.145 Y103.043 E0.03055
G1 X93.581 Y103.634 E0.03053
G1 X93.836 Y103.936 E0.01643
G1 X99.210 Y109.321 E0.31630
G1 X99.383 Y109.446 E0.00887
G1 X99.498 Y109.505 E0.00538
G1 X99.606 Y109.538 E0.00469
G1 X99.976 Y109.591 E0.01554
G1 X100.024 Y109.433 E0.00687
G1 X100.180 Y109.359 E0.00717
G1 X100.324 Y109.244 E0.00767
G1 X105.468 Y104.142 E0.30121
G1 F15000 X105.730 Y104.374
G1 X106.874 Y103.490
;TYPE:FILL
G1 F1620 X110.000 Y100.363 E0.18383
G1 F15000 X110.000 Y99.656
G1 F1620 X107.741 Y101.916 E0.13285
G1 F15000 X108.115 Y100.834
G1 F1620 X110.000 Y98.949 E0.11083
G1 F15000 X110.000 Y98.242
G1 F1620 X108.299 Y99.943 E0.10001
G1 F15000 X108.388 Y99.146
G1 F1620 X110.000 Y97.535 E0.09475
G1 F15000 X110.000 Y96.828
G1 F1620 X108.407 Y98.421 E0.09366
G1 F15000 X108.372 Y97.749
G1 F1620 X110.000 Y96.121 E0.09572
G1 F15000 X110.000 Y95.414
G1 F1620 X108.282 Y97.131 E0.10099
G1 F15000 X108.158 Y96.549
G1 F1620 X110.000 Y94.707 E0.10830
G1 F15000 X110.000 Y93.999
G1 F1620 X108.004 Y95.995 E0.11736
G1 F15000 X107.826 Y95.467
G1 F1620 X110.000 Y93.292 E0.12785
G1 F15000 X110.000 Y92.585
G1 F1620 X107.608 Y94.977 E0.14064
G1 F15000 X107.372 Y94.506
G1 F1620 X109.926 Y91.952 E0.15016
G1 F15000 X109.795 Y91.376
G1 F1620 X107.118 Y94.053 E0.15740
G1 F15000 X106.829 Y93.635
G1 F1620 X109.576 Y90.888 E0.16151
G1 F15000 X109.262 Y90.495
G1 F1620 X106.527 Y93.230 E0.16081
G1 F15000 X106.206 Y92.844
G1 F1620 X108.854 Y90.195 E0.15572
G1 F15000 X108.352 Y89.991
G1 F1620 X105.855 Y92.488 E0.14682
G1 F15000 X105.492 Y92.143
G1 F1620 X107.831 Y89.804 E0.13752
G1 F15000 X107.200 Y89.729
G1 F1620 X105.105 Y91.823 E0.12315
G1 F15000 X104.701 Y91.520
G1 F1620 X106.493 Y89.729 E0.10533
G1 F15000 X105.786 Y89.729
G1 F1620 X104.267 Y91.247 E0.08929
G1 F15000 X103.816 Y90.991
G1 F1620 X105.078 Y89.729 E0.07420
G1 F15000 X104.371 Y89.729
G1 F1620 X103.345 Y90.755 E0.06032
G1 F15000 X102.840 Y90.553
G1 F1620 X103.664 Y89.729 E0.04845
G1 F15000 X102.957 Y89.729
G1 F1620 X102.035 Y90.296 E0.03789
G1 X101.895 Y89.729 E0.02875
G1 X100.999 Y89.918 E0.02223
G1 X100.328 Y89.882 E0.01794
G1 X99.640 Y89.863 E0.01574
G1 X98.919 Y89.877 E0.01744
G1 X98.231 Y89.858 E0.01517
G1 X97.533 Y90.203 E0.03237
G1 F15000 X97.299 Y89.730
G1 F1620 X96.445 Y90.583 E0.05018
G1 F15000 X96.592 Y89.730
G1 F1620 X94.905 Y91.417 E0.09919
G1 F15000 X95.177 Y89.730
G1 F1620 X89.528 Y95.379 E0.33214
G1 F15000 X89.528 Y96.086
G1 F1620 X95.885 Y89.730 E0.37374
G1 F15000 X94.470 Y89.730
G1 F1620 X89.528 Y94.672 E0.29057
G1 F15000 X89.528 Y93.965
G1 F1620 X93.763 Y89.730 E0.24900
G1 F15000 X92.959 Y89.828
G1 F1620 X89.528 Y93.258 E0.20170
G1 F15000 X89.533 Y92.546
G1 F1620 X92.266 Y89.813 E0.16069
G1 F15000 X91.737 Y89.634
G1 F1620 X89.381 Y91.991 E0.13856
G1 F15000 X89.055 Y91.610
G1 F1620 X91.356 Y89.309 E0.13529
G1 F15000 X91.002 Y88.956
G1 F1620 X88.701 Y91.257 E0.13529
G1 F15000 X88.348 Y90.903
G1 F1620 X90.648 Y88.602 E0.13526
G1 F15000 X90.295 Y88.249
G1 F1620 X87.994 Y90.549 E0.13526
G1 F15000 X87.640 Y90.196
G1 F1620 X89.941 Y87.895 E0.13529
G1 F15000 X89.588 Y87.541
G1 F1620 X87.287 Y89.842 E0.13529
G1 F15000 X86.933 Y89.489
G1 F1620 X89.234 Y87.188 E0.13529
G1 F15000 X92.647 Y93.675
G1 F1620 X89.528 Y96.793 E0.18335
G1 F15000 X89.528 Y97.500
G1 F1620 X91.810 Y95.219 E0.13415
G1 F15000 X91.431 Y96.305
G1 F1620 X89.528 Y98.207 E0.11186
G1 F15000 X89.528 Y98.915
G1 F1620 X91.205 Y97.238 E0.09860
G1 F15000 X91.105 Y98.046
G1 F1620 X89.528 Y99.622 E0.09269
G1 F15000 X89.528 Y100.329
G1 F1620 X91.128 Y98.729 E0.09407
G1 F15000 X91.059 Y99.505
G1 F1620 X89.528 Y101.036 E0.09002
G1 F15000 X89.528 Y101.743
G1 F1620 X91.211 Y100.060 E0.09895
G1 F15000 X91.363 Y100.615
G1 F1620 X89.528 Y102.450 E0.10789
G1 F15000 X89.528 Y103.157
G1 F1620 X91.515 Y101.170 E0.11683
G1 F15000 X91.701 Y101.691
G1 F1620 X89.528 Y103.864 E0.12777
G1 F15000 X89.528 Y104.571
G1 F1620 X91.909 Y102.191 E0.13996
G1 F15000 X92.139 Y102.668
G1 F1620 X89.528 Y105.279 E0.15352
G1 F15000 X89.528 Y105.986
G1 F1620 X92.399 Y103.115 E0.16880
G1 F15000 X92.676 Y103.545
G1 F1620 X89.528 Y106.693 E0.18509
G1 F15000 X89.528 Y107.400
G1 F1620 X92.976 Y103.952 E0.20273
G1 F15000 X93.294 Y104.342
G1 F1620 X89.601 Y108.034 E0.21711
G1 F15000 X89.731 Y108.612
G1 F1620 X93.643 Y104.699 E0.23004
G1 F15000 X93.997 Y105.053
G1 F1620 X89.935 Y109.115 E0.23883
G1 F15000 X90.240 Y109.517
G1 F1620 X94.349 Y105.407 E0.24162
G1 F15000 X94.703 Y105.761
G1 F1620 X90.634 Y109.830 E0.23924
G1 F15000 X91.115 Y110.056
G1 F1620 X95.056 Y106.115 E0.23172
G1 F15000 X95.409 Y106.469
G1 F1620 X91.687 Y110.191 E0.21884
G1 F15000 X92.313 Y110.272
G1 F1620 X95.762 Y106.823 E0.20278
G1 F15000 X96.116 Y107.176
G1 F1620 X93.020 Y110.272 E0.18204
G1 F15000 X93.727 Y110.272
G1 F1620 X96.469 Y107.531 E0.16119
G1 F15000 X96.822 Y107.884
G1 F1620 X94.434 Y110.272 E0.14040
G1 F15000 X95.141 Y110.272
G1 F1620 X97.176 Y108.238 E0.11962
G1 F15000 X97.529 Y108.592
G1 F1620 X95.849 Y110.272 E0.09878
G1 F15000 X96.556 Y110.272
G1 F1620 X97.882 Y108.946 E0.07796
G1 F15000 X98.235 Y109.300
G1 F1620 X97.263 Y110.272 E0.05715
G1 F15000 X97.970 Y110.272
G1 F1620 X98.779 Y109.816 E0.03637
G1 X98.677 Y110.272 E0.01943
G1 F15000 X100.800 Y110.271
G1 F1620 X110.000 Y101.071 E0.54093
G1 F15000 X110.000 Y101.778
G1 F1620 X101.507 Y110.271 E0.49935
G1 F15000 X102.214 Y110.271
G1 F1620 X110.000 Y102.485 E0.45779
G1 F15000 X110.000 Y103.192
G1 F1620 X102.921 Y110.271 E0.41622
G1 F15000 X103.628 Y110.271
G1 F1620 X110.000 Y103.899 E0.37465
G1 F15000 X110.000 Y104.606
G1 F1620 X104.335 Y110.271 E0.33308
G1 F15000 X105.042 Y110.271
G1 F1620 X110.000 Y105.313 E0.29151
G1 F15000 X110.000 Y106.020
G1 F1620 X105.749 Y110.271 E0.24994
G1 F15000 X106.457 Y110.271
G1 F1620 X110.000 Y106.727 E0.20834
G1 F15000 X110.000 Y107.434
G1 F1620 X107.164 Y110.271 E0.16678
G1 F15000 X107.750 Y110.392
G1 F1620 X110.126 Y108.015 E0.13973
G1 F15000 X110.448 Y108.400
G1 F1620 X110.127 Y108.721 E0.01887
G1 F15000 X108.529 Y110.319
G1 F1620 X108.147 Y110.702 E0.02249
G92 E0
G1 F3600 E-10.00000
;Switch between the current extruder and the next extruder, when printing with multiple extruders.
;This code is added before the T(n)
G1 X0 F12000

T1
;Switch between the current extruder and the next extruder, when printing with multiple extruders.
;This code is added after the T(n)
M116

G1 F15000 X82.180 Y117.839
;TYPE:SUPPORT
G1 F3600 E10.00000
G1 F1620 X82.180 Y126.499 E0.36004
G1 X73.520 Y126.499 E0.36004
G1 X73.520 Y117.839 E0.36004
G1 X82.180 Y117.839 E0.36004
G1 F15000 X81.994 Y117.762
G1 F1620 X73.445 Y126.312 E0.50268
G1 F15000 X73.891 Y126.573
G1 F1620 X82.254 Y118.209 E0.49174
G1 F15000 X82.254 Y118.916
G1 F1620 X74.598 Y126.573 E0.45018
G1 F15000 X75.305 Y126.573
G1 F1620 X82.254 Y119.624 E0.40857
G1 F15000 X81.287 Y117.762
G1 F1620 X73.445 Y125.605 E0.46111
G1 F15000 X73.445 Y124.898
G1 F1620 X80.580 Y117.762 E0.41954
G1 F15000 X79.873 Y117.762
G1 F1620 X73.445 Y124.191 E0.37797
G1 F15000 X73.445 Y123.484
G1 F1620 X79.166 Y117.762 E0.33640
G1 F15000 X78.459 Y117.762
G1 F1620 X73.445 Y122.777 E0.29484
G1 F15000 X73.445 Y122.069
G1 F1620 X77.752 Y117.762 E0.25323
G1 F15000 X77.044 Y117.762
G1 F1620 X73.445 Y121.362 E0.21164
G1 F15000 X73.445 Y120.655
G1 F1620 X76.337 Y117.762 E0.17007
G1 F15000 X75.630 Y117.762
G1 F1620 X73.445 Y119.948 E0.12850
G1 F15000 X73.445 Y119.241
G1 F1620 X74.923 Y117.762 E0.08693
G1 F15000 X74.216 Y117.762
G1 F1620 X73.445 Y118.534 E0.04536
G1 F15000 X76.012 Y126.573
G1 F1620 X82.254 Y120.331 E0.36700
G1 F15000 X82.254 Y121.038
G1 F1620 X76.719 Y126.573 E0.32544
G1 F15000 X77.426 Y126.573
G1 F1620 X82.254 Y121.745 E0.28387
G1 F15000 X82.254 Y122.452
G1 F1620 X78.133 Y126.573 E0.24230
G1 F15000 X78.840 Y126.573
G1 F1620 X82.254 Y123.159 E0.20073
G1 F15000 X82.254 Y123.866
G1 F1620 X79.548 Y126.573 E0.15913
G1 F15000 X80.255 Y126.573
G1 F1620 X82.254 Y124.573 E0.11756
G1 F15000 X82.254 Y125.280
G1 F1620 X80.962 Y126.573 E0.07600
G1 F15000 X81.669 Y126.573
G1 F1620 X82.254 Y125.988 E0.03439
G1 F3600 E-3.00000
G1 F15000 X77.850 Y122.169
G1 X87.706 Y112.144
;TYPE:WALL-INNER
G1 F3600 E3.00000
G1 F1620 X87.319 Y111.705 E0.02433
G1 X86.993 Y111.257 E0.02304
G1 X86.695 Y110.763 E0.02398
G1 X86.453 Y110.261 E0.02317
G1 X86.242 Y109.701 E0.02488
G1 X86.099 Y109.189 E0.02210
G1 X85.993 Y108.612 E0.02439
G1 X85.941 Y108.047 E0.02359
G1 X85.944 Y90.408 E0.73335
G1 X88.189 Y92.649 E0.13188
G1 X88.241 Y92.706 E0.00320
G1 X88.237 Y107.738 E0.62496
G1 X88.324 Y108.299 E0.02360
G1 X88.427 Y108.805 E0.02147
G1 X88.610 Y109.393 E0.02561
G1 X88.883 Y109.941 E0.02545
G1 X89.253 Y110.434 E0.02563
G1 X89.707 Y110.863 E0.02597
G1 X90.216 Y111.200 E0.02538
G1 X90.782 Y111.444 E0.02562
G1 X91.403 Y111.608 E0.02670
G1 X92.006 Y111.711 E0.02544
G1 X92.246 Y111.748 E0.01009
G1 X107.288 Y111.748 E0.62538
G1 X109.627 Y114.084 E0.13743
G1 X91.704 Y114.063 E0.74515
G1 X91.155 Y113.989 E0.02304
G1 X90.602 Y113.864 E0.02357
G1 X90.060 Y113.690 E0.02366
G1 X89.540 Y113.468 E0.02351
G1 X89.027 Y113.193 E0.02420
G1 X88.561 Y112.888 E0.02315
G1 X88.110 Y112.529 E0.02397
G1 X87.706 Y112.144 E0.02320
G1 F15000 X87.344 Y112.490
;TYPE:WALL-OUTER
G1 F1620 X86.932 Y112.023 E0.02589
G1 X86.573 Y111.529 E0.02539
G1 X86.258 Y111.005 E0.02542
G1 X85.990 Y110.450 E0.02562
G1 X85.769 Y109.865 E0.02600
G1 X85.610 Y109.296 E0.02457
G1 X85.497 Y108.680 E0.02603
G1 X85.441 Y108.071 E0.02543
G1 X85.444 Y89.936 E0.75397
G1 X85.513 Y89.642 E0.01255
G1 X85.532 Y89.615 E0.00137
G1 X85.560 Y89.593 E0.00148
G1 X85.745 Y89.532 E0.00810
G1 X85.743 Y89.512 E0.00084
G1 X85.769 Y89.527 E0.00125
G1 X88.552 Y92.305 E0.16348
G1 X88.732 Y92.501 E0.01106
G1 X88.737 Y92.511 E0.00047
G1 X88.741 Y92.583 E0.00300
G1 X88.737 Y107.700 E0.62849
G1 X88.816 Y108.211 E0.02149
G1 X88.912 Y108.680 E0.01991
G1 X89.075 Y109.206 E0.02289
G1 X89.310 Y109.677 E0.02189
G1 X89.628 Y110.100 E0.02200
G1 X90.019 Y110.470 E0.02238
G1 X90.455 Y110.759 E0.02175
G1 X90.945 Y110.970 E0.02218
G1 X91.509 Y111.119 E0.02425
G1 X92.086 Y111.218 E0.02434
G1 X92.284 Y111.248 E0.00832
G1 X107.373 Y111.248 E0.62733
G1 X107.454 Y111.247 E0.00337
G1 X107.484 Y111.254 E0.00128
G1 X107.529 Y111.282 E0.00220
G1 X110.480 Y114.229 E0.17339
G1 X110.540 Y114.327 E0.00478
G1 X110.546 Y114.357 E0.00127
G1 X110.456 Y114.383 E0.00390
G1 X110.421 Y114.470 E0.00390
G1 X110.398 Y114.497 E0.00147
G1 X110.376 Y114.509 E0.00104
G1 X110.017 Y114.584 E0.01525
G1 X91.674 Y114.563 E0.76261
G1 X91.067 Y114.481 E0.02547
G1 X90.465 Y114.345 E0.02566
G1 X89.885 Y114.159 E0.02532
G1 X89.317 Y113.917 E0.02567
G1 X88.779 Y113.629 E0.02537
G1 X88.270 Y113.295 E0.02531
G1 X87.776 Y112.902 E0.02625
G1 X87.344 Y112.490 E0.02482
G1 F15000 X87.788 Y111.969
;TYPE:FILL
G1 F1620 X89.166 Y110.591 E0.08102
G1 F15000 X89.529 Y110.935
G1 F1620 X88.144 Y112.320 E0.08143
G1 F15000 X88.531 Y112.639
G1 F1620 X89.943 Y111.227 E0.08302
G1 F15000 X90.407 Y111.471
G1 F1620 X88.947 Y112.931 E0.08584
G1 F15000 X89.394 Y113.191
G1 F1620 X90.924 Y111.661 E0.08996
G1 F15000 X91.493 Y111.799
G1 F1620 X89.873 Y113.419 E0.09525
G1 F15000 X90.388 Y113.611
G1 F1620 X92.099 Y111.901 E0.10057
G1 F15000 X92.785 Y111.922
G1 F1620 X90.945 Y113.761 E0.10816
G1 F15000 X91.549 Y113.864
G1 F1620 X93.492 Y111.922 E0.11421
G1 F15000 X94.199 Y111.922
G1 F1620 X92.233 Y113.888 E0.11559
G1 F15000 X92.939 Y113.888
G1 F1620 X94.906 Y111.922 E0.11562
G1 F15000 X95.613 Y111.922
G1 F1620 X93.645 Y113.890 E0.11571
G1 F15000 X94.352 Y113.890
G1 F1620 X96.320 Y111.922 E0.11572
G1 F15000 X97.027 Y111.922
G1 F1620 X95.058 Y113.891 E0.11577
G1 F15000 X95.764 Y113.892
G1 F1620 X97.734 Y111.922 E0.11582
G1 F15000 X98.441 Y111.922
G1 F1620 X96.471 Y113.892 E0.11583
G1 F15000 X97.177 Y113.893
G1 F1620 X99.149 Y111.922 E0.11592
G1 F15000 X99.856 Y111.922
G1 F1620 X97.884 Y113.894 E0.11594
G1 F15000 X98.589 Y113.895
G1 F1620 X100.563 Y111.922 E0.11604
G1 F15000 X101.270 Y111.922
G1 F1620 X99.296 Y113.896 E0.11606
G1 F15000 X90.240 Y111.156
G1 X88.855 Y110.195
G1 F1620 X87.455 Y111.594 E0.08229
G1 F15000 X87.157 Y111.185
G1 F1620 X88.591 Y109.751 E0.08431
G1 F15000 X88.383 Y109.252
G1 F1620 X86.889 Y110.746 E0.08784
G1 F15000 X86.654 Y110.274
G1 F1620 X88.227 Y108.701 E0.09249
G1 F15000 X88.116 Y108.105
G1 F1620 X86.454 Y109.767 E0.09772
G1 F15000 X86.291 Y109.223
G1 F1620 X88.061 Y107.453 E0.10407
G1 F15000 X88.061 Y106.746
G1 F1620 X86.175 Y108.632 E0.11089
G1 F15000 X86.116 Y107.984
G1 F1620 X88.061 Y106.039 E0.11436
G1 F15000 X88.061 Y105.332
G1 F1620 X86.116 Y107.277 E0.11435
G1 F15000 X86.116 Y106.570
G1 F1620 X88.062 Y104.624 E0.11442
G1 F15000 X88.062 Y103.917
G1 F1620 X86.116 Y105.863 E0.11442
G1 F15000 X86.116 Y105.155
G1 F1620 X88.062 Y103.210 E0.11439
G1 F15000 X88.063 Y102.502
G1 F1620 X86.117 Y104.448 E0.11441
G1 F15000 X86.117 Y103.741
G1 F1620 X88.063 Y101.795 E0.11442
G1 F15000 X88.063 Y101.087
G1 F1620 X86.117 Y103.033 E0.11442
G1 F15000 X86.117 Y102.326
G1 F1620 X88.063 Y100.380 E0.11442
G1 F15000 X88.063 Y99.673
G1 F1620 X86.117 Y101.619 E0.11441
G1 F15000 X86.117 Y100.911
G1 F1620 X88.063 Y98.965 E0.11442
G1 F15000 X88.063 Y98.258
G1 F1620 X86.117 Y100.204 E0.11442
G1 F15000 X86.117 Y99.497
G1 F1620 X88.064 Y97.551 E0.11445
G1 F15000 X88.064 Y96.843
G1 F1620 X86.117 Y98.790 E0.11447
G1 F15000 X86.117 Y98.083
G1 F1620 X88.064 Y96.136 E0.11448
G1 F15000 X88.064 Y95.429
G1 F1620 X86.118 Y97.375 E0.11441
G1 F15000 X86.118 Y96.668
G1 F1620 X88.065 Y94.721 E0.11448
G1 F15000 X88.065 Y94.014
G1 F1620 X86.118 Y95.961 E0.11448
G1 F15000 X86.118 Y95.254
G1 F1620 X88.065 Y93.307 E0.11447
G1 F15000 X87.978 Y92.686
G1 F1620 X86.118 Y94.547 E0.10939
G1 F15000 X86.119 Y93.839
G1 F1620 X87.625 Y92.333 E0.08855
G1 F15000 X87.271 Y91.979
G1 F1620 X86.119 Y93.132 E0.06776
G1 F15000 X86.119 Y92.425
G1 F1620 X86.917 Y91.626 E0.04695
G1 F15000 X86.564 Y91.273
G1 F1620 X86.119 Y91.364 E0.02614
G1 X86.204 Y90.925 E0.01859
G1 F15000 X88.658 Y109.373
G1 X89.739 Y110.823
G1 X92.251 Y111.697
G1 X101.977 Y111.922
G1 F1620 X100.002 Y113.897 E0.11612
G1 F15000 X100.708 Y113.897
G1 F1620 X102.684 Y111.922 E0.11615
G1 F15000 X103.391 Y111.922
G1 F1620 X101.415 Y113.898 E0.11618
G1 F15000 X102.121 Y113.899
G1 F1620 X104.098 Y111.922 E0.11624
G1 F15000 X104.805 Y111.922
G1 F1620 X102.828 Y113.900 E0.11627
G1 F15000 X103.533 Y113.901
G1 F1620 X105.513 Y111.922 E0.11639
G1 F15000 X106.220 Y111.922
G1 F1620 X104.240 Y113.902 E0.11642
G1 F15000 X104.946 Y113.902
G1 F1620 X106.927 Y111.922 E0.11644
G1 F15000 X107.425 Y112.131
G1 F1620 X105.653 Y113.903 E0.10419
G1 F15000 X106.359 Y113.904
G1 F1620 X107.778 Y112.485 E0.08343
G1 F15000 X108.132 Y112.837
G1 F1620 X107.065 Y113.905 E0.06277
G1 F15000 X107.772 Y113.905
G1 F1620 X108.487 Y113.190 E0.04203
G1 F15000 X108.840 Y113.544
G1 F1620 X108.477 Y113.907 E0.02135
G1 F3600 E-3.00000
G1 F15000 X111.859 Y107.248
;TYPE:WALL-INNER
G1 F3600 E3.00000
G1 F1620 X111.864 Y92.247 E0.62367
G1 X111.678 Y91.192 E0.04454
G1 X111.551 Y90.749 E0.01915
G1 X111.308 Y90.187 E0.02546
G1 X110.962 Y89.665 E0.02604
G1 X110.523 Y89.200 E0.02658
G1 X110.021 Y88.823 E0.02611
G1 X109.626 Y88.611 E0.01863
G1 X109.577 Y88.593 E0.00217
G1 X109.579 Y88.582 E0.00047
G1 X108.951 Y88.364 E0.02764
G1 X108.837 Y88.373 E0.00475
G1 X108.243 Y88.205 E0.02566
G1 X108.199 Y88.324 E0.00528
G1 X107.764 Y88.256 E0.01830
G1 X92.924 Y88.254 E0.61698
G1 X92.805 Y88.205 E0.00535
G1 X90.525 Y85.916 E0.13432
G1 X108.296 Y85.939 E0.73883
G1 X108.845 Y86.013 E0.02303
G1 X109.398 Y86.138 E0.02358
G1 X109.940 Y86.312 E0.02366
G1 X110.461 Y86.534 E0.02355
G1 X110.971 Y86.808 E0.02407
G1 X111.438 Y87.114 E0.02321
G1 X111.893 Y87.474 E0.02412
G1 X112.300 Y87.862 E0.02338
G1 X112.673 Y88.286 E0.02348
G1 X113.014 Y88.753 E0.02404
G1 X113.305 Y89.237 E0.02348
G1 X113.552 Y89.750 E0.02367
G1 X113.833 Y90.546 E0.03509
G1 X113.963 Y91.102 E0.02374
G1 X114.039 Y91.656 E0.02325
G1 X114.069 Y109.465 E0.74041
G1 X111.859 Y107.248 E0.13015
G1 F15000 X111.359 Y107.454
;TYPE:WALL-OUTER
G1 F1620 X111.364 Y92.291 E0.63040
G1 X111.190 Y91.305 E0.04163
G1 X111.079 Y90.918 E0.01674
G1 X110.867 Y90.426 E0.02227
G1 X110.569 Y89.977 E0.02241
G1 X110.188 Y89.574 E0.02305
G1 X109.751 Y89.246 E0.02272
G1 X109.421 Y89.068 E0.01559
G1 X108.881 Y88.871 E0.02390
G1 X108.788 Y88.878 E0.00387
G1 X108.552 Y88.812 E0.01019
G1 X108.520 Y88.898 E0.00382
G1 X107.725 Y88.756 E0.03357
G1 X92.741 Y88.754 E0.62297
G1 X92.748 Y88.722 E0.00136
G1 X92.520 Y88.628 E0.01025
G1 X89.569 Y85.664 E0.17389
G1 X89.556 Y85.633 E0.00140
G1 X89.555 Y85.623 E0.00042
G1 X89.561 Y85.572 E0.00213
G1 X89.577 Y85.536 E0.00164
G1 X89.606 Y85.504 E0.00179
G1 X89.639 Y85.485 E0.00159
G1 X90.002 Y85.415 E0.01537
G1 X108.326 Y85.439 E0.76182
G1 X108.933 Y85.521 E0.02547
G1 X109.535 Y85.657 E0.02566
G1 X110.115 Y85.843 E0.02532
G1 X110.684 Y86.085 E0.02571
G1 X111.219 Y86.372 E0.02524
G1 X111.737 Y86.712 E0.02576
G1 X112.219 Y87.094 E0.02557
G1 X112.656 Y87.511 E0.02511
G1 X113.068 Y87.979 E0.02592
G1 X113.427 Y88.472 E0.02536
G1 X113.744 Y88.998 E0.02553
G1 X114.009 Y89.546 E0.02531
G1 X114.316 Y90.415 E0.03831
G1 X114.455 Y91.012 E0.02549
G1 X114.539 Y91.623 E0.02564
G1 X114.570 Y109.786 E0.75513
G1 X114.535 Y110.192 E0.01694
G1 X114.487 Y110.360 E0.00727
G1 X114.469 Y110.386 E0.00131
G1 X114.438 Y110.409 E0.00161
G1 X114.401 Y110.422 E0.00163
G1 X114.347 Y110.422 E0.00224
G1 X114.270 Y110.375 E0.00375
G1 X111.359 Y107.454 E0.17145
G1 F15000 X112.207 Y107.349
;TYPE:FILL
G1 F1620 X113.886 Y105.670 E0.09872
G1 F15000 X113.887 Y106.376
G1 F1620 X112.560 Y107.703 E0.07802
G1 F15000 X112.912 Y108.057
G1 F1620 X113.888 Y107.082 E0.05736
G1 F15000 X113.890 Y107.787
G1 F1620 X113.441 Y108.589 E0.03668
G1 X113.891 Y108.493 E0.01913
G1 F15000 X112.033 Y106.815
G1 F1620 X113.885 Y104.964 E0.10887
G1 F15000 X113.883 Y104.258
G1 F1620 X112.033 Y106.108 E0.10877
G1 F15000 X112.033 Y105.401
G1 F1620 X113.883 Y103.552 E0.10874
G1 F15000 X113.881 Y102.846
G1 F1620 X112.034 Y104.693 E0.10860
G1 F15000 X112.034 Y103.986
G1 F1620 X113.880 Y102.140 E0.10854
G1 F15000 X113.879 Y101.434
G1 F1620 X112.034 Y103.279 E0.10848
G1 F15000 X112.035 Y102.571
G1 F1620 X113.878 Y100.728 E0.10836
G1 F15000 X113.876 Y100.023
G1 F1620 X112.035 Y101.864 E0.10824
G1 F15000 X112.035 Y101.157
G1 F1620 X113.876 Y99.316 E0.10824
G1 F15000 X113.874 Y98.610
G1 F1620 X112.036 Y100.449 E0.10810
G1 F15000 X112.036 Y99.742
G1 F1620 X113.873 Y97.905 E0.10801
G1 F15000 X113.872 Y97.198
G1 F1620 X112.036 Y99.035 E0.10798
G1 F15000 X112.036 Y98.327
G1 F1620 X113.871 Y96.493 E0.10786
G1 F15000 X113.869 Y95.787
G1 F1620 X112.036 Y97.620 E0.10777
G1 F15000 X112.036 Y96.913
G1 F1620 X113.868 Y95.081 E0.10772
G1 F15000 X113.867 Y94.375
G1 F1620 X112.037 Y96.205 E0.10760
G1 F15000 X112.037 Y95.498
G1 F1620 X113.866 Y93.669 E0.10753
G1 F15000 X113.865 Y92.963
G1 F1620 X112.037 Y94.791 E0.10748
G1 F15000 X112.038 Y94.083
G1 F1620 X113.863 Y92.257 E0.10734
G1 F15000 X113.848 Y91.566
G1 F1620 X112.038 Y93.376 E0.10642
G1 F15000 X112.038 Y92.669
G1 F1620 X113.748 Y90.958 E0.10057
G1 F15000 X113.595 Y90.404
G1 F1620 X111.997 Y92.002 E0.09395
G1 F15000 X111.891 Y91.401
G1 F1620 X113.411 Y89.881 E0.08937
G1 F15000 X113.187 Y89.398
G1 F1620 X111.756 Y90.829 E0.08414
G1 F15000 X111.556 Y90.322
G1 F1620 X112.927 Y88.951 E0.08061
G1 F15000 X112.637 Y88.534
G1 F1620 X111.304 Y89.866 E0.07835
G1 F15000 X111.006 Y89.458
G1 F1620 X112.316 Y88.147 E0.07705
G1 F15000 X111.968 Y87.788
G1 F1620 X110.663 Y89.094 E0.07676
G1 F15000 X110.263 Y88.787
G1 F1620 X111.592 Y87.457 E0.07817
G1 F15000 X111.186 Y87.157
G1 F1620 X109.824 Y88.519 E0.08008
G1 F15000 X109.326 Y88.309
G1 F1620 X110.749 Y86.886 E0.08366
G1 F15000 X110.281 Y86.648
G1 F1620 X108.759 Y88.169 E0.08946
G1 F15000 X108.207 Y88.014
G1 F1620 X109.778 Y86.443 E0.09237
G1 F15000 X109.234 Y86.280
G1 F1620 X107.434 Y88.080 E0.10583
G1 F15000 X106.727 Y88.080
G1 F1620 X108.645 Y86.162 E0.11278
G1 F15000 X107.987 Y86.113
G1 F1620 X106.020 Y88.080 E0.11565
G1 F15000 X105.312 Y88.080
G1 F1620 X107.280 Y86.112 E0.11571
G1 F15000 X106.575 Y86.111
G1 F1620 X104.605 Y88.080 E0.11580
G1 F15000 X103.898 Y88.080
G1 F1620 X105.868 Y86.110 E0.11583
G1 F15000 X105.162 Y86.110
G1 F1620 X103.191 Y88.080 E0.11585
G1 F15000 X102.484 Y88.080
G1 F1620 X104.455 Y86.109 E0.11589
G1 F15000 X103.750 Y86.107
G1 F1620 X101.777 Y88.080 E0.11601
G1 F15000 X101.070 Y88.080
G1 F1620 X103.043 Y86.107 E0.11600
G1 F15000 X102.337 Y86.106
G1 F1620 X100.363 Y88.080 E0.11606
G1 F15000 X99.656 Y88.080
G1 F1620 X101.631 Y86.105 E0.11613
G1 F15000 X100.925 Y86.104
G1 F1620 X98.949 Y88.080 E0.11618
G1 F15000 X98.242 Y88.080
G1 F1620 X100.218 Y86.103 E0.11621
G1 F15000 X99.512 Y86.102
G1 F1620 X97.535 Y88.080 E0.11627
G1 F15000 X96.828 Y88.080
G1 F1620 X98.806 Y86.101 E0.11633
G1 F15000 X98.100 Y86.100
G1 F1620 X96.121 Y88.080 E0.11638
G1 F15000 X95.414 Y88.080
G1 F1620 X97.394 Y86.100 E0.11642
G1 F15000 X96.687 Y86.099
G1 F1620 X94.707 Y88.080 E0.11645
G1 F15000 X93.999 Y88.080
G1 F1620 X95.981 Y86.098 E0.11653
G1 F15000 X95.275 Y86.097
G1 F1620 X93.292 Y88.080 E0.11659
G1 F15000 X92.756 Y87.908
G1 F1620 X94.569 Y86.096 E0.10657
G1 F15000 X93.862 Y86.095
G1 F1620 X92.404 Y87.554 E0.08575
G1 F15000 X92.051 Y87.200
G1 F1620 X93.157 Y86.094 E0.06503
G1 F15000 X92.450 Y86.093
G1 F1620 X91.698 Y86.846 E0.04425
G1 F15000 X91.346 Y86.491
G1 F1620 X91.744 Y86.093 E0.02340
G1 F3600 E-3.00000
G1 F15000 X95.997 Y92.825
;TYPE:WALL-INNER
G1 F3600 E3.00000
G1 F1620 X96.858 Y92.315 E0.04160
G1 X97.773 Y91.935 E0.04119
G1 X98.936 Y91.593 E0.05040
G1 X98.927 Y91.558 E0.00151
G1 X99.225 Y91.514 E0.01252
G1 X99.738 Y91.477 E0.02138
G1 X99.990 Y91.472 E0.01048
G1 X100.511 Y91.490 E0.02168
G1 X101.255 Y91.581 E0.03116
G1 X101.749 Y91.689 E0.02102
G1 X102.234 Y91.830 E0.02100
G1 X102.711 Y92.007 E0.02115
G1 X103.176 Y92.219 E0.02125
G1 X103.621 Y92.461 E0.02106
G1 X104.056 Y92.739 E0.02146
G1 X104.452 Y93.034 E0.02053
G1 X104.841 Y93.370 E0.02137
G1 X105.207 Y93.735 E0.02149
G1 X105.535 Y94.112 E0.02078
G1 X105.851 Y94.533 E0.02188
G1 X106.115 Y94.943 E0.02028
G1 X106.362 Y95.394 E0.02138
G1 X106.573 Y95.853 E0.02100
G1 X106.754 Y96.335 E0.02140
G1 X106.894 Y96.808 E0.02051
G1 X107.006 Y97.319 E0.02175
G1 X107.078 Y97.813 E0.02076
G1 X107.116 Y98.330 E0.02155
G1 X107.121 Y98.581 E0.01044
G1 X107.103 Y99.101 E0.02163
G1 X107.012 Y99.846 E0.03120
G1 X106.904 Y100.339 E0.02098
G1 X106.764 Y100.819 E0.02079
G1 X106.586 Y101.303 E0.02144
G1 X106.373 Y101.770 E0.02134
G1 X106.133 Y102.210 E0.02084
G1 X105.855 Y102.644 E0.02143
G1 X105.557 Y103.045 E0.02077
G1 X105.225 Y103.430 E0.02113
G1 X100.054 Y108.566 E0.30301
G1 X94.707 Y103.200 E0.31494
G1 X94.369 Y102.783 E0.02232
G1 X94.103 Y102.403 E0.01929
G1 X93.847 Y101.971 E0.02087
G1 X93.614 Y101.506 E0.02163
G1 X93.429 Y101.061 E0.02003
G1 X93.267 Y100.574 E0.02134
G1 X93.146 Y100.108 E0.02002
G1 X93.053 Y99.594 E0.02171
G1 X92.980 Y98.604 E0.04127
G1 X92.999 Y98.078 E0.02189
G1 X93.090 Y97.353 E0.03038
G1 X93.195 Y96.870 E0.02055
G1 X93.337 Y96.383 E0.02109
G1 X93.510 Y95.917 E0.02066
G1 X93.711 Y95.474 E0.02023
G1 X93.956 Y95.023 E0.02134
G1 X94.230 Y94.595 E0.02112
G1 X94.524 Y94.199 E0.02051
G1 X94.852 Y93.819 E0.02087
G1 X95.204 Y93.466 E0.02072
G1 X95.589 Y93.131 E0.02122
G1 X95.997 Y92.825 E0.02121
G1 F15000 X95.704 Y92.420
;TYPE:WALL-OUTER
G1 F1620 X96.156 Y92.131 E0.02230
G1 X96.640 Y91.864 E0.02298
G1 X97.106 Y91.652 E0.02129
G1 X97.613 Y91.460 E0.02254
G1 X98.329 Y91.250 E0.03102
G1 X98.307 Y91.166 E0.00361
G1 X99.173 Y91.016 E0.03654
G1 X99.710 Y90.977 E0.02238
G1 X99.997 Y90.971 E0.01194
G1 X100.535 Y90.990 E0.02238
G1 X100.807 Y91.014 E0.01135
G1 X101.349 Y91.090 E0.02275
G1 X101.867 Y91.202 E0.02204
G1 X102.397 Y91.357 E0.02296
G1 X102.903 Y91.545 E0.02244
G1 X103.392 Y91.768 E0.02234
G1 X103.872 Y92.029 E0.02272
G1 X104.342 Y92.329 E0.02318
G1 X104.770 Y92.647 E0.02217
G1 X105.176 Y92.998 E0.02231
G1 X105.574 Y93.395 E0.02337
G1 X105.920 Y93.791 E0.02187
G1 X106.266 Y94.252 E0.02396
G1 X106.547 Y94.690 E0.02163
G1 X106.804 Y95.160 E0.02228
G1 X107.036 Y95.663 E0.02303
G1 X107.224 Y96.162 E0.02216
G1 X107.383 Y96.701 E0.02337
G1 X107.497 Y97.225 E0.02229
G1 X107.575 Y97.754 E0.02223
G1 X107.616 Y98.300 E0.02277
G1 X107.622 Y98.583 E0.01177
G1 X107.603 Y99.125 E0.02254
G1 X107.579 Y99.398 E0.01140
G1 X107.503 Y99.940 E0.02275
G1 X107.392 Y100.453 E0.02182
G1 X107.240 Y100.974 E0.02257
G1 X107.048 Y101.493 E0.02300
G1 X106.819 Y101.997 E0.02302
G1 X106.567 Y102.458 E0.02184
G1 X106.266 Y102.928 E0.02321
G1 X105.940 Y103.368 E0.02276
G1 X105.591 Y103.772 E0.02220
G1 X100.313 Y109.014 E0.30927
G1 X100.186 Y109.112 E0.00667
G1 X100.104 Y109.144 E0.00366
G1 X99.785 Y108.991 E0.01471
G1 X94.335 Y103.535 E0.32061
G1 X93.973 Y103.088 E0.02392
G1 X93.681 Y102.671 E0.02116
G1 X93.407 Y102.210 E0.02230
G1 X93.161 Y101.718 E0.02287
G1 X92.955 Y101.222 E0.02233
G1 X92.790 Y100.726 E0.02173
G1 X92.657 Y100.211 E0.02211
G1 X92.558 Y99.665 E0.02307
G1 X92.501 Y99.149 E0.02158
G1 X92.480 Y98.592 E0.02318
G1 X92.499 Y98.061 E0.02209
G1 X92.598 Y97.260 E0.03355
G1 X92.708 Y96.752 E0.02161
G1 X92.863 Y96.222 E0.02296
G1 X93.045 Y95.732 E0.02173
G1 X93.263 Y95.251 E0.02196
G1 X93.522 Y94.775 E0.02253
G1 X93.821 Y94.307 E0.02309
G1 X94.142 Y93.875 E0.02237
G1 X94.480 Y93.484 E0.02149
G1 X94.867 Y93.096 E0.02279
G1 X95.273 Y92.743 E0.02236
G1 X95.704 Y92.420 E0.02240
G1 F15000 X96.307 Y92.843
;TYPE:FILL
G1 F1620 X94.227 Y94.923 E0.12229
G1 F15000 X93.551 Y96.306
G1 F1620 X97.706 Y92.151 E0.24430
G1 F15000 X98.729 Y91.836
G1 F1620 X93.284 Y97.280 E0.32012
G1 F15000 X93.174 Y98.098
G1 F1620 X99.612 Y91.660 E0.37852
G1 F15000 X100.321 Y91.658
G1 F1620 X93.170 Y98.808 E0.42043
G1 F15000 X93.219 Y99.467
G1 F1620 X100.964 Y91.721 E0.45540
G1 F15000 X101.565 Y91.827
G1 F1620 X93.319 Y100.074 E0.48487
G1 F15000 X93.471 Y100.629
G1 F1620 X102.121 Y91.979 E0.50858
G1 F15000 X102.640 Y92.167
G1 F1620 X93.657 Y101.150 E0.52817
G1 F15000 X93.877 Y101.637
G1 F1620 X103.124 Y92.390 E0.54369
G1 F15000 X103.579 Y92.642
G1 F1620 X94.125 Y102.097 E0.55588
G1 F15000 X94.403 Y102.525
G1 F1620 X104.008 Y92.920 E0.56474
G1 F15000 X104.409 Y93.227
G1 F1620 X94.710 Y102.925 E0.57024
G1 F15000 X95.049 Y103.294
G1 F1620 X104.783 Y93.560 E0.57232
G1 F15000 X105.132 Y93.917
G1 F1620 X95.402 Y103.648 E0.57211
G1 F15000 X95.754 Y104.002
G1 F1620 X105.456 Y94.301 E0.57042
G1 F15000 X105.755 Y94.709
G1 F1620 X96.107 Y104.356 E0.56723
G1 F15000 X96.460 Y104.711
G1 F1620 X106.025 Y95.146 E0.56239
G1 F15000 X106.268 Y95.610
G1 F1620 X96.814 Y105.064 E0.55586
G1 F15000 X97.167 Y105.419
G1 F1620 X106.479 Y96.106 E0.54753
G1 F15000 X106.659 Y96.633
G1 F1620 X97.519 Y105.773 E0.53740
G1 F15000 X97.872 Y106.127
G1 F1620 X106.799 Y97.200 E0.52488
G1 F15000 X106.899 Y97.807
G1 F1620 X98.225 Y106.481 E0.50999
G1 F15000 X98.578 Y106.836
G1 F1620 X106.942 Y98.471 E0.49180
G1 F15000 X106.912 Y99.209
G1 F1620 X98.931 Y107.190 E0.46926
G1 F15000 X99.284 Y107.544
G1 F1620 X106.790 Y100.038 E0.44132
G1 F15000 X106.494 Y101.041
G1 F1620 X99.637 Y107.898 E0.40317
G1 F15000 X99.990 Y108.252
G1 F1620 X105.730 Y102.512 E0.33749
;LAYER:2
M106 S255
G1 F3600 E-3.00000
G1 F1800.000 E-1.0
G1 Z0.600
G1 F15000 X107.287 Y111.748 
G1 F1800.000 E1.0
;TYPE:WALL-INNER
G1 F3600 E3.00000
G1 F2100 X109.627 Y114.084 E0.13746
G1 X91.720 Y114.063 E0.74449
G1 X91.163 Y113.990 E0.02335
G1 X90.605 Y113.865 E0.02378
G1 X90.065 Y113.692 E0.02357
G1 X89.552 Y113.474 E0.02318
G1 X89.039 Y113.200 E0.02418
G1 X88.567 Y112.892 E0.02343
G1 X88.120 Y112.536 E0.02375
G1 X87.709 Y112.147 E0.02353
G1 X87.326 Y111.714 E0.02404
G1 X86.996 Y111.261 E0.02330
G1 X86.707 Y110.783 E0.02322
G1 X86.450 Y110.254 E0.02445
G1 X86.246 Y109.715 E0.02396
G1 X86.099 Y109.191 E0.02263
G1 X85.996 Y108.632 E0.02363
G1 X85.941 Y108.055 E0.02410
G1 X85.944 Y90.403 E0.73388
G1 X88.094 Y92.553 E0.12641
G1 X88.241 Y92.705 E0.00880
G1 X88.237 Y107.739 E0.62504
G1 X88.324 Y108.304 E0.02376
G1 X88.474 Y108.984 E0.02895
G1 X88.613 Y109.400 E0.01824
G1 X88.786 Y109.768 E0.01691
G1 X89.005 Y110.120 E0.01723
G1 X89.400 Y110.590 E0.02553
G1 X89.865 Y110.982 E0.02528
G1 X90.395 Y111.289 E0.02547
G1 X90.786 Y111.445 E0.01750
G1 X91.400 Y111.608 E0.02641
G1 X91.994 Y111.709 E0.02505
G1 X92.246 Y111.748 E0.01060
G1 X107.287 Y111.748 E0.62533
G1 F15000 X107.373 Y111.248
;TYPE:WALL-OUTER
G1 F2100 X107.453 Y111.247 E0.00333
G1 X107.485 Y111.254 E0.00136
G1 X107.524 Y111.278 E0.00190
G1 X110.479 Y114.228 E0.17360
G1 X110.537 Y114.326 E0.00473
G1 X110.542 Y114.357 E0.00131
G1 X110.467 Y114.379 E0.00325
G1 X110.427 Y114.464 E0.00391
G1 X110.398 Y114.497 E0.00182
G1 X110.376 Y114.509 E0.00104
G1 X110.017 Y114.584 E0.01525
G1 X91.685 Y114.563 E0.76216
G1 X91.078 Y114.483 E0.02545
G1 X90.475 Y114.348 E0.02569
G1 X89.895 Y114.162 E0.02533
G1 X89.335 Y113.925 E0.02528
G1 X88.780 Y113.629 E0.02615
G1 X88.278 Y113.301 E0.02493
G1 X87.786 Y112.909 E0.02615
G1 X87.350 Y112.495 E0.02500
G1 X86.939 Y112.031 E0.02577
G1 X86.579 Y111.537 E0.02541
G1 X86.264 Y111.015 E0.02535
G1 X85.995 Y110.463 E0.02553
G1 X85.771 Y109.872 E0.02628
G1 X85.612 Y109.302 E0.02460
G1 X85.499 Y108.692 E0.02579
G1 X85.441 Y108.081 E0.02552
G1 X85.444 Y89.936 E0.75438
G1 X85.514 Y89.641 E0.01260
G1 X85.531 Y89.616 E0.00126
G1 X85.571 Y89.585 E0.00211
G1 X85.738 Y89.511 E0.00759
G1 X85.791 Y89.544 E0.00260
G1 X88.451 Y92.204 E0.15639
G1 X88.715 Y92.475 E0.01573
G1 X88.735 Y92.504 E0.00147
G1 X88.741 Y92.533 E0.00123
G1 X88.737 Y107.700 E0.63057
G1 X88.816 Y108.212 E0.02154
G1 X88.957 Y108.851 E0.02720
G1 X89.078 Y109.214 E0.01591
G1 X89.226 Y109.529 E0.01447
G1 X89.410 Y109.825 E0.01449
G1 X89.755 Y110.235 E0.02228
G1 X90.154 Y110.571 E0.02169
G1 X90.614 Y110.838 E0.02211
G1 X90.943 Y110.970 E0.01474
G1 X91.506 Y111.119 E0.02421
G1 X92.074 Y111.216 E0.02396
G1 X92.284 Y111.248 E0.00883
G1 X107.373 Y111.248 E0.62732
G1 F15000 X106.618 Y111.922
;TYPE:FILL
G1 F2100 X108.603 Y113.906 E0.11669
G1 F15000 X107.895 Y113.905
G1 F2100 X105.911 Y111.922 E0.11662
G1 F15000 X105.204 Y111.922
G1 F2100 X107.186 Y113.904 E0.11653
G1 F15000 X106.478 Y113.903
G1 F2100 X104.497 Y111.922 E0.11648
G1 F15000 X103.790 Y111.922
G1 F2100 X105.771 Y113.902 E0.11644
G1 F15000 X105.063 Y113.902
G1 F2100 X103.083 Y111.922 E0.11642
G1 F15000 X102.376 Y111.922
G1 F2100 X104.355 Y113.901 E0.11636
G1 F15000 X103.647 Y113.900
G1 F2100 X101.669 Y111.922 E0.11630
G1 F15000 X100.962 Y111.922
G1 F2100 X102.939 Y113.900 E0.11627
G1 F15000 X102.231 Y113.898
G1 F2100 X100.255 Y111.922 E0.11618
G1 F15000 X99.547 Y111.922
G1 F2100 X101.523 Y113.897 E0.11615
G1 F15000 X100.815 Y113.897
G1 F2100 X98.840 Y111.922 E0.11612
G1 F15000 X98.133 Y111.922
G1 F2100 X100.107 Y113.896 E0.11606
G1 F15000 X99.400 Y113.895
G1 F2100 X97.426 Y111.922 E0.11604
G1 F15000 X96.719 Y111.922
G1 F2100 X98.692 Y113.895 E0.11600
G1 F15000 X97.984 Y113.894
G1 F2100 X96.012 Y111.922 E0.11595
G1 F15000 X95.305 Y111.922
G1 F2100 X97.275 Y113.892 E0.11583
G1 F15000 X96.568 Y113.892
G1 F2100 X94.598 Y111.922 E0.11583
G1 F15000 X93.891 Y111.922
G1 F2100 X95.860 Y113.891 E0.11577
G1 F15000 X95.152 Y113.890
G1 F2100 X93.183 Y111.922 E0.11574
G1 F15000 X92.476 Y111.922
G1 F2100 X94.444 Y113.890 E0.11571
G1 F15000 X93.736 Y113.889
G1 F2100 X91.680 Y111.833 E0.12088
G1 F15000 X90.758 Y111.618
G1 F2100 X93.029 Y113.888 E0.13350
G1 F15000 X92.320 Y113.887
G1 F2100 X86.116 Y107.683 E0.36477
G1 F15000 X86.116 Y106.976
G1 F2100 X88.373 Y109.233 E0.13270
G1 F15000 X88.145 Y108.298
G1 F2100 X86.116 Y106.268 E0.11933
G1 F15000 X86.116 Y105.561
G1 F2100 X88.062 Y107.507 E0.11442
G1 F15000 X88.062 Y106.800
G1 F2100 X86.116 Y104.854 E0.11441
G1 F15000 X86.116 Y104.147
G1 F2100 X88.062 Y106.093 E0.11442
G1 F15000 X88.062 Y105.386
G1 F2100 X86.117 Y103.441 E0.11436
G1 F15000 X86.117 Y102.734
G1 F2100 X88.063 Y104.680 E0.11442
G1 F15000 X88.063 Y103.972
G1 F2100 X86.117 Y102.027 E0.11439
G1 F15000 X86.117 Y101.319
G1 F2100 X88.063 Y103.265 E0.11441
G1 F15000 X88.063 Y102.559
G1 F2100 X86.117 Y100.612 E0.11445
G1 F15000 X86.117 Y99.905
G1 F2100 X88.063 Y101.852 E0.11445
G1 F15000 X88.063 Y101.145
G1 F2100 X86.117 Y99.199 E0.11441
G1 F15000 X86.117 Y98.492
G1 F2100 X88.063 Y100.438 E0.11442
G1 F15000 X86.151 Y108.425
G1 F2100 X91.595 Y113.868 E0.32006
G1 F15000 X90.731 Y113.712
G1 F2100 X86.308 Y109.289 E0.26005
G1 F15000 X86.719 Y110.407
G1 F2100 X89.626 Y113.314 E0.17092
G1 F15000 X88.288 Y107.734
G1 X88.064 Y99.731
G1 F2100 X86.117 Y97.785 E0.11445
G1 F15000 X86.117 Y97.077
G1 F2100 X88.064 Y99.024 E0.11448
G1 F15000 X88.064 Y98.317
G1 F2100 X86.117 Y96.370 E0.11447
G1 F15000 X86.117 Y95.663
G1 F2100 X88.065 Y97.611 E0.11454
G1 F15000 X88.065 Y96.904
G1 F2100 X86.118 Y94.957 E0.11447
G1 F15000 X86.118 Y94.250
G1 F2100 X88.065 Y96.196 E0.11445
G1 F15000 X88.065 Y95.489
G1 F2100 X86.118 Y93.543 E0.11445
G1 F15000 X86.118 Y92.836
G1 F2100 X88.065 Y94.783 E0.11447
G1 F15000 X88.065 Y94.076
G1 F2100 X86.118 Y92.128 E0.11451
G1 F15000 X86.118 Y91.421
G1 F2100 X88.065 Y93.369 E0.11451
G1 F3600 E-3.00000
G1 F15000 X92.815 Y88.216
;TYPE:WALL-INNER
G1 F3600 E3.00000
G1 F2100 X90.515 Y85.916 E0.13523
G1 X108.280 Y85.939 E0.73858
G1 X108.837 Y86.012 E0.02336
G1 X109.395 Y86.137 E0.02377
G1 X109.925 Y86.307 E0.02314
G1 X110.459 Y86.533 E0.02411
G1 X110.954 Y86.798 E0.02334
G1 X111.445 Y87.118 E0.02437
G1 X111.876 Y87.461 E0.02290
G1 X112.291 Y87.854 E0.02376
G1 X112.671 Y88.284 E0.02386
G1 X113.004 Y88.741 E0.02351
G1 X113.297 Y89.226 E0.02355
G1 X113.551 Y89.747 E0.02410
G1 X113.756 Y90.289 E0.02409
G1 X113.902 Y90.810 E0.02250
G1 X114.006 Y91.372 E0.02376
G1 X114.061 Y91.950 E0.02414
G1 X114.070 Y109.461 E0.72802
G1 X111.859 Y107.257 E0.12980
G1 X111.864 Y92.253 E0.62379
G1 X111.776 Y91.676 E0.02427
G1 X111.622 Y90.979 E0.02967
G1 X111.413 Y90.403 E0.02548
G1 X111.195 Y89.996 E0.01919
G1 X110.824 Y89.502 E0.02569
G1 X110.370 Y89.072 E0.02600
G1 X109.993 Y88.806 E0.01918
G1 X109.445 Y88.533 E0.02545
G1 X108.406 Y88.212 E0.04521
G1 X108.296 Y88.346 E0.00721
G1 X107.754 Y88.254 E0.02286
G1 X92.894 Y88.254 E0.61780
G1 X92.815 Y88.216 E0.00365
G1 F15000 X92.742 Y88.736
;TYPE:WALL-OUTER
G1 F2100 X92.523 Y88.630 E0.01011
G1 X89.604 Y85.711 E0.17163
G1 X89.561 Y85.638 E0.00352
G1 X89.556 Y85.606 E0.00135
G1 X89.560 Y85.574 E0.00134
G1 X89.577 Y85.536 E0.00173
G1 X89.606 Y85.504 E0.00180
G1 X89.639 Y85.485 E0.00158
G1 X90.002 Y85.415 E0.01537
G1 X108.315 Y85.439 E0.76137
G1 X108.922 Y85.519 E0.02545
G1 X109.525 Y85.654 E0.02569
G1 X110.105 Y85.840 E0.02532
G1 X110.666 Y86.078 E0.02534
G1 X111.218 Y86.372 E0.02600
G1 X111.729 Y86.706 E0.02538
G1 X112.209 Y87.087 E0.02548
G1 X112.651 Y87.507 E0.02535
G1 X113.062 Y87.971 E0.02577
G1 X113.421 Y88.464 E0.02535
G1 X113.738 Y88.988 E0.02547
G1 X114.006 Y89.538 E0.02543
G1 X114.231 Y90.131 E0.02637
G1 X114.389 Y90.695 E0.02435
G1 X114.503 Y91.312 E0.02609
G1 X114.561 Y91.924 E0.02556
G1 X114.570 Y109.787 E0.74265
G1 X114.535 Y110.192 E0.01691
G1 X114.487 Y110.360 E0.00726
G1 X114.469 Y110.386 E0.00131
G1 X114.438 Y110.409 E0.00161
G1 X114.401 Y110.422 E0.00163
G1 X114.345 Y110.422 E0.00233
G1 X114.300 Y110.396 E0.00216
G1 X111.383 Y107.488 E0.17124
G1 X111.359 Y107.458 E0.00160
G1 X111.364 Y92.291 E0.63057
G1 X111.284 Y91.768 E0.02200
G1 X111.141 Y91.119 E0.02763
G1 X110.955 Y90.607 E0.02264
G1 X110.772 Y90.266 E0.01609
G1 X110.449 Y89.836 E0.02236
G1 X110.053 Y89.460 E0.02271
G1 X109.736 Y89.237 E0.01611
G1 X109.258 Y88.998 E0.02222
G1 X108.579 Y88.789 E0.02953
G1 X108.495 Y88.891 E0.00550
G1 X107.926 Y88.785 E0.02406
G1 X107.717 Y88.754 E0.00879
G1 X92.738 Y88.754 E0.62275
G1 X92.742 Y88.736 E0.00077
G1 F15000 X93.381 Y88.078
;TYPE:FILL
G1 F2100 X91.396 Y86.093 E0.11671
G1 F15000 X92.104 Y86.093
G1 F2100 X94.089 Y88.078 E0.11671
G1 F15000 X94.796 Y88.078
G1 F2100 X92.812 Y86.095 E0.11662
G1 F15000 X93.520 Y86.095
G1 F2100 X95.503 Y88.078 E0.11659
G1 F15000 X96.210 Y88.078
G1 F2100 X94.228 Y86.096 E0.11654
G1 F15000 X94.936 Y86.097
G1 F2100 X96.917 Y88.078 E0.11647
G1 F15000 X97.624 Y88.078
G1 F2100 X95.643 Y86.098 E0.11645
G1 F15000 X96.352 Y86.099
G1 F2100 X98.331 Y88.078 E0.11636
G1 F15000 X99.038 Y88.078
G1 F2100 X97.060 Y86.100 E0.11629
G1 F15000 X97.768 Y86.100
G1 F2100 X99.745 Y88.078 E0.11627
G1 F15000 X100.453 Y88.078
G1 F2100 X98.475 Y86.101 E0.11627
G1 F15000 X99.184 Y86.102
G1 F2100 X101.160 Y88.078 E0.11618
G1 F15000 X101.867 Y88.078
G1 F2100 X99.892 Y86.103 E0.11613
G1 F15000 X100.600 Y86.104
G1 F2100 X102.574 Y88.078 E0.11606
G1 F15000 X103.281 Y88.078
G1 F2100 X101.307 Y86.105 E0.11603
G1 F15000 X102.016 Y86.106
G1 F2100 X103.988 Y88.078 E0.11595
G1 F15000 X104.695 Y88.078
G1 F2100 X102.724 Y86.107 E0.11589
G1 F15000 X103.432 Y86.107
G1 F2100 X105.402 Y88.078 E0.11586
G1 F15000 X106.109 Y88.078
G1 F2100 X104.139 Y86.108 E0.11582
G1 F15000 X104.848 Y86.110
G1 F2100 X106.816 Y88.078 E0.11571
G1 F15000 X107.524 Y88.078
G1 F2100 X105.556 Y86.110 E0.11572
G1 F15000 X106.264 Y86.111
G1 F2100 X108.262 Y88.110 E0.11750
G1 F15000 X109.105 Y88.245
G1 F2100 X106.971 Y86.112 E0.12544
G1 F15000 X107.679 Y86.112
G1 F2100 X110.901 Y89.334 E0.18944
G1 F15000 X110.962 Y89.395
G1 F2100 X113.886 Y92.319 E0.17192
G1 F15000 X113.886 Y93.026
G1 F2100 X111.790 Y90.930 E0.12324
G1 F15000 X111.974 Y91.822
G1 F2100 X113.887 Y93.734 E0.11245
G1 F15000 X113.887 Y94.441
G1 F2100 X112.037 Y92.592 E0.10874
G1 F15000 X112.037 Y93.299
G1 F2100 X113.888 Y95.149 E0.10880
G1 F15000 X113.888 Y95.856
G1 F2100 X112.037 Y94.006 E0.10881
G1 F15000 X112.036 Y94.712
G1 F2100 X113.888 Y96.564 E0.10889
G1 F15000 X113.888 Y97.271
G1 F2100 X112.036 Y95.419 E0.10889
G1 F15000 X112.036 Y96.126
G1 F2100 X113.889 Y97.979 E0.10895
G1 F15000 X113.889 Y98.686
G1 F2100 X112.036 Y96.833 E0.10894
G1 F15000 X112.036 Y97.540
G1 F2100 X113.890 Y99.394 E0.10901
G1 F15000 X113.890 Y100.101
G1 F2100 X112.036 Y98.247 E0.10901
G1 F15000 X112.035 Y98.953
G1 F2100 X113.890 Y100.809 E0.10910
G1 F15000 X113.890 Y101.516
G1 F2100 X112.035 Y99.661 E0.10906
G1 F15000 X113.849 Y91.575
G1 F2100 X108.405 Y86.131 E0.32009
G1 F15000 X109.269 Y86.288
G1 F2100 X113.691 Y90.710 E0.26000
G1 F15000 X113.280 Y89.592
G1 F2100 X110.375 Y86.687 E0.17080
G1 F15000 X111.813 Y92.257
G1 X112.035 Y100.368
G1 F2100 X113.891 Y102.224 E0.10913
G1 F15000 X113.891 Y102.931
G1 F2100 X112.034 Y101.074 E0.10918
G1 F15000 X112.034 Y101.781
G1 F2100 X113.892 Y103.639 E0.10924
G1 F15000 X113.892 Y104.346
G1 F2100 X112.034 Y102.488 E0.10925
G1 F15000 X112.033 Y103.195
G1 F2100 X113.892 Y105.054 E0.10930
G1 F15000 X113.892 Y105.761
G1 F2100 X112.033 Y103.902 E0.10930
G1 F15000 X112.033 Y104.609
G1 F2100 X113.893 Y106.469 E0.10936
G1 F15000 X113.893 Y107.176
G1 F2100 X112.033 Y105.315 E0.10939
G1 F15000 X112.033 Y106.022
G1 F2100 X113.894 Y107.883 E0.10942
G1 F15000 X113.894 Y108.591
G1 F2100 X112.033 Y106.729 E0.10945
G1 F3600 E-3.00000
G1 F15000 X106.002 Y102.424
;TYPE:WALL-INNER
G1 F3600 E3.00000
G1 F2100 X105.715 Y102.840 E0.02101
G1 X105.397 Y103.237 E0.02115
G1 X105.211 Y103.447 E0.01166
G1 X100.055 Y108.566 E0.30207
G1 X94.887 Y103.402 E0.30374
G1 X94.544 Y103.008 E0.02172
G1 X94.246 Y102.609 E0.02070
G1 X93.975 Y102.191 E0.02072
G1 X93.727 Y101.744 E0.02125
G1 X93.529 Y101.310 E0.01983
G1 X93.343 Y100.817 E0.02191
G1 X93.206 Y100.353 E0.02011
G1 X93.095 Y99.852 E0.02134
G1 X93.000 Y99.102 E0.03143
G1 X92.981 Y98.602 E0.02080
G1 X92.998 Y98.087 E0.02142
G1 X93.090 Y97.356 E0.03063
G1 X93.336 Y96.389 E0.04149
G1 X93.506 Y95.926 E0.02050
G1 X93.720 Y95.455 E0.02151
G1 X94.074 Y94.827 E0.02997
G1 X94.362 Y94.410 E0.02107
G1 X94.685 Y94.009 E0.02141
G1 X95.023 Y93.643 E0.02071
G1 X95.388 Y93.302 E0.02077
G1 X95.800 Y92.968 E0.02205
G1 X96.184 Y92.698 E0.01952
G1 X96.619 Y92.439 E0.02104
G1 X97.525 Y92.023 E0.04145
G1 X98.726 Y91.619 E0.05268
G1 X98.716 Y91.587 E0.00140
G1 X99.211 Y91.516 E0.02079
G1 X99.728 Y91.478 E0.02155
G1 X99.993 Y91.472 E0.01102
G1 X100.501 Y91.489 E0.02113
G1 X101.251 Y91.581 E0.03142
G1 X101.741 Y91.687 E0.02084
G1 X102.223 Y91.827 E0.02087
G1 X102.706 Y92.005 E0.02140
G1 X103.170 Y92.215 E0.02117
G1 X103.613 Y92.456 E0.02097
G1 X104.046 Y92.733 E0.02137
G1 X104.835 Y93.365 E0.04203
G1 X105.194 Y93.722 E0.02105
G1 X105.537 Y94.115 E0.02169
G1 X105.835 Y94.510 E0.02057
G1 X106.116 Y94.944 E0.02149
G1 X106.484 Y95.648 E0.03303
G1 X106.662 Y96.076 E0.01927
G1 X106.828 Y96.570 E0.02167
G1 X106.951 Y97.046 E0.02044
G1 X107.045 Y97.556 E0.02156
G1 X107.102 Y98.073 E0.02162
G1 X107.121 Y98.581 E0.02114
G1 X107.104 Y99.091 E0.02121
G1 X107.012 Y99.842 E0.03146
G1 X106.908 Y100.324 E0.02050
G1 X106.765 Y100.815 E0.02126
G1 X106.588 Y101.296 E0.02131
G1 X106.374 Y101.769 E0.02158
G1 X106.002 Y102.424 E0.03132
G1 F15000 X106.430 Y102.684
;TYPE:WALL-OUTER
G1 F2100 X106.112 Y103.144 E0.02325
G1 X105.779 Y103.560 E0.02215
G1 X100.313 Y109.014 E0.32103
G1 X100.180 Y109.117 E0.00700
G1 X100.155 Y109.130 E0.00117
G1 X100.107 Y109.145 E0.00209
G1 X99.785 Y108.991 E0.01484
G1 X99.725 Y108.944 E0.00317
G1 X94.510 Y103.731 E0.30656
G1 X94.156 Y103.324 E0.02243
G1 X93.838 Y102.899 E0.02206
G1 X93.545 Y102.445 E0.02247
G1 X93.280 Y101.968 E0.02268
G1 X93.064 Y101.494 E0.02166
G1 X92.871 Y100.982 E0.02275
G1 X92.719 Y100.465 E0.02240
G1 X92.605 Y99.953 E0.02181
G1 X92.501 Y99.141 E0.03404
G1 X92.480 Y98.590 E0.02292
G1 X92.498 Y98.070 E0.02163
G1 X92.522 Y97.796 E0.01144
G1 X92.597 Y97.269 E0.02213
G1 X92.706 Y96.761 E0.02160
G1 X92.856 Y96.247 E0.02226
G1 X93.045 Y95.732 E0.02281
G1 X93.270 Y95.237 E0.02260
G1 X93.656 Y94.552 E0.03269
G1 X93.957 Y94.116 E0.02203
G1 X94.308 Y93.679 E0.02330
G1 X94.661 Y93.298 E0.02160
G1 X95.062 Y92.922 E0.02285
G1 X95.492 Y92.573 E0.02303
G1 X95.912 Y92.279 E0.02131
G1 X96.383 Y91.998 E0.02280
G1 X96.849 Y91.764 E0.02168
G1 X97.351 Y91.554 E0.02263
G1 X98.101 Y91.302 E0.03289
G1 X98.076 Y91.224 E0.00341
G1 X98.656 Y91.090 E0.02474
G1 X99.161 Y91.018 E0.02121
G1 X99.701 Y90.978 E0.02251
G1 X99.999 Y90.971 E0.01240
G1 X100.525 Y90.989 E0.02188
G1 X100.807 Y91.014 E0.01177
G1 X101.340 Y91.089 E0.02238
G1 X101.858 Y91.200 E0.02202
G1 X102.381 Y91.353 E0.02266
G1 X102.896 Y91.542 E0.02280
G1 X103.392 Y91.767 E0.02265
G1 X103.864 Y92.024 E0.02234
G1 X104.330 Y92.322 E0.02300
G1 X104.771 Y92.649 E0.02282
G1 X105.176 Y92.998 E0.02223
G1 X105.556 Y93.376 E0.02228
G1 X105.921 Y93.793 E0.02304
G1 X106.245 Y94.224 E0.02242
G1 X106.547 Y94.691 E0.02312
G1 X106.802 Y95.155 E0.02202
G1 X107.133 Y95.907 E0.03415
G1 X107.309 Y96.431 E0.02299
G1 X107.440 Y96.939 E0.02181
G1 X107.539 Y97.474 E0.02262
G1 X107.600 Y98.033 E0.02338
G1 X107.622 Y98.591 E0.02321
G1 X107.604 Y99.115 E0.02180
G1 X107.579 Y99.398 E0.01181
G1 X107.504 Y99.931 E0.02238
G1 X107.394 Y100.444 E0.02181
G1 X107.242 Y100.966 E0.02261
G1 X107.052 Y101.483 E0.02290
G1 X106.825 Y101.985 E0.02290
G1 X106.694 Y102.236 E0.01177
G1 X106.430 Y102.684 E0.02162
G1 F15000 X105.714 Y102.532
;TYPE:FILL
G1 F2100 X96.131 Y92.949 E0.56345
G1 F15000 X95.727 Y93.252
G1 F2100 X105.412 Y102.937 E0.56944
G1 F15000 X105.089 Y103.321
G1 F2100 X95.347 Y93.579 E0.57279
G1 F15000 X94.993 Y93.932
G1 F2100 X104.734 Y103.673 E0.57273
G1 F15000 X104.379 Y104.026
G1 F2100 X94.665 Y94.311 E0.57118
G1 F15000 X94.361 Y94.715
G1 F2100 X104.024 Y104.378 E0.56815
G1 F15000 X103.669 Y104.730
G1 F2100 X94.091 Y95.151 E0.56317
G1 F15000 X93.841 Y95.609
G1 F2100 X103.314 Y105.082 E0.55698
G1 F15000 X102.960 Y105.435
G1 F2100 X93.627 Y96.102 E0.54875
G1 F15000 X93.452 Y96.634
G1 F2100 X102.605 Y105.787 E0.53816
G1 F15000 X102.250 Y106.139
G1 F2100 X93.309 Y97.198 E0.52569
G1 F15000 X93.208 Y97.804
G1 F2100 X101.895 Y106.491 E0.51077
G1 F15000 X101.540 Y106.843
G1 F2100 X93.159 Y98.463 E0.49274
G1 F15000 X93.188 Y99.199
G1 F2100 X101.185 Y107.195 E0.47016
G1 F15000 X100.831 Y107.548
G1 F2100 X93.314 Y100.031 E0.44197
G1 F15000 X93.613 Y101.037
G1 F2100 X100.476 Y107.900 E0.40352
G1 F15000 X100.121 Y108.253
G1 F2100 X94.428 Y102.560 E0.33473
G1 F15000 X96.564 Y92.675
G1 F2100 X105.986 Y102.097 E0.55397
G1 F15000 X106.238 Y101.642
G1 F2100 X97.036 Y92.440 E0.54105
G1 F15000 X97.520 Y92.217
G1 F2100 X106.454 Y101.150 E0.52525
G1 F15000 X106.637 Y100.626
G1 F2100 X98.043 Y92.033 E0.50527
G1 F15000 X98.573 Y91.855
G1 F2100 X106.784 Y100.066 E0.48277
G1 F15000 X106.882 Y99.458
G1 F2100 X99.129 Y91.704 E0.45588
G1 F15000 X99.784 Y91.652
G1 F2100 X106.937 Y98.806 E0.42060
G1 F15000 X106.927 Y98.088
G1 F2100 X100.505 Y91.666 E0.37758
G1 F15000 X101.322 Y91.776
G1 F2100 X106.813 Y97.267 E0.32285
G1 F15000 X106.551 Y96.298
G1 F2100 X102.294 Y92.041 E0.25030
G1 F15000 X103.644 Y92.684
G1 F2100 X105.911 Y94.951 E0.13329
G92 E0
G1 F3600 E-10.00000
;Switch between the current extruder and the next extruder, when printing with multiple extruders.
;This code is added before the T(n)
G1 X0 F12000

T2
;Switch between the current extruder and the next extruder, when printing with multiple extruders.
;This code is added after the T(n)
M116

G1 F15000 X82.180 Y117.839
;TYPE:SUPPORT
G1 F3600 E10.00000
G1 F2100 X82.180 Y126.499 E0.36004
G1 X73.520 Y126.499 E0.36004
G1 X73.520 Y117.839 E0.36004
G1 X82.180 Y117.839 E0.36004
G1 F15000 X82.254 Y117.963
G1 F2100 X82.054 Y117.763 E0.01176
G1 F15000 X81.347 Y117.763
G1 F2100 X82.254 Y118.670 E0.05333
G1 F15000 X82.254 Y119.378
G1 F2100 X80.640 Y117.763 E0.09493
G1 F15000 X79.933 Y117.763
G1 F2100 X82.254 Y120.085 E0.13649
G1 F15000 X82.254 Y120.792
G1 F2100 X79.226 Y117.763 E0.17807
G1 F15000 X78.519 Y117.763
G1 F2100 X82.254 Y121.499 E0.21963
G1 F15000 X82.254 Y122.206
G1 F2100 X77.812 Y117.763 E0.26120
G1 F15000 X77.105 Y117.763
G1 F2100 X82.254 Y122.913 E0.30277
G1 F15000 X82.254 Y123.620
G1 F2100 X76.397 Y117.763 E0.34437
G1 F15000 X75.690 Y117.763
G1 F2100 X82.254 Y124.327 E0.38594
G1 F15000 X82.254 Y125.034
G1 F2100 X74.983 Y117.763 E0.42751
G1 F15000 X74.276 Y117.763
G1 F2100 X82.254 Y125.741 E0.46907
G1 F15000 X82.254 Y126.449
G1 F2100 X73.569 Y117.763 E0.51068
G1 F15000 X73.445 Y118.346
G1 F2100 X81.671 Y126.572 E0.48365
G1 F15000 X80.964 Y126.572
G1 F2100 X73.445 Y119.053 E0.44209
G1 F15000 X73.445 Y119.760
G1 F2100 X80.257 Y126.572 E0.40052
G1 F15000 X79.550 Y126.572
G1 F2100 X73.445 Y120.467 E0.35895
G1 F15000 X73.445 Y121.174
G1 F2100 X78.843 Y126.572 E0.31738
G1 F15000 X78.136 Y126.572
G1 F2100 X73.445 Y121.881 E0.27582
G1 F15000 X73.445 Y122.588
G1 F2100 X77.428 Y126.572 E0.23421
G1 F15000 X76.721 Y126.572
G1 F2100 X73.445 Y123.296 E0.19262
G1 F15000 X73.445 Y124.003
G1 F2100 X76.014 Y126.572 E0.15105
G1 F15000 X75.307 Y126.572
G1 F2100 X73.445 Y124.710 E0.10947
G1 F15000 X73.445 Y125.417
G1 F2100 X74.600 Y126.572 E0.06791
G1 F15000 X73.893 Y126.572
G1 F2100 X73.445 Y126.124 E0.02634
G1 F3600 E-3.00000
G1 F15000 X77.850 Y122.169
G1 X90.271 Y109.789
;TYPE:WALL-INNER
G1 F3600 E3.00000
G1 F2100 X89.978 Y109.490 E0.01741
G1 X89.816 Y109.264 E0.01156
G1 X89.693 Y109.038 E0.01070
G1 X89.541 Y108.623 E0.01837
G1 X89.451 Y108.236 E0.01652
G1 X89.359 Y107.671 E0.02380
G1 X89.354 Y92.626 E0.62550
G1 X89.364 Y92.429 E0.00820
G1 X89.263 Y92.117 E0.01363
G1 X89.114 Y91.918 E0.01034
G1 X86.428 Y89.232 E0.15793
G1 X88.964 Y86.671 E0.14984
G1 X91.711 Y89.416 E0.16145
G1 X91.965 Y89.568 E0.01231
G1 X92.168 Y89.640 E0.00895
G1 X93.047 Y89.656 E0.03656
G1 X93.070 Y89.556 E0.00426
G1 X107.473 Y89.554 E0.59881
G1 X107.860 Y89.614 E0.01628
G1 X108.874 Y90.006 E0.04520
G1 X109.096 Y90.134 E0.01065
G1 X109.307 Y90.295 E0.01104
G1 X109.476 Y90.457 E0.00973
G1 X109.728 Y90.782 E0.01710
G1 X109.856 Y91.016 E0.01109
G1 X109.951 Y91.256 E0.01073
G1 X110.085 Y91.777 E0.02236
G1 X110.175 Y92.332 E0.02338
G1 X110.176 Y107.572 E0.63360
G1 X110.235 Y107.866 E0.01247
G1 X110.447 Y108.151 E0.01477
G1 X111.175 Y108.879 E0.04280
G1 X111.108 Y108.862 E0.00288
G1 X110.878 Y108.830 E0.00965
G1 X110.631 Y108.824 E0.01027
G1 X110.196 Y108.883 E0.01825
G1 X109.766 Y109.045 E0.01911
G1 X109.379 Y109.297 E0.01920
G1 X109.075 Y109.611 E0.01817
G1 X108.923 Y109.830 E0.01108
G1 X108.736 Y110.224 E0.01813
G1 X108.638 Y110.657 E0.01846
G1 X108.624 Y110.929 E0.01132
G1 X108.672 Y111.361 E0.01807
G1 X108.730 Y111.533 E0.00755
G1 X108.164 Y110.967 E0.03328
G1 X107.826 Y110.633 E0.01976
G1 X107.658 Y110.532 E0.00815
G1 X107.433 Y110.454 E0.00990
G1 X107.205 Y110.447 E0.00948
G1 X92.162 Y110.448 E0.62542
G1 X91.718 Y110.379 E0.01868
G1 X91.127 Y110.245 E0.02519
G1 X90.724 Y110.089 E0.01797
G1 X90.482 Y109.950 E0.01160
G1 X90.271 Y109.789 E0.01103
G1 F15000 X93.107 Y103.829
G1 F2100 X93.080 Y103.883 E0.00251
G1 X98.883 Y109.701 E0.34164
G1 X99.155 Y109.899 E0.01399
G1 X99.467 Y110.021 E0.01392
G1 X100.328 Y110.153 E0.03622
G1 X100.438 Y109.790 E0.01577
G1 X100.657 Y109.619 E0.01155
G1 X105.576 Y104.736 E0.28816
G1 X106.081 Y104.220 E0.03002
G1 X106.565 Y103.630 E0.03173
G1 X107.002 Y102.986 E0.03235
G1 X107.374 Y102.307 E0.03219
G1 X107.685 Y101.592 E0.03242
G1 X107.928 Y100.856 E0.03222
G1 X108.101 Y100.109 E0.03188
G1 X108.205 Y99.342 E0.03218
G1 X108.239 Y98.530 E0.03379
G1 X108.200 Y97.786 E0.03097
G1 X108.091 Y97.021 E0.03213
G1 X107.914 Y96.277 E0.03180
G1 X107.665 Y95.534 E0.03257
G1 X107.349 Y94.826 E0.03224
G1 X106.975 Y94.154 E0.03197
G1 X106.539 Y93.519 E0.03203
G1 X106.045 Y92.923 E0.03218
G1 X105.491 Y92.369 E0.03257
G1 X104.907 Y91.884 E0.03156
G1 X104.550 Y91.626 E0.01832
G1 X103.926 Y91.242 E0.03046
G1 X103.234 Y90.895 E0.03218
G1 X102.516 Y90.616 E0.03203
G1 X101.766 Y90.400 E0.03245
G1 X101.012 Y90.257 E0.03190
G1 X100.241 Y90.183 E0.03221
G1 X99.813 Y90.171 E0.01780
G1 X99.073 Y90.203 E0.03079
G1 X98.311 Y90.306 E0.03197
G1 X98.278 Y90.200 E0.00462
G1 X97.878 Y90.316 E0.01731
G1 X97.828 Y90.285 E0.00245
G1 X96.783 Y90.628 E0.04572
G1 X95.635 Y91.127 E0.05205
G1 X95.635 Y91.177 E0.00207
G1 X95.377 Y91.319 E0.01225
G1 X94.729 Y91.758 E0.03254
G1 X94.123 Y92.253 E0.03253
G1 X93.563 Y92.803 E0.03263
G1 X93.058 Y93.403 E0.03261
G1 X92.610 Y94.045 E0.03255
G1 X92.223 Y94.728 E0.03263
G1 X91.900 Y95.440 E0.03251
G1 X91.644 Y96.182 E0.03263
G1 X91.458 Y96.941 E0.03249
G1 X91.342 Y97.709 E0.03229
G1 X91.308 Y98.140 E0.01798
G1 X91.297 Y98.542 E0.01672
G1 X91.324 Y99.283 E0.03082
G1 X91.424 Y100.059 E0.03253
G1 X91.594 Y100.824 E0.03258
G1 X91.832 Y101.568 E0.03248
G1 X92.141 Y102.290 E0.03265
G1 X92.514 Y102.980 E0.03261
G1 X92.947 Y103.631 E0.03251
G1 X93.107 Y103.829 E0.01058
G1 F15000 X99.481 Y109.971
G1 X100.258 Y110.042
G1 X107.793 Y110.674
G1 X110.084 Y112.886
G1 F2100 X110.400 Y112.967 E0.01356
G1 X110.651 Y112.988 E0.01047
G1 X110.878 Y112.982 E0.00945
G1 X111.108 Y112.950 E0.00965
G1 X111.327 Y112.894 E0.00940
G1 X111.549 Y112.812 E0.00984
G1 X111.920 Y112.601 E0.01774
G1 X112.118 Y112.441 E0.01058
G1 X112.296 Y112.257 E0.01065
G1 X112.529 Y111.917 E0.01713
G1 X112.648 Y111.670 E0.01140
G1 X112.763 Y111.260 E0.01771
G1 X112.791 Y110.903 E0.01488
G1 X112.764 Y110.571 E0.01385
G1 X112.733 Y110.437 E0.00572
G1 X113.455 Y111.158 E0.04242
G1 X113.375 Y111.350 E0.00865
G1 X113.125 Y111.797 E0.02129
G1 X112.822 Y112.228 E0.02191
G1 X112.471 Y112.626 E0.02206
G1 X112.089 Y112.975 E0.02151
G1 X111.868 Y113.146 E0.01162
G1 X111.448 Y113.421 E0.02087
G1 X110.982 Y113.661 E0.02179
G1 X110.893 Y113.695 E0.00396
G1 X110.084 Y112.886 E0.04757
G1 F15000 X110.161 Y112.390
;TYPE:WALL-OUTER
G1 F2100 X110.483 Y112.472 E0.01382
G1 X110.664 Y112.487 E0.00755
G1 X110.837 Y112.483 E0.00719
G1 X111.012 Y112.459 E0.00734
G1 X111.338 Y112.357 E0.01421
G1 X111.637 Y112.187 E0.01430
G1 X111.780 Y112.071 E0.00765
G1 X111.908 Y111.939 E0.00765
G1 X112.095 Y111.666 E0.01375
G1 X112.178 Y111.493 E0.00798
G1 X112.268 Y111.171 E0.01390
G1 X112.290 Y110.904 E0.01114
G1 X112.269 Y110.648 E0.01068
G1 X112.227 Y110.467 E0.00772
G1 X112.102 Y110.157 E0.01390
G1 X112.005 Y110.000 E0.00767
G1 X111.783 Y109.742 E0.01415
G1 X111.507 Y109.540 E0.01422
G1 X111.344 Y109.458 E0.00759
G1 X111.179 Y109.396 E0.00733
G1 X111.012 Y109.353 E0.00717
G1 X110.837 Y109.329 E0.00734
G1 X110.658 Y109.325 E0.00744
G1 X110.319 Y109.371 E0.01423
G1 X109.993 Y109.494 E0.01448
G1 X109.699 Y109.685 E0.01458
G1 X109.462 Y109.930 E0.01417
G1 X109.357 Y110.081 E0.00765
G1 X109.211 Y110.388 E0.01413
G1 X109.135 Y110.726 E0.01440
G1 X109.125 Y110.915 E0.00787
G1 X109.163 Y111.252 E0.01410
G1 X109.275 Y111.582 E0.01449
G1 X109.457 Y111.878 E0.01445
G1 X109.699 Y112.127 E0.01443
G1 X109.988 Y112.316 E0.01436
G1 X110.161 Y112.390 E0.00782
G1 F15000 X110.074 Y112.729
G1 X110.780 Y113.796
G1 X110.532 Y114.042
G1 F2100 X107.812 Y111.322 E0.15993
G1 X107.517 Y111.031 E0.01723
G1 X107.445 Y110.987 E0.00350
G1 X107.341 Y110.951 E0.00458
G1 X107.198 Y110.947 E0.00595
G1 X92.124 Y110.948 E0.62670
G1 X91.620 Y110.869 E0.02121
G1 X90.983 Y110.726 E0.02714
G1 X90.510 Y110.543 E0.02109
G1 X90.205 Y110.367 E0.01464
G1 X89.936 Y110.162 E0.01406
G1 X89.594 Y109.812 E0.02034
G1 X89.395 Y109.535 E0.01418
G1 X89.237 Y109.244 E0.01377
G1 X89.059 Y108.758 E0.02152
G1 X88.962 Y108.343 E0.01772
G1 X88.859 Y107.707 E0.02678
G1 X88.854 Y92.621 E0.62721
G1 X88.860 Y92.496 E0.00520
G1 X88.813 Y92.350 E0.00638
G1 X88.735 Y92.247 E0.00537
G1 X85.795 Y89.306 E0.17289
G1 X85.708 Y89.249 E0.00432
G1 X88.976 Y85.949 E0.19309
G1 X89.028 Y86.028 E0.00393
G1 X92.021 Y89.019 E0.17592
G1 X92.179 Y89.113 E0.00765
G1 X92.271 Y89.146 E0.00406
G1 X92.647 Y89.156 E0.01564
G1 X92.670 Y89.056 E0.00426
G1 X107.511 Y89.054 E0.61702
G1 X108.015 Y89.133 E0.02121
G1 X108.400 Y89.219 E0.01640
G1 X108.380 Y89.279 E0.00263
G1 X109.084 Y89.551 E0.03138
G1 X109.373 Y89.717 E0.01385
G1 X109.642 Y89.922 E0.01407
G1 X109.847 Y90.119 E0.01182
G1 X110.148 Y90.507 E0.02041
G1 X110.310 Y90.803 E0.01403
G1 X110.428 Y91.102 E0.01336
G1 X110.572 Y91.662 E0.02404
G1 X110.675 Y92.296 E0.02671
G1 X110.676 Y107.523 E0.63306
G1 X110.703 Y107.657 E0.00569
G1 X110.826 Y107.823 E0.00859
G1 X113.772 Y110.768 E0.17318
G1 X113.924 Y110.868 E0.00756
G1 X114.081 Y110.921 E0.00689
G1 X114.051 Y111.037 E0.00499
G1 X113.825 Y111.570 E0.02406
G1 X113.544 Y112.071 E0.02389
G1 X113.215 Y112.538 E0.02375
G1 X112.831 Y112.974 E0.02415
G1 X112.406 Y113.362 E0.02393
G1 X112.161 Y113.552 E0.01289
G1 X111.697 Y113.856 E0.02306
G1 X111.190 Y114.117 E0.02371
G1 X110.660 Y114.321 E0.02361
G1 X110.632 Y114.203 E0.00504
G1 X110.532 Y114.042 E0.00788
G1 F15000 X110.780 Y113.796
G1 X108.868 Y111.774
G1 X105.461 Y104.637
G1 X105.221 Y104.383
G1 F2100 X105.708 Y103.886 E0.02893
G1 X106.164 Y103.331 E0.02986
G1 X106.575 Y102.725 E0.03044
G1 X106.925 Y102.086 E0.03030
G1 X107.218 Y101.413 E0.03051
G1 X107.446 Y100.721 E0.03029
G1 X107.608 Y100.019 E0.02996
