; generated by Slic3r 1.0.0RC2 on 2014-05-09 at 16:10:14

; layer_height = 0.24
; perimeters = 2
; top_solid_layers = 4
; bottom_solid_layers = 3
; fill_density = 0.3
; perimeter_speed = 20
; infill_speed = 20
; travel_speed = 60
; nozzle_diameter = 0.5
; filament_diameter = 1.75
; extrusion_multiplier = 1
; perimeters extrusion width = 0.50mm
; infill extrusion width = 0.87mm
; solid infill extrusion width = 0.85mm
; top infill extrusion width = 0.85mm

G21 ; set units to millimeters
M140 S65; Set bed temperature
G28 ; Home all axes
G1 Z5 F200 ; lift nozzle
G1 X2 Y50 F2000; Go to wait for warm position
M116; Wait for all temperatures
G10 P1 S185 R185 ; Set tool 1 temperature
G10 P2 S185 R185 ; Set tool 2 temperature
G10 P3 S185 R185 ; Set tool 3 temperature
T1; Select extruder
M116; Wait for all temperatures
G90 ; use absolute coordinates
M83 ; use relative distances for extrusion
G1 F1800.000 E-2.00000
G1 Z0.240 F3600.000
G1 X100.400 Y80.400 F3600.000
G1 E2.00000 F1800.000
G1 X101.390 Y79.600 E0.06350 F600.000
G1 X102.510 Y78.990 E0.06363
G1 X103.730 Y78.620 E0.06360
G1 X105.000 Y78.500 E0.06364
G1 X135.000 Y78.500 E1.49671
G1 X136.270 Y78.620 E0.06364
G1 X137.490 Y78.990 E0.06360
G1 X138.610 Y79.600 E0.06363
G1 X139.600 Y80.400 E0.06350
G1 X140.400 Y81.390 E0.06350
G1 X141.010 Y82.510 E0.06363
G1 X141.380 Y83.730 E0.06360
G1 X141.500 Y85.000 E0.06364
G1 X141.500 Y115.000 E1.49671
G1 X141.380 Y116.270 E0.06364
G1 X141.010 Y117.490 E0.06360
G1 X140.400 Y118.610 E0.06363
G1 X139.600 Y119.600 E0.06350
G1 X138.610 Y120.400 E0.06350
G1 X137.490 Y121.010 E0.06363
G1 X136.270 Y121.380 E0.06360
G1 X135.000 Y121.500 E0.06364
G1 X105.000 Y121.500 E1.49671
G1 X103.730 Y121.380 E0.06364
G1 X102.510 Y121.010 E0.06360
G1 X101.390 Y120.400 E0.06363
G1 X100.400 Y119.600 E0.06350
G1 X99.600 Y118.610 E0.06350
G1 X98.990 Y117.490 E0.06363
G1 X98.620 Y116.270 E0.06360
G1 X98.500 Y115.000 E0.06364
G1 X98.500 Y85.000 E1.49671
G1 X98.620 Y83.730 E0.06364
G1 X98.990 Y82.510 E0.06360
G1 X99.600 Y81.390 E0.06363
G1 X100.353 Y80.458 E0.05976
G1 F1800.000 E-2.00000
G1 X111.731 Y103.047 F3600.000
G1 E2.00000 F1800.000
G1 X116.977 Y108.293 E0.59228 F600.000
G1 X118.499 Y108.683 E0.12544
G1 X111.302 Y101.487 E0.81259
G1 X111.169 Y100.222 E0.10151
G1 X119.753 Y108.806 E0.96918
G1 X120.884 Y108.806 E0.09035
G1 X111.235 Y99.156 E1.08957
G1 X111.347 Y98.136 E0.08188
G1 X121.825 Y108.614 E1.18309
G1 X122.755 Y108.413 E0.07596
G1 X111.624 Y97.282 E1.25673
G1 X111.902 Y96.428 E0.07170
G1 X123.538 Y108.064 E1.31381
G1 X124.320 Y107.715 E0.06843
G1 X112.311 Y95.706 E1.35598
G1 X112.725 Y94.989 E0.06614
G1 X124.993 Y107.256 E1.38518
G1 X125.649 Y106.780 E0.06468
G1 X113.229 Y94.360 E1.40235
G1 X113.776 Y93.776 E0.06392
G1 X126.224 Y106.224 E1.40548
G1 X126.771 Y105.640 E0.06392
G1 X114.351 Y93.220 E1.40235
G1 X115.007 Y92.744 E0.06468
G1 X127.275 Y105.011 E1.38518
G1 X127.689 Y104.294 E0.06614
G1 X115.680 Y92.285 E1.35598
G1 X116.462 Y91.936 E0.06843
G1 X128.098 Y103.572 E1.31381
G1 X128.376 Y102.718 E0.07170
G1 X117.245 Y91.587 E1.25673
G1 X118.175 Y91.386 E0.07596
G1 X128.653 Y101.864 E1.18309
G1 X128.765 Y100.844 E0.08188
G1 X119.116 Y91.194 E1.08957
G1 X120.247 Y91.194 E0.09035
G1 X128.831 Y99.778 E0.96918
G1 X128.698 Y98.513 E0.10151
G1 X121.501 Y91.317 E0.81258
G1 X123.023 Y91.707 E0.12544
G1 X128.269 Y96.953 E0.59228
G1 X126.438 Y93.990 F3600.000
G1 X125.717 Y93.269 E0.08142 F600.000
G1 X113.562 Y106.009 F3600.000
G1 X114.283 Y106.731 E0.08145 F600.000
G1 X113.813 Y106.871 F3600.000
G1 X112.520 Y105.435 E0.09643 F600.000
G1 X111.553 Y103.761 E0.09643
G1 X110.956 Y101.922 E0.09643
G1 X110.754 Y100.000 E0.09643
G1 X110.956 Y98.078 E0.09643
G1 X111.553 Y96.239 E0.09643
G1 X112.520 Y94.565 E0.09643
G1 X113.813 Y93.129 E0.09643
G1 X115.377 Y91.993 E0.09643
G1 X117.143 Y91.207 E0.09643
G1 X119.034 Y90.805 E0.09643
G1 X120.966 Y90.805 E0.09643
G1 X122.857 Y91.207 E0.09643
G1 X124.623 Y91.993 E0.09643
G1 X126.187 Y93.129 E0.09643
G1 X127.480 Y94.565 E0.09643
G1 X128.447 Y96.239 E0.09643
G1 X129.044 Y98.078 E0.09643
G1 X129.246 Y100.000 E0.09643
G1 X129.044 Y101.922 E0.09643
G1 X128.447 Y103.761 E0.09643
G1 X127.480 Y105.435 E0.09643
G1 X126.187 Y106.871 E0.09643
G1 X124.623 Y108.007 E0.09643
G1 X122.857 Y108.793 E0.09643
G1 X120.966 Y109.195 E0.09643
G1 X119.034 Y109.195 E0.09643
G1 X117.143 Y108.793 E0.09643
G1 X115.377 Y108.007 E0.09643
G1 X113.874 Y106.915 E0.09269
G1 X113.477 Y107.245 F3600.000
G1 X112.113 Y105.730 E0.10168 F420.000
G1 X111.094 Y103.965 E0.10168
G1 X110.464 Y102.027 E0.10168
G1 X110.251 Y100.000 E0.10168
G1 X110.464 Y97.973 E0.10168
G1 X111.094 Y96.035 E0.10168
G1 X112.113 Y94.270 E0.10168
G1 X113.477 Y92.755 E0.10168
G1 X115.126 Y91.557 E0.10168
G1 X116.988 Y90.729 E0.10168
G1 X118.981 Y90.305 E0.10168
G1 X121.019 Y90.305 E0.10168
G1 X123.012 Y90.729 E0.10168
G1 X124.874 Y91.557 E0.10168
G1 X126.523 Y92.755 E0.10168
G1 X127.887 Y94.270 E0.10168
G1 X128.906 Y96.035 E0.10168
G1 X129.536 Y97.973 E0.10168
G1 X129.749 Y100.000 E0.10168
G1 X129.536 Y102.027 E0.10168
G1 X128.906 Y103.965 E0.10168
G1 X127.887 Y105.730 E0.10168
G1 X126.523 Y107.245 E0.10168
G1 X124.874 Y108.443 E0.10168
G1 X123.012 Y109.271 E0.10168
G1 X121.019 Y109.695 E0.10168
G1 X118.981 Y109.695 E0.10168
G1 X116.988 Y109.271 E0.10168
G1 X115.126 Y108.443 E0.10168
G1 X113.538 Y107.289 E0.09794
G1 X113.598 Y106.759 F3600.000
T2
G1 F1800.000 E-2.00000
G1 X114.883 Y109.855 F3600.000
G1 E2.00000 F1800.000
G1 X118.889 Y113.861 E0.46040 F600.000
G1 X120.041 Y113.861 E0.09359
G1 X116.840 Y110.660 E0.36786
G1 X118.302 Y110.971 E0.12150
G1 X121.192 Y113.861 E0.33213
G1 X122.344 Y113.861 E0.09359
G1 X119.567 Y111.084 E0.31912
G1 X120.719 Y111.084 E0.09359
G1 X123.496 Y113.861 E0.31912
G1 X124.648 Y113.861 E0.09359
G1 X121.747 Y110.960 E0.33333
G1 X122.697 Y110.759 E0.07890
G1 X125.799 Y113.861 E0.35653
G1 X126.951 Y113.861 E0.09359
G1 X123.614 Y110.524 E0.38348
G1 X124.411 Y110.169 E0.07088
G1 X128.103 Y113.861 E0.42425
G1 X129.254 Y113.861 E0.09359
G1 X125.208 Y109.814 E0.46502
G1 X125.934 Y109.389 E0.06840
G1 X130.406 Y113.861 E0.51388
G1 X131.558 Y113.861 E0.09359
G1 X126.601 Y108.905 E0.56958
G1 X127.268 Y108.420 E0.06700
G1 X132.709 Y113.861 E0.62527
G1 X133.820 Y113.820 E0.09034
G1 X127.848 Y107.848 E0.68628
G1 X128.394 Y107.242 E0.06627
G1 X133.861 Y112.709 E0.62825
G1 X133.861 Y111.558 E0.09359
G1 X128.940 Y106.636 E0.56554
G1 X129.379 Y105.924 E0.06802
G1 X133.861 Y110.406 E0.51509
G1 X133.861 Y109.254 E0.09359
G1 X129.800 Y105.194 E0.46664
G1 X130.209 Y104.450 E0.06892
G1 X133.861 Y108.103 E0.41973
G1 X133.861 Y106.951 E0.09359
G1 X130.491 Y103.581 E0.38727
G1 X130.774 Y102.712 E0.07427
G1 X133.861 Y105.799 E0.35481
G1 X133.861 Y104.647 E0.09359
G1 X130.961 Y101.748 E0.33321
G1 X131.071 Y100.706 E0.08515
G1 X133.861 Y103.496 E0.32062
G1 X133.861 Y102.344 E0.09359
G1 X131.102 Y99.585 E0.31712
G1 X130.966 Y98.298 E0.10515
G1 X133.861 Y101.192 E0.33266
G1 X133.861 Y100.041 E0.09359
G1 X130.612 Y96.792 E0.37336
G1 X129.830 Y94.858 F3600.000
G1 X133.861 Y98.889 E0.46322 F600.000
G1 X133.861 Y97.737 E0.09359
G1 X122.263 Y86.139 E1.33285
G1 X123.414 Y86.139 E0.09359
G1 X133.861 Y96.586 E1.20050
G1 X133.861 Y86.220 F3600.000
G1 X133.780 Y86.139 E0.00935 F600.000
G1 X132.628 Y86.139 E0.09359
G1 X133.861 Y87.372 E0.14170
G1 X133.861 Y88.524 E0.09359
G1 X131.476 Y86.139 E0.27405
G1 X130.325 Y86.139 E0.09359
G1 X133.861 Y89.675 E0.40640
G1 X133.861 Y90.827 E0.09359
G1 X129.173 Y86.139 E0.53875
G1 X128.021 Y86.139 E0.09359
G1 X133.861 Y91.979 E0.67110
G1 X133.861 Y93.131 E0.09359
G1 X126.869 Y86.139 E0.80345
G1 X125.718 Y86.139 E0.09359
G1 X133.861 Y94.282 E0.93580
G1 X133.861 Y95.434 E0.09359
G1 X124.566 Y86.139 E1.06815
G1 X125.117 Y90.145 F3600.000
G1 X121.111 Y86.139 E0.46040 F600.000
G1 X119.959 Y86.139 E0.09359
G1 X123.160 Y89.340 E0.36786
G1 X121.698 Y89.029 E0.12150
G1 X118.808 Y86.139 E0.33213
G1 X117.656 Y86.139 E0.09359
G1 X120.433 Y88.916 E0.31912
G1 X119.281 Y88.916 E0.09359
G1 X116.504 Y86.139 E0.31912
G1 X115.353 Y86.139 E0.09359
G1 X118.253 Y89.040 E0.33333
G1 X117.303 Y89.241 E0.07890
G1 X114.201 Y86.139 E0.35653
G1 X113.049 Y86.139 E0.09359
G1 X116.386 Y89.476 E0.38348
G1 X115.589 Y89.831 E0.07088
G1 X111.897 Y86.139 E0.42425
G1 X110.746 Y86.139 E0.09359
G1 X114.792 Y90.186 E0.46502
G1 X114.066 Y90.611 E0.06840
G1 X109.594 Y86.139 E0.51388
G1 X108.442 Y86.139 E0.09359
G1 X113.399 Y91.095 E0.56957
G1 X112.732 Y91.580 E0.06700
G1 X107.291 Y86.139 E0.62527
G1 X106.180 Y86.180 E0.09034
G1 X112.152 Y92.152 E0.68627
G1 X111.606 Y92.758 E0.06627
G1 X106.139 Y87.291 E0.62825
G1 X106.139 Y88.442 E0.09359
G1 X111.060 Y93.364 E0.56554
G1 X110.621 Y94.076 E0.06802
G1 X106.139 Y89.594 E0.51509
G1 X106.139 Y90.746 E0.09359
G1 X110.200 Y94.806 E0.46665
G1 X109.791 Y95.550 E0.06892
G1 X106.139 Y91.897 E0.41973
G1 X106.139 Y93.049 E0.09359
G1 X109.509 Y96.419 E0.38727
G1 X109.226 Y97.288 E0.07427
G1 X106.139 Y94.201 E0.35481
G1 X106.139 Y95.352 E0.09359
G1 X109.039 Y98.252 E0.33321
G1 X108.929 Y99.294 E0.08515
G1 X106.139 Y96.504 E0.32062
G1 X106.139 Y97.656 E0.09359
G1 X108.898 Y100.415 E0.31712
G1 X109.034 Y101.702 E0.10515
G1 X106.139 Y98.808 E0.33266
G1 X106.139 Y99.959 E0.09359
G1 X109.388 Y103.208 E0.37336
G1 X110.170 Y105.142 F3600.000
G1 X106.139 Y101.111 E0.46321 F600.000
G1 X106.139 Y102.263 E0.09359
G1 X117.737 Y113.861 E1.33285
G1 X116.586 Y113.861 E0.09359
G1 X106.139 Y103.414 E1.20050
G1 X106.139 Y104.566 E0.09359
G1 X115.434 Y113.861 E1.06815
G1 X114.282 Y113.861 E0.09359
G1 X106.139 Y105.718 E0.93580
G1 X106.139 Y106.869 E0.09359
G1 X113.131 Y113.861 E0.80345
G1 X111.979 Y113.861 E0.09359
G1 X106.139 Y108.021 E0.67111
G1 X106.139 Y109.173 E0.09359
G1 X110.827 Y113.861 E0.53876
G1 X109.675 Y113.861 E0.09359
G1 X106.139 Y110.325 E0.40641
G1 X106.139 Y111.476 E0.09359
G1 X108.524 Y113.861 E0.27406
G1 X107.372 Y113.861 E0.09359
G1 X106.139 Y112.628 E0.14171
G1 X106.139 Y113.780 E0.09359
G1 X106.220 Y113.861 E0.00936
G1 X112.804 Y107.992 F3600.000
G1 X111.300 Y106.321 E0.11216 F600.000
G1 X110.176 Y104.374 E0.11216
G1 X109.481 Y102.236 E0.11216
G1 X109.246 Y100.000 E0.11216
G1 X109.481 Y97.764 E0.11216
G1 X110.176 Y95.626 E0.11216
G1 X111.300 Y93.679 E0.11216
G1 X112.667 Y92.160 E0.10197
G1 X112.804 Y92.008 E0.01019
G1 X114.623 Y90.687 E0.11216
G1 X116.677 Y89.772 E0.11216
G1 X118.876 Y89.305 E0.11216
G1 X121.124 Y89.305 E0.11216
G1 X123.323 Y89.772 E0.11216
G1 X125.377 Y90.687 E0.11216
G1 X127.196 Y92.008 E0.11216
G1 X128.700 Y93.679 E0.11216
G1 X129.824 Y95.626 E0.11216
G1 X130.519 Y97.764 E0.11216
G1 X130.754 Y100.000 E0.11216
G1 X130.519 Y102.236 E0.11216
G1 X129.824 Y104.374 E0.11216
G1 X128.700 Y106.321 E0.11216
G1 X127.196 Y107.992 E0.11216
G1 X125.377 Y109.313 E0.11216
G1 X123.323 Y110.228 E0.11216
G1 X121.124 Y110.695 E0.11216
G1 X118.876 Y110.695 E0.11217
G1 X116.677 Y110.228 E0.11216
G1 X114.623 Y109.313 E0.11216
G1 X112.865 Y108.036 E0.10842
G1 X113.140 Y107.618 F3600.000
G1 X111.706 Y106.026 E0.10692 F420.000
G1 X110.635 Y104.170 E0.10692
G1 X109.973 Y102.131 E0.10692
G1 X109.749 Y100.000 E0.10692
G1 X109.973 Y97.869 E0.10692
G1 X110.635 Y95.830 E0.10692
G1 X111.706 Y93.974 E0.10692
G1 X113.039 Y92.494 E0.09935
G1 X113.140 Y92.382 E0.00757
G1 X114.874 Y91.122 E0.10692
G1 X116.832 Y90.250 E0.10692
G1 X118.928 Y89.805 E0.10692
G1 X121.072 Y89.805 E0.10692
G1 X123.168 Y90.250 E0.10692
G1 X125.126 Y91.122 E0.10692
G1 X126.860 Y92.382 E0.10692
G1 X128.294 Y93.974 E0.10692
G1 X129.365 Y95.830 E0.10692
G1 X130.027 Y97.869 E0.10692
G1 X130.251 Y100.000 E0.10692
G1 X130.027 Y102.131 E0.10692
G1 X129.365 Y104.170 E0.10692
G1 X128.294 Y106.026 E0.10692
G1 X126.860 Y107.618 E0.10692
G1 X125.126 Y108.878 E0.10692
G1 X123.168 Y109.750 E0.10692
G1 X121.072 Y110.195 E0.10692
G1 X118.928 Y110.195 E0.10692
G1 X116.832 Y109.750 E0.10692
G1 X114.874 Y108.878 E0.10692
G1 X113.201 Y107.662 E0.10318
G1 X112.660 Y107.756 F3600.000
G1 X105.750 Y114.250 F3600.000
G1 X105.750 Y85.750 E1.42187 F600.000
G1 X134.250 Y85.750 E1.42187
G1 X134.250 Y114.250 E1.42187
G1 X105.825 Y114.250 E1.41813
G1 X105.250 Y114.750 F3600.000
G1 X105.250 Y85.250 E1.47176 F420.000
G1 X134.750 Y85.250 E1.47176
G1 X134.750 Y114.750 E1.47176
G1 X105.325 Y114.750 E1.46802
G1 X105.500 Y114.317 F3600.000
G1 F1800.000 E-2.00000
G1 Z0.480 F3600.000
G1 X123.160 Y110.660 F3600.000
G1 E2.00000 F1800.000
G1 X119.959 Y113.861 E0.36786 F1200
G1 X118.808 Y113.861 E0.09359
G1 X121.698 Y110.971 E0.33213
G1 X120.433 Y111.084 E0.10320
G1 X117.656 Y113.861 E0.31912
G1 X116.504 Y113.861 E0.09359
G1 X119.281 Y111.084 E0.31912
G1 X118.253 Y110.960 E0.08414
G1 X115.352 Y113.861 E0.33333
G1 X114.201 Y113.861 E0.09359
G1 X117.303 Y110.759 E0.35653
G1 X116.386 Y110.524 E0.07693
G1 X113.049 Y113.861 E0.38348
G1 X111.897 Y113.861 E0.09359
G1 X115.589 Y110.169 E0.42425
G1 X114.792 Y109.814 E0.07088
G1 X110.746 Y113.861 E0.46502
G1 X109.594 Y113.861 E0.09359
G1 X114.066 Y109.389 E0.51388
G1 X113.399 Y108.905 E0.06700
G1 X108.442 Y113.861 E0.56958
G1 X107.291 Y113.861 E0.09359
G1 X112.732 Y108.420 E0.62527
G1 X112.152 Y107.848 E0.06618
G1 X106.180 Y113.820 E0.68627
G1 X106.139 Y112.709 E0.09034
G1 X111.606 Y107.242 E0.62825
G1 X111.060 Y106.636 E0.06627
G1 X106.139 Y111.558 E0.56554
G1 X106.139 Y110.406 E0.09359
G1 X110.621 Y105.924 E0.51509
G1 X110.200 Y105.194 E0.06851
G1 X106.139 Y109.254 E0.46664
G1 X106.139 Y108.103 E0.09359
G1 X109.791 Y104.450 E0.41973
G1 X109.509 Y103.581 E0.07427
G1 X106.139 Y106.951 E0.38727
G1 X106.139 Y105.799 E0.09359
G1 X109.226 Y102.712 E0.35481
G1 X109.039 Y101.748 E0.07979
G1 X106.139 Y104.647 E0.33321
G1 X106.139 Y103.496 E0.09359
G1 X108.929 Y100.706 E0.32062
G1 X108.898 Y99.585 E0.09114
G1 X106.139 Y102.344 E0.31712
G1 X106.139 Y101.192 E0.09359
G1 X109.034 Y98.298 E0.33266
G1 X109.388 Y96.792 E0.12570
G1 X106.139 Y100.041 E0.37336
G1 X106.139 Y98.889 E0.09359
G1 X110.170 Y94.858 E0.46321
G1 X106.139 Y95.434 F3600.000
G1 X115.434 Y86.139 E1.06815 F1200
G1 X114.282 Y86.139 E0.09359
G1 X106.139 Y94.282 E0.93580
G1 X106.139 Y93.131 E0.09359
G1 X113.131 Y86.139 E0.80345
G1 X111.979 Y86.139 E0.09359
G1 X106.139 Y91.979 E0.67110
G1 X106.139 Y90.827 E0.09359
G1 X110.827 Y86.139 E0.53875
G1 X109.675 Y86.139 E0.09359
G1 X106.139 Y89.675 E0.40640
G1 X106.139 Y88.524 E0.09359
G1 X108.524 Y86.139 E0.27405
G1 X107.372 Y86.139 E0.09359
G1 X106.139 Y87.372 E0.14170
G1 X106.139 Y86.220 E0.09359
G1 X106.220 Y86.139 E0.00935
G1 X114.883 Y90.145 F3600.000
G1 X118.889 Y86.139 E0.46040 F1200
G1 X117.737 Y86.139 E0.09359
G1 X106.139 Y97.737 E1.33285
G1 X106.139 Y96.586 E0.09359
G1 X116.586 Y86.139 E1.20050
G1 X116.840 Y89.340 F3600.000
G1 X120.041 Y86.139 E0.36786 F1200
G1 X121.192 Y86.139 E0.09359
G1 X118.302 Y89.029 E0.33213
G1 X119.567 Y88.916 E0.10320
G1 X122.344 Y86.139 E0.31912
G1 X123.496 Y86.139 E0.09359
G1 X120.719 Y88.916 E0.31912
G1 X121.747 Y89.040 E0.08414
G1 X124.647 Y86.139 E0.33333
G1 X125.799 Y86.139 E0.09359
G1 X122.697 Y89.241 E0.35653
G1 X123.614 Y89.476 E0.07693
G1 X126.951 Y86.139 E0.38348
G1 X128.103 Y86.139 E0.09359
G1 X124.411 Y89.831 E0.42425
G1 X125.208 Y90.186 E0.07088
G1 X129.254 Y86.139 E0.46502
G1 X130.406 Y86.139 E0.09359
G1 X125.934 Y90.611 E0.51388
G1 X126.601 Y91.095 E0.06700
G1 X131.558 Y86.139 E0.56958
G1 X132.709 Y86.139 E0.09359
G1 X127.268 Y91.580 E0.62527
G1 X127.848 Y92.152 E0.06618
G1 X133.820 Y86.180 E0.68628
G1 X133.861 Y87.291 E0.09034
G1 X128.394 Y92.758 E0.62825
G1 X128.940 Y93.364 E0.06627
G1 X133.861 Y88.442 E0.56554
G1 X133.861 Y89.594 E0.09359
G1 X129.379 Y94.076 E0.51509
G1 X129.800 Y94.806 E0.06851
G1 X133.861 Y90.746 E0.46665
G1 X133.861 Y91.897 E0.09359
G1 X130.209 Y95.550 E0.41973
G1 X130.491 Y96.419 E0.07427
G1 X133.861 Y93.049 E0.38727
G1 X133.861 Y94.201 E0.09359
G1 X130.773 Y97.288 E0.35482
G1 X130.961 Y98.252 E0.07979
G1 X133.861 Y95.352 E0.33321
G1 X133.861 Y96.504 E0.09359
G1 X131.071 Y99.294 E0.32063
G1 X131.102 Y100.415 E0.09114
G1 X133.861 Y97.656 E0.31712
G1 X133.861 Y98.808 E0.09359
G1 X130.966 Y101.702 E0.33266
