; generated by Slic3r 1.0.0RC2 on 2014-02-17 at 14:11:51

; layer_height = 0.24
; perimeters = 2
; top_solid_layers = 4
; bottom_solid_layers = 3
; fill_density = 0.3
; perimeter_speed = 20
; infill_speed = 20
; travel_speed = 60
; nozzle_diameter = 0.5
; filament_diameter = 1.75
; extrusion_multiplier = 1
; perimeters extrusion width = 0.50mm
; infill extrusion width = 0.87mm
; solid infill extrusion width = 0.85mm
; top infill extrusion width = 0.85mm

G21 ; set units to millimeters
M140 S65; Set bed temperature
G28 X0 Y0; Home all axes
G1 Z5 F200 ; lift nozzle
G1 X2 Y50 F2000; Go to wait for warm position
M116; Wait for all temperatures
G10 P0 S190 R0 ; Set extruder temperature
T0; Select extruder
M116; Wait for all temperatures
G90 ; use absolute coordinates
M83 ; use relative distances for extrusion
G1 F1800.000 E-4.00000
G1 X94.600 Y76.390 F3600.000
G1 Z0.240 F3600.000
G1 E4.00000 F1800.000
G1 X95.400 Y75.400 E0.06350 F600.000
G1 X96.390 Y74.600 E0.06350
G1 X97.510 Y73.990 E0.06363
G1 X98.730 Y73.620 E0.06360
G1 X100.000 Y73.500 E0.06364
G1 X140.000 Y73.500 E1.99561
G1 X141.270 Y73.620 E0.06364
G1 X142.490 Y73.990 E0.06360
G1 X143.610 Y74.600 E0.06363
G1 X144.600 Y75.400 E0.06350
G1 X145.400 Y76.390 E0.06350
G1 X146.010 Y77.510 E0.06363
G1 X146.380 Y78.730 E0.06360
G1 X146.500 Y80.000 E0.06364
G1 X146.500 Y120.000 E1.99561
G1 X146.380 Y121.270 E0.06364
G1 X146.010 Y122.490 E0.06360
G1 X145.400 Y123.610 E0.06363
G1 X144.600 Y124.600 E0.06350
G1 X143.610 Y125.400 E0.06350
G1 X142.490 Y126.010 E0.06363
G1 X141.270 Y126.380 E0.06360
G1 X140.000 Y126.500 E0.06364
G1 X100.000 Y126.500 E1.99561
G1 X98.730 Y126.380 E0.06364
G1 X97.510 Y126.010 E0.06360
G1 X96.390 Y125.400 E0.06363
G1 X95.400 Y124.600 E0.06350
G1 X94.600 Y123.610 E0.06350
G1 X93.990 Y122.490 E0.06363
G1 X93.620 Y121.270 E0.06360
G1 X93.500 Y120.000 E0.06364
G1 X93.500 Y80.000 E1.99561
G1 X93.620 Y78.730 E0.06364
G1 X93.990 Y77.510 E0.06360
G1 X94.564 Y76.456 E0.05989
G1 F1800.000 E-4.00000
G1 X102.010 Y82.554 F3600.000
G1 E4.00000 F1800.000
G1 X102.554 Y82.010 E0.03839 F600.000
G1 X103.240 Y81.661 E0.03839
G1 X103.862 Y81.563 E0.03140
G1 X104.000 Y81.541 E0.00699
G1 X104.760 Y81.661 E0.03839
G1 X105.446 Y82.010 E0.03839
G1 X105.990 Y82.554 E0.03839
G1 X106.339 Y83.240 E0.03839
G1 X106.459 Y84.000 E0.03839
G1 X106.339 Y84.760 E0.03839
G1 X105.806 Y85.806 E0.05857
G1 X104.760 Y86.339 E0.05857
G1 X104.000 Y86.459 E0.03839
G1 X103.240 Y86.339 E0.03839
G1 X102.554 Y85.990 E0.03839
G1 X102.010 Y85.446 E0.03839
G1 X101.661 Y84.760 E0.03839
G1 X101.541 Y84.000 E0.03839
G1 X101.661 Y83.240 E0.03839
G1 X101.976 Y82.621 E0.03465
G1 X102.420 Y82.852 F3600.000
G1 X102.852 Y82.420 E0.03049 F600.000
G1 X103.396 Y82.142 E0.03049
G1 X103.940 Y82.056 E0.02745
G1 X104.000 Y82.047 E0.00304
G1 X104.604 Y82.142 E0.03049
G1 X105.148 Y82.420 E0.03049
G1 X105.580 Y82.852 E0.03049
G1 X105.858 Y83.396 E0.03049
G1 X105.953 Y84.000 E0.03049
G1 X105.858 Y84.604 E0.03049
G1 X105.580 Y85.148 E0.03049
G1 X105.148 Y85.580 E0.03049
G1 X104.604 Y85.858 E0.03049
G1 X104.000 Y85.953 E0.03049
G1 X103.396 Y85.858 E0.03049
G1 X102.852 Y85.580 E0.03049
G1 X102.420 Y85.148 E0.03049
G1 X102.142 Y84.604 E0.03049
G1 X102.047 Y84.000 E0.03049
G1 X102.142 Y83.396 E0.03049
G1 X102.386 Y82.919 E0.02675
G1 X102.241 Y82.385 F3600.000
G1 F1800.000 E-4.00000
G1 X133.541 Y84.000 F3600.000
G1 E4.00000 F1800.000
G1 X133.661 Y83.240 E0.03839 F600.000
G1 X134.010 Y82.554 E0.03839
G1 X134.554 Y82.010 E0.03839
G1 X135.240 Y81.661 E0.03839
G1 X136.000 Y81.541 E0.03839
G1 X136.760 Y81.661 E0.03839
G1 X137.446 Y82.010 E0.03839
G1 X137.990 Y82.554 E0.03839
G1 X138.339 Y83.240 E0.03839
G1 X138.459 Y84.000 E0.03839
G1 X138.339 Y84.760 E0.03839
G1 X137.990 Y85.446 E0.03839
G1 X137.446 Y85.990 E0.03839
G1 X136.760 Y86.339 E0.03839
G1 X136.000 Y86.459 E0.03839
G1 X135.240 Y86.339 E0.03839
G1 X134.194 Y85.806 E0.05857
G1 X133.661 Y84.760 E0.05857
G1 X133.552 Y84.074 E0.03465
G1 X134.047 Y84.000 F3600.000
G1 X134.142 Y83.396 E0.03049 F600.000
G1 X134.420 Y82.852 E0.03049
G1 X134.852 Y82.420 E0.03049
G1 X135.396 Y82.142 E0.03049
G1 X136.000 Y82.047 E0.03049
G1 X136.604 Y82.142 E0.03049
G1 X137.148 Y82.420 E0.03049
G1 X137.580 Y82.852 E0.03049
G1 X137.858 Y83.396 E0.03049
G1 X137.953 Y84.000 E0.03049
G1 X137.858 Y84.604 E0.03049
G1 X137.580 Y85.148 E0.03049
G1 X137.148 Y85.580 E0.03049
G1 X136.604 Y85.858 E0.03049
G1 X136.000 Y85.953 E0.03049
G1 X135.396 Y85.858 E0.03049
G1 X134.852 Y85.580 E0.03049
G1 X134.420 Y85.148 E0.03049
G1 X134.142 Y84.604 E0.03049
G1 X134.059 Y84.074 E0.02674
G1 X133.628 Y83.728 F3600.000
G1 F1800.000 E-4.00000
G1 X136.000 Y113.541 F3600.000
G1 E4.00000 F1800.000
G1 X136.760 Y113.661 E0.03839 F600.000
G1 X137.446 Y114.010 E0.03839
G1 X137.990 Y114.554 E0.03839
G1 X138.339 Y115.240 E0.03839
G1 X138.459 Y116.000 E0.03839
G1 X138.339 Y116.760 E0.03839
G1 X137.990 Y117.446 E0.03839
G1 X137.446 Y117.990 E0.03838
G1 X136.760 Y118.339 E0.03839
G1 X136.000 Y118.459 E0.03839
G1 X135.240 Y118.339 E0.03839
G1 X134.554 Y117.990 E0.03839
G1 X134.010 Y117.446 E0.03839
G1 X133.661 Y116.760 E0.03839
G1 X133.541 Y116.000 E0.03839
G1 X133.661 Y115.240 E0.03839
G1 X134.194 Y114.194 E0.05857
G1 X135.240 Y113.661 E0.05857
G1 X135.926 Y113.552 E0.03465
G1 X136.000 Y114.047 F3600.000
G1 X136.604 Y114.142 E0.03049 F600.000
G1 X137.148 Y114.420 E0.03049
G1 X137.580 Y114.852 E0.03049
G1 X137.858 Y115.396 E0.03049
G1 X137.953 Y116.000 E0.03049
G1 X137.858 Y116.604 E0.03049
G1 X137.580 Y117.148 E0.03049
G1 X137.148 Y117.580 E0.03049
G1 X136.604 Y117.858 E0.03049
G1 X136.000 Y117.953 E0.03049
G1 X135.396 Y117.858 E0.03049
G1 X134.852 Y117.580 E0.03049
G1 X134.420 Y117.148 E0.03049
G1 X134.142 Y116.604 E0.03049
G1 X134.047 Y116.000 E0.03049
G1 X134.142 Y115.396 E0.03049
G1 X134.420 Y114.852 E0.03049
G1 X134.852 Y114.420 E0.03049
G1 X135.396 Y114.142 E0.03049
G1 X135.926 Y114.059 E0.02674
G1 X136.272 Y113.628 F3600.000
G1 F1800.000 E-4.00000
G1 X106.459 Y116.000 F3600.000
G1 E4.00000 F1800.000
G1 X106.339 Y116.760 E0.03839 F600.000
G1 X105.990 Y117.446 E0.03839
G1 X105.446 Y117.990 E0.03839
G1 X104.760 Y118.339 E0.03839
G1 X104.000 Y118.459 E0.03839
G1 X103.240 Y118.339 E0.03839
G1 X102.554 Y117.990 E0.03839
G1 X102.010 Y117.446 E0.03839
G1 X101.661 Y116.760 E0.03839
G1 X101.541 Y116.000 E0.03839
G1 X101.661 Y115.240 E0.03839
G1 X102.010 Y114.554 E0.03839
G1 X102.554 Y114.010 E0.03839
G1 X103.240 Y113.661 E0.03839
G1 X104.000 Y113.541 E0.03839
G1 X104.760 Y113.661 E0.03839
G1 X105.806 Y114.194 E0.05857
G1 X106.339 Y115.240 E0.05857
G1 X106.448 Y115.926 E0.03465
G1 X105.953 Y116.000 F3600.000
G1 X105.858 Y116.604 E0.03049 F600.000
G1 X105.580 Y117.148 E0.03049
G1 X105.148 Y117.580 E0.03049
G1 X104.604 Y117.858 E0.03049
G1 X104.000 Y117.953 E0.03049
G1 X103.396 Y117.858 E0.03049
G1 X102.852 Y117.580 E0.03049
G1 X102.420 Y117.148 E0.03049
G1 X102.142 Y116.604 E0.03049
G1 X102.047 Y116.000 E0.03049
G1 X102.142 Y115.396 E0.03049
G1 X102.420 Y114.852 E0.03049
G1 X102.852 Y114.420 E0.03049
G1 X103.396 Y114.142 E0.03049
G1 X104.000 Y114.047 E0.03049
G1 X104.604 Y114.142 E0.03048
G1 X105.148 Y114.420 E0.03049
G1 X105.580 Y114.852 E0.03049
G1 X105.858 Y115.396 E0.03049
G1 X105.941 Y115.926 E0.02674
G1 X106.372 Y116.272 F3600.000
G1 X107.729 Y114.833 F3600.000
G1 X105.967 Y113.178 E0.12061 F420.000
G1 X104.426 Y111.315 E0.12061
G1 X103.131 Y109.274 E0.12061
G1 X102.101 Y107.087 E0.12061
G1 X101.354 Y104.787 E0.12061
G1 X100.901 Y102.413 E0.12061
G1 X100.750 Y100.000 E0.12061
G1 X100.901 Y97.587 E0.12061
G1 X101.354 Y95.213 E0.12061
G1 X102.101 Y92.913 E0.12061
G1 X103.131 Y90.726 E0.12061
G1 X104.426 Y88.685 E0.12061
G1 X105.967 Y86.822 E0.12061
G1 X107.729 Y85.167 E0.12061
G1 X109.685 Y83.746 E0.12061
G1 X111.804 Y82.582 E0.12061
G1 X114.051 Y81.692 E0.12061
G1 X116.393 Y81.090 E0.12061
G1 X118.791 Y80.787 E0.12061
G1 X121.209 Y80.787 E0.12061
G1 X123.607 Y81.090 E0.12061
G1 X125.949 Y81.692 E0.12061
G1 X128.196 Y82.582 E0.12061
G1 X130.315 Y83.746 E0.12061
G1 X132.271 Y85.167 E0.12061
G1 X134.033 Y86.822 E0.12061
G1 X135.574 Y88.685 E0.12061
G1 X136.869 Y90.726 E0.12061
G1 X137.899 Y92.913 E0.12061
G1 X138.646 Y95.213 E0.12061
G1 X139.099 Y97.587 E0.12061
G1 X139.250 Y100.000 E0.12061
G1 X139.099 Y102.413 E0.12061
G1 X138.646 Y104.787 E0.12061
G1 X137.899 Y107.087 E0.12061
G1 X136.869 Y109.274 E0.12061
G1 X135.574 Y111.315 E0.12061
G1 X134.033 Y113.178 E0.12061
G1 X132.271 Y114.833 E0.12061
G1 X130.315 Y116.254 E0.12061
G1 X128.196 Y117.418 E0.12061
G1 X125.949 Y118.308 E0.12061
G1 X123.607 Y118.910 E0.12061
G1 X121.209 Y119.213 E0.12061
G1 X118.791 Y119.213 E0.12061
G1 X116.393 Y118.910 E0.12061
G1 X114.051 Y118.308 E0.12061
G1 X111.804 Y117.418 E0.12061
G1 X109.685 Y116.254 E0.12061
G1 X107.790 Y114.877 E0.11687
G1 X107.257 Y114.997 F3600.000
G1 F1800.000 E-4.00000
G1 X125.570 Y118.996 F3600.000
G1 E4.00000 F1800.000
G1 X128.410 Y117.872 E0.15237 F600.000
G1 X130.583 Y116.677 E0.12375
G1 X132.590 Y115.219 E0.12375
G1 X134.398 Y113.521 E0.12375
G1 X135.979 Y111.610 E0.12375
G1 X137.308 Y109.515 E0.12375
G1 X138.365 Y107.271 E0.12375
G1 X138.960 Y105.438 E0.09617
G1 X139.250 Y105.484 E0.01464
G1 X139.250 Y119.250 E0.68681
G1 X125.619 Y119.250 E0.68007
G1 X125.584 Y119.070 E0.00916
G1 F1800.000 E-4.00000
G1 X138.960 Y94.562 F3600.000
G1 E4.00000 F1800.000
G1 X138.365 Y92.729 E0.09617 F600.000
G1 X137.308 Y90.485 E0.12375
G1 X135.979 Y88.390 E0.12375
G1 X134.398 Y86.479 E0.12375
G1 X132.590 Y84.781 E0.12375
G1 X130.583 Y83.323 E0.12375
G1 X128.410 Y82.128 E0.12375
G1 X125.570 Y81.004 E0.15237
G1 X125.619 Y80.750 E0.01290
G1 X139.250 Y80.750 E0.68007
G1 X139.250 Y94.516 E0.68681
G1 X139.034 Y94.551 E0.01090
G1 F1800.000 E-4.00000
G1 X114.430 Y81.004 F3600.000
G1 E4.00000 F1800.000
G1 X111.590 Y82.128 E0.15237 F600.000
G1 X109.417 Y83.323 E0.12375
G1 X107.410 Y84.781 E0.12375
G1 X105.602 Y86.479 E0.12375
G1 X104.021 Y88.390 E0.12375
G1 X102.692 Y90.485 E0.12375
G1 X101.635 Y92.729 E0.12375
G1 X101.040 Y94.562 E0.09617
G1 X100.750 Y94.516 E0.01464
G1 X100.750 Y80.750 E0.68681
G1 X114.381 Y80.750 E0.68007
G1 X114.416 Y80.930 E0.00916
G1 F1800.000 E-4.00000
G1 X101.040 Y105.438 F3600.000
G1 E4.00000 F1800.000
G1 X101.635 Y107.271 E0.09617 F600.000
G1 X102.692 Y109.515 E0.12375
G1 X104.021 Y111.610 E0.12375
G1 X105.602 Y113.521 E0.12375
G1 X107.410 Y115.219 E0.12375
G1 X109.417 Y116.677 E0.12375
G1 X111.590 Y117.872 E0.12375
G1 X114.430 Y118.996 E0.15237
G1 X114.381 Y119.250 E0.01290
G1 X100.750 Y119.250 E0.68007
G1 X100.750 Y105.484 E0.68681
G1 X100.966 Y105.449 E0.01090
G1 X100.250 Y119.750 F3600.000
G1 X100.250 Y80.250 E1.97066 F420.000
G1 X139.750 Y80.250 E1.97066
G1 X139.750 Y119.750 E1.97066
G1 X100.325 Y119.750 E1.96692
G1 X100.500 Y119.317 F3600.000
G1 X137.620 Y118.864 F3600.000
G1 X137.576 Y118.820 E0.00546 F600.000
G1 X138.198 Y118.198 E0.07725
G1 X138.820 Y118.820 E0.07725
G1 X138.864 Y117.620 E0.10545
G1 X138.820 Y117.576 E0.00547
G1 F1800.000 E-4.00000
G1 X135.231 Y113.271 F3600.000
G1 E4.00000 F1800.000
G1 X135.163 Y113.203 E0.00827 F600.000
G1 X135.714 Y112.537 E0.07418
G1 X136.387 Y113.211 E0.08178
G1 X136.265 Y111.871 E0.11546
G1 X138.819 Y114.425 E0.31009
G1 X138.863 Y113.253 E0.10070
G1 X136.741 Y111.131 E0.25765
G1 X137.213 Y110.386 E0.07567
G1 X138.863 Y112.036 E0.20031
G1 X138.863 Y110.820 E0.10444
G1 X137.679 Y109.635 E0.14377
G1 X138.068 Y108.808 E0.07849
G1 X138.863 Y109.603 E0.09651
G1 X138.863 Y108.386 E0.10444
G1 X138.764 Y108.287 E0.01211
G1 X132.888 Y115.936 F3600.000
G1 X132.802 Y115.850 E0.01089 F600.000
G1 X132.067 Y116.384 E0.08130
G1 X133.127 Y117.443 E0.13414
G1 X133.280 Y118.865 E0.12802
G1 X131.153 Y116.738 E0.26922
G1 X130.376 Y117.230 E0.08231
G1 X132.011 Y118.865 E0.20701
G1 X130.743 Y118.865 E0.11356
G1 X129.741 Y117.864 E0.12674
G1 X129.474 Y118.865 E0.09276
G1 X128.923 Y118.314 E0.06977
G1 X128.141 Y118.801 E0.08245
G1 X128.205 Y118.865 E0.00819
G1 X127.575 Y118.775 F3600.000
G1 X127.550 Y118.750 E0.00176 F300.000
G1 X126.777 Y118.913 F3600.000
G1 X126.763 Y118.900 E0.00049 F300.000
G1 X125.115 Y119.093 F3600.000
G1 X125.043 Y119.021 E0.00704 F300.000
G1 X124.292 Y119.250 E0.05430 F300.000
G1 X124.326 Y119.285 E0.00339 F300.000
G1 X123.524 Y119.298 F3600.000
G1 X123.484 Y119.258 E0.00222 F300.000
G1 X123.091 Y119.420 E0.01661 F300.000
G1 X122.992 Y119.320 E0.00549 F300.000
G1 X122.517 Y119.400 E0.01882 F300.000
G1 X122.537 Y119.420 E0.00108 F300.000
G1 X117.483 Y119.400 F3600.000
G1 X117.462 Y119.380 E0.00102 F300.000
G1 X117.001 Y119.418 E0.01635 F300.000
G1 X116.890 Y119.307 E0.00550 F300.000
G1 X116.467 Y119.384 E0.01517 F300.000
G1 X116.501 Y119.418 E0.00167 F300.000
G1 X115.708 Y119.250 F3600.000
G1 X115.668 Y119.210 E0.00328 F300.000
G1 X114.866 Y119.225 E0.04632 F300.000
G1 X114.919 Y119.279 E0.00438 F300.000
G1 X113.205 Y118.913 F3600.000
G1 X113.185 Y118.893 E0.00074 F300.000
G1 X112.299 Y118.775 F3600.000
G1 X112.254 Y118.729 E0.00321 F300.000
G1 X106.712 Y115.361 F3600.000
G1 X106.697 Y115.345 E0.00059 F300.000
G1 X105.066 Y118.559 F3600.000
G1 X105.077 Y118.570 E0.00049 F300.000
G1 X104.862 Y118.786 E0.00926 F300.000
G1 X104.755 Y118.679 E0.00459 F300.000
G1 X104.560 Y118.915 E0.00931 F300.000
G1 X104.383 Y118.738 E0.00763 F300.000
G1 X104.130 Y118.915 E0.00940 F300.000
G1 X104.011 Y118.797 E0.00510 F300.000
G1 X103.699 Y118.915 E0.01015 F300.000
G1 X103.503 Y118.720 E0.00841 F300.000
G1 X102.923 Y118.570 E0.01821 F300.000
G1 X103.268 Y118.915 E0.01483 F300.000
G1 X101.430 Y117.077 F3600.000
G1 X101.085 Y116.732 E0.01483 F300.000
G1 X101.280 Y116.497 E0.00930 F300.000
G1 X101.085 Y116.301 E0.00841 F300.000
G1 X101.203 Y115.989 E0.01015 F300.000
G1 X101.085 Y115.870 E0.00510 F300.000
G1 X101.262 Y115.617 E0.00940 F300.000
G1 X101.085 Y115.440 E0.00763 F300.000
G1 X101.321 Y115.245 E0.00930 F300.000
G1 X101.214 Y115.138 E0.00459 F300.000
G1 X101.430 Y114.923 E0.00926 F300.000
G1 X101.441 Y114.934 E0.00049 F300.000
G1 X101.251 Y107.632 F3600.000
G1 X101.247 Y107.629 E0.00024 F300.000
G1 X101.111 Y106.911 F3600.000
G1 X101.087 Y106.887 E0.00091 F300.000
G1 X100.772 Y104.999 F3600.000
G1 X100.725 Y104.952 E0.00331 F300.000
G1 X100.613 Y103.509 F3600.000
G1 X100.586 Y103.482 E0.00107 F300.000
G1 X100.711 Y103.210 E0.00839 F300.000
G1 X100.586 Y103.084 E0.00497 F300.000
G1 X100.618 Y102.719 E0.01028 F300.000
G1 X100.600 Y102.701 E0.00070 F300.000
G1 X100.600 Y97.299 F3600.000
G1 X100.584 Y97.282 E0.00076 F300.000
G1 X100.688 Y96.923 E0.01228 F300.000
G1 X100.584 Y96.818 E0.00486 F300.000
G1 X100.763 Y96.532 E0.01105 F300.000
G1 X100.731 Y96.500 E0.00150 F300.000
G1 X100.750 Y95.712 F3600.000
G1 X100.725 Y95.687 E0.00179 F300.000
G1 X100.886 Y95.135 E0.02888 F300.000
G1 X100.725 Y94.974 E0.01143 F300.000
G1 X101.056 Y94.593 E0.02538 F300.000
G1 X100.725 Y94.262 E0.02356 F300.000
G1 X101.231 Y94.056 E0.02747 F300.000
G1 X100.725 Y93.550 E0.03597 F300.000
G1 X101.406 Y93.518 E0.03426 F300.000
G1 X100.725 Y92.837 E0.04839 F300.000
G1 X100.725 Y92.125 E0.03581 F300.000
G1 X101.580 Y92.980 E0.06081 F300.000
G1 X101.784 Y92.472 E0.02753 F300.000
G1 X100.725 Y91.412 E0.07531 F300.000
G1 X100.725 Y90.700 E0.03581 F300.000
G1 X102.012 Y91.988 E0.09151 F300.000
G1 X102.240 Y91.503 E0.02691 F300.000
G1 X100.725 Y89.988 E0.10772 F300.000
G1 X100.725 Y89.275 E0.03581 F300.000
G1 X102.468 Y91.019 E0.12392 F300.000
G1 X102.696 Y90.534 E0.02691 F300.000
G1 X100.725 Y88.563 E0.14013 F300.000
G1 X100.725 Y87.851 E0.03581 F300.000
G1 X102.969 Y90.095 E0.15952 F300.000
G1 X103.246 Y89.659 E0.02594 F300.000
G1 X100.725 Y87.138 E0.17918 F300.000
G1 X100.725 Y86.426 E0.03581 F300.000
G1 X103.522 Y89.223 E0.19884 F300.000
G1 X103.799 Y88.787 E0.02594 F300.000
G1 X100.725 Y85.713 E0.21850 F300.000
G1 X100.725 Y85.001 E0.03581 F300.000
G1 X104.081 Y88.357 E0.23856 F300.000
G1 X104.403 Y87.967 E0.02543 F300.000
G1 X100.725 Y84.289 E0.26149 F300.000
G1 X100.725 Y83.576 E0.03581 F300.000
G1 X104.726 Y87.577 E0.28441 F300.000
G1 X105.048 Y87.188 E0.02543 F300.000
G1 X100.725 Y82.864 E0.30734 F300.000
