; generated by Slic3r 1.2.6 on 2015-04-24 at 10:00:45

; external perimeters extrusion width = 0.50mm
; perimeters extrusion width = 0.72mm
; infill extrusion width = 0.72mm
; solid infill extrusion width = 0.72mm
; top infill extrusion width = 0.72mm

M107
M190 S57 ; set bed temperature
G28 ; home all axes
M83;
G10 P0 S195 R160                       ; Set tool 0 operating and standby temperatures
T0

G21 ; set units to millimeters
G90 ; use absolute coordinates
M83 ; use relative distances for extrusion
G1 E-3.50000 F2400.00000
G1 Z0.300 F12000.000
G1 X31.932 Y30.544 F12000.000
G1 E3.50000 F2400.00000
G1 X33.143 Y29.327 E0.15755 F1200.000
G1 X35.115 Y28.764 E0.18809
G1 X95.115 Y28.764 E5.50503
G1 X96.786 Y29.159 E0.15755
G1 X97.830 Y29.934 E0.11927 F1200.000
G1 X112.480 Y45.434 E1.95684
G1 X113.341 Y46.920 E0.15755
G1 X113.500 Y48.000 E0.10020
G1 X113.500 Y55.000 E0.64225
G1 X113.106 Y56.671 E0.15755
G1 X112.406 Y57.642 E0.10975
G1 X60.256 Y109.792 E6.76671
G1 X58.795 Y110.694 E0.15755
G1 X57.615 Y110.886 E0.10975
G1 X50.615 Y110.886 E0.64225
G1 X48.436 Y110.185 E0.20994
G1 X27.707 Y95.307 E2.34112
G1 X26.580 Y94.011 E0.15755
G1 X26.164 Y91.946 E0.19329
G1 X31.393 Y32.174 E5.50504
G1 X31.909 Y30.615 E0.15067
G1 E-3.50000 F2400.00000
G1 X56.629 Y56.014 F12000.000
G1 E3.50000 F2400.00000
G1 X56.629 Y106.014 E4.58753 F900.000
G1 X51.600 Y106.014 E0.46139
G1 X51.600 Y48.986 E5.23242
G1 X108.629 Y48.986 E5.23242
G1 X108.629 Y54.014 E0.46139
G1 X58.629 Y54.014 E4.58753
G1 X58.629 Y56.014 E0.18350
G1 X56.704 Y56.014 E0.17662
G1 X57.365 Y56.750 F12000.000
G1 X57.365 Y106.750 E4.58753 F900.000
G1 X50.865 Y106.750 E0.59638
G1 X50.865 Y48.250 E5.36740
G1 X109.365 Y48.250 E5.36740
G1 X109.365 Y54.750 E0.59638
G1 X59.365 Y54.750 E4.58753
G1 X59.365 Y56.750 E0.18350
G1 X57.440 Y56.750 E0.17662
G1 X56.865 Y56.750 F12000.000
G1 X56.190 Y56.182 F12000.000
G1 X52.040 Y52.033 E0.53980 F900.000
G1 X52.040 Y53.076 E0.09593
G1 X56.190 Y57.225 E0.53980
G1 X56.190 Y58.268 E0.09593
G1 X52.040 Y54.118 E0.53980
G1 X52.040 Y55.161 E0.09593
G1 X56.190 Y59.311 E0.53980
G1 X56.190 Y60.354 E0.09593
G1 X52.040 Y56.204 E0.53980
G1 X52.040 Y57.247 E0.09593
G1 X56.190 Y61.397 E0.53980
G1 X56.190 Y62.440 E0.09593
G1 X52.040 Y58.290 E0.53980
G1 X52.040 Y59.333 E0.09593
G1 X56.190 Y63.483 E0.53980
G1 X56.190 Y64.526 E0.09593
G1 X52.040 Y60.376 E0.53980
G1 X52.040 Y61.419 E0.09593
G1 X56.190 Y65.569 E0.53980
G1 X56.190 Y66.612 E0.09593
G1 X52.040 Y62.462 E0.53980
G1 X52.040 Y63.505 E0.09593
G1 X56.190 Y67.655 E0.53980
G1 X56.190 Y68.698 E0.09593
G1 X52.040 Y64.548 E0.53980
G1 X52.040 Y65.591 E0.09593
G1 X56.190 Y69.741 E0.53980
G1 X56.190 Y70.783 E0.09593
G1 X52.040 Y66.634 E0.53980
G1 X52.040 Y67.677 E0.09593
G1 X56.190 Y71.826 E0.53980
G1 X56.190 Y72.869 E0.09593
G1 X52.040 Y68.720 E0.53980
G1 X52.040 Y69.763 E0.09593
G1 X56.190 Y73.912 E0.53980
G1 X56.190 Y74.955 E0.09593
G1 X52.040 Y70.806 E0.53980
G1 X52.040 Y71.849 E0.09593
G1 X56.190 Y75.998 E0.53980
G1 X56.190 Y77.041 E0.09593
G1 X52.040 Y72.892 E0.53980
G1 X52.040 Y73.934 E0.09593
G1 X56.190 Y78.084 E0.53980
G1 X56.190 Y79.127 E0.09593
G1 X52.040 Y74.977 E0.53980
G1 X52.040 Y76.020 E0.09593
G1 X56.190 Y80.170 E0.53980
G1 X56.190 Y81.213 E0.09593
G1 X52.040 Y77.063 E0.53980
G1 X52.040 Y78.106 E0.09593
G1 X56.190 Y82.256 E0.53980
G1 X56.190 Y83.299 E0.09593
G1 X52.040 Y79.149 E0.53980
G1 X52.040 Y80.192 E0.09593
G1 X56.190 Y84.342 E0.53980
G1 X56.190 Y85.385 E0.09593
G1 X52.040 Y81.235 E0.53980
G1 X52.040 Y82.278 E0.09593
G1 X56.190 Y86.428 E0.53980
G1 X56.190 Y87.471 E0.09593
G1 X52.040 Y83.321 E0.53980
G1 X52.040 Y84.364 E0.09593
G1 X56.190 Y88.514 E0.53980
G1 X56.190 Y89.557 E0.09593
G1 X52.040 Y85.407 E0.53980
G1 X52.040 Y86.450 E0.09593
G1 X56.190 Y90.599 E0.53980
G1 X56.190 Y91.642 E0.09593
G1 X52.040 Y87.493 E0.53980
G1 X52.040 Y88.536 E0.09593
G1 X56.190 Y92.685 E0.53980
G1 X56.190 Y93.728 E0.09593
G1 X52.040 Y89.579 E0.53980
G1 X52.040 Y90.622 E0.09593
G1 X56.190 Y94.771 E0.53980
G1 X56.190 Y95.814 E0.09593
G1 X52.040 Y91.665 E0.53980
G1 X52.040 Y92.707 E0.09593
G1 X56.190 Y96.857 E0.53980
G1 X56.190 Y97.900 E0.09593
G1 X52.040 Y93.750 E0.53980
G1 X52.040 Y94.793 E0.09593
G1 X56.190 Y98.943 E0.53980
G1 X56.190 Y99.986 E0.09593
G1 X52.040 Y95.836 E0.53980
G1 X52.040 Y96.879 E0.09593
G1 X56.190 Y101.029 E0.53980
G1 X56.190 Y102.072 E0.09593
G1 X52.040 Y97.922 E0.53980
G1 X52.040 Y98.965 E0.09593
G1 X56.190 Y103.115 E0.53980
G1 X56.190 Y104.158 E0.09593
G1 X52.040 Y100.008 E0.53980
G1 X52.040 Y101.051 E0.09593
G1 X56.190 Y105.201 E0.53980
G1 X55.521 Y105.575 E0.07049
G1 X52.040 Y102.094 E0.45280
G1 X52.040 Y103.137 E0.09593
G1 X54.478 Y105.575 E0.31713
G1 X53.435 Y105.575 E0.09593
G1 X52.040 Y104.180 E0.18146
G1 X52.040 Y105.223 E0.09593
G1 X52.392 Y105.575 E0.04579
G1 X56.625 Y55.575 F12000.000
G1 X52.040 Y50.990 E0.59645 F900.000
G1 X52.040 Y49.947 E0.09593
G1 X57.668 Y55.575 E0.73212
G1 X58.190 Y55.053 E0.06783
G1 X52.561 Y49.425 E0.73213
G1 X53.604 Y49.425 E0.09593
G1 X58.190 Y54.010 E0.59646
G1 X58.797 Y53.575 F12000.000
G1 X54.647 Y49.425 E0.53980 F900.000
G1 X55.690 Y49.425 E0.09593
G1 X59.840 Y53.575 E0.53980
G1 X60.883 Y53.575 E0.09593
G1 X56.733 Y49.425 E0.53980
G1 X57.776 Y49.425 E0.09593
G1 X61.926 Y53.575 E0.53980
G1 X62.969 Y53.575 E0.09593
G1 X58.819 Y49.425 E0.53980
G1 X59.862 Y49.425 E0.09593
G1 X64.012 Y53.575 E0.53980
G1 X65.055 Y53.575 E0.09593
G1 X60.905 Y49.425 E0.53980
G1 X61.948 Y49.425 E0.09593
G1 X66.097 Y53.575 E0.53980
G1 X67.140 Y53.575 E0.09593
G1 X62.991 Y49.425 E0.53980
G1 X64.034 Y49.425 E0.09593
G1 X68.183 Y53.575 E0.53980
G1 X69.226 Y53.575 E0.09593
G1 X65.077 Y49.425 E0.53980
G1 X66.120 Y49.425 E0.09593
G1 X70.269 Y53.575 E0.53980
G1 X71.312 Y53.575 E0.09593
G1 X67.163 Y49.425 E0.53980
G1 X68.205 Y49.425 E0.09593
G1 X72.355 Y53.575 E0.53980
G1 X73.398 Y53.575 E0.09593
G1 X69.248 Y49.425 E0.53980
G1 X70.291 Y49.425 E0.09593
G1 X74.441 Y53.575 E0.53980
G1 X75.484 Y53.575 E0.09593
G1 X71.334 Y49.425 E0.53980
G1 X72.377 Y49.425 E0.09593
G1 X76.527 Y53.575 E0.53980
G1 X77.570 Y53.575 E0.09593
G1 X73.420 Y49.425 E0.53980
G1 X74.463 Y49.425 E0.09593
G1 X78.613 Y53.575 E0.53980
G1 X79.656 Y53.575 E0.09593
G1 X75.506 Y49.425 E0.53980
G1 X76.549 Y49.425 E0.09593
G1 X80.699 Y53.575 E0.53980
G1 X81.742 Y53.575 E0.09593
G1 X77.592 Y49.425 E0.53980
G1 X78.635 Y49.425 E0.09593
G1 X82.785 Y53.575 E0.53980
G1 X83.828 Y53.575 E0.09593
G1 X79.678 Y49.425 E0.53980
G1 X80.721 Y49.425 E0.09593
G1 X84.870 Y53.575 E0.53980
G1 X85.913 Y53.575 E0.09593
G1 X81.764 Y49.425 E0.53980
G1 X82.807 Y49.425 E0.09593
G1 X86.956 Y53.575 E0.53980
G1 X87.999 Y53.575 E0.09593
G1 X83.850 Y49.425 E0.53980
G1 X84.893 Y49.425 E0.09593
G1 X89.042 Y53.575 E0.53980
G1 X90.085 Y53.575 E0.09593
G1 X85.936 Y49.425 E0.53980
G1 X86.979 Y49.425 E0.09593
G1 X91.128 Y53.575 E0.53980
G1 X92.171 Y53.575 E0.09593
G1 X88.021 Y49.425 E0.53980
G1 X89.064 Y49.425 E0.09593
G1 X93.214 Y53.575 E0.53980
G1 X94.257 Y53.575 E0.09593
G1 X90.107 Y49.425 E0.53980
G1 X91.150 Y49.425 E0.09593
G1 X95.300 Y53.575 E0.53980
G1 X96.343 Y53.575 E0.09593
G1 X92.193 Y49.425 E0.53980
G1 X93.236 Y49.425 E0.09593
G1 X97.386 Y53.575 E0.53980
G1 X98.429 Y53.575 E0.09593
G1 X94.279 Y49.425 E0.53980
G1 X95.322 Y49.425 E0.09593
G1 X99.472 Y53.575 E0.53980
G1 X100.515 Y53.575 E0.09593
G1 X96.365 Y49.425 E0.53980
G1 X97.408 Y49.425 E0.09593
G1 X101.558 Y53.575 E0.53980
G1 X102.601 Y53.575 E0.09593
G1 X98.451 Y49.425 E0.53980
G1 X99.494 Y49.425 E0.09593
G1 X103.644 Y53.575 E0.53980
G1 X104.686 Y53.575 E0.09593
G1 X100.537 Y49.425 E0.53980
G1 X101.580 Y49.425 E0.09593
G1 X105.729 Y53.575 E0.53980
G1 X106.772 Y53.575 E0.09593
G1 X102.623 Y49.425 E0.53980
G1 X103.666 Y49.425 E0.09593
G1 X107.815 Y53.575 E0.53980
G1 X108.190 Y52.906 E0.07049
G1 X104.709 Y49.425 E0.45281
G1 X105.752 Y49.425 E0.09593
G1 X108.190 Y51.863 E0.31714
G1 X108.190 Y50.820 E0.09593
G1 X106.794 Y49.425 E0.18147
G1 X107.837 Y49.425 E0.09593
G1 X108.190 Y49.777 E0.04580
G1 E-3.50000 F2400.00000
G1 X41.405 Y39.364 F12000.000
G1 E3.50000 F2400.00000
G1 X41.204 Y41.660 E0.21140 F900.000
G1 X42.044 Y42.500 E0.10903
G1 X41.043 Y43.501 E0.12994
G1 X36.823 Y91.739 E4.44269
G1 X31.116 Y91.239 E0.52562
G1 X36.155 Y33.636 E5.30536
G1 X93.979 Y33.636 E5.30536
G1 X93.979 Y39.364 E0.52562
G1 X41.480 Y39.364 E4.81684
G1 X42.079 Y40.100 F12000.000
G1 X41.967 Y41.382 E0.11808 F900.000
G1 X43.084 Y42.500 E0.14505
G1 X41.752 Y43.832 E0.17287
G1 X37.491 Y92.536 E4.48562
G1 X30.319 Y91.908 E0.66060
G1 X35.481 Y32.900 E5.43470
G1 X94.715 Y32.900 E5.43470
G1 X94.715 Y40.100 E0.66060
G1 X42.154 Y40.100 E4.82249
G1 X41.580 Y40.071 F12000.000
G1 X40.813 Y41.228 F12000.000
G1 X36.313 Y36.728 E0.58622 F900.000
G1 X36.397 Y35.767 E0.08879
G1 X40.897 Y40.268 E0.58622
G1 X40.981 Y39.308 E0.08879
G1 X36.481 Y34.807 E0.58622
G1 X36.793 Y34.075 E0.07329
G1 X41.643 Y38.925 E0.63169
G1 X42.687 Y38.925 E0.09619
G1 X37.838 Y34.075 E0.63169
G1 X38.882 Y34.075 E0.09619
G1 X43.732 Y38.925 E0.63169
G1 X44.776 Y38.925 E0.09619
G1 X39.926 Y34.075 E0.63169
G1 X40.971 Y34.075 E0.09619
G1 X45.820 Y38.925 E0.63169
G1 X46.865 Y38.925 E0.09619
G1 X42.015 Y34.075 E0.63169
G1 X43.059 Y34.075 E0.09619
G1 X47.909 Y38.925 E0.63169
G1 X48.953 Y38.925 E0.09619
G1 X44.104 Y34.075 E0.63169
G1 X45.148 Y34.075 E0.09619
G1 X49.998 Y38.925 E0.63169
G1 X51.042 Y38.925 E0.09619
G1 X46.192 Y34.075 E0.63169
G1 X47.237 Y34.075 E0.09619
G1 X52.086 Y38.925 E0.63169
G1 X53.131 Y38.925 E0.09619
G1 X48.281 Y34.075 E0.63169
G1 X49.325 Y34.075 E0.09619
G1 X54.175 Y38.925 E0.63169
G1 X55.219 Y38.925 E0.09619
G1 X50.370 Y34.075 E0.63169
G1 X51.414 Y34.075 E0.09619
G1 X56.264 Y38.925 E0.63169
G1 X57.308 Y38.925 E0.09619
G1 X52.458 Y34.075 E0.63169
G1 X53.503 Y34.075 E0.09619
G1 X58.352 Y38.925 E0.63169
G1 X59.397 Y38.925 E0.09619
G1 X54.547 Y34.075 E0.63169
G1 X55.591 Y34.075 E0.09619
G1 X60.441 Y38.925 E0.63169
G1 X61.485 Y38.925 E0.09619
G1 X56.636 Y34.075 E0.63169
G1 X57.680 Y34.075 E0.09619
G1 X62.530 Y38.925 E0.63169
G1 X63.574 Y38.925 E0.09619
G1 X58.724 Y34.075 E0.63169
G1 X59.769 Y34.075 E0.09619
G1 X64.618 Y38.925 E0.63169
G1 X65.663 Y38.925 E0.09619
G1 X60.813 Y34.075 E0.63169
G1 X61.857 Y34.075 E0.09619
G1 X66.707 Y38.925 E0.63169
G1 X67.751 Y38.925 E0.09619
G1 X62.902 Y34.075 E0.63169
G1 X63.946 Y34.075 E0.09619
G1 X68.796 Y38.925 E0.63169
G1 X69.840 Y38.925 E0.09619
G1 X64.990 Y34.075 E0.63169
G1 X66.035 Y34.075 E0.09619
G1 X70.884 Y38.925 E0.63169
G1 X71.929 Y38.925 E0.09619
G1 X67.079 Y34.075 E0.63169
G1 X68.123 Y34.075 E0.09619
G1 X72.973 Y38.925 E0.63169
G1 X74.017 Y38.925 E0.09619
G1 X69.168 Y34.075 E0.63169
G1 X70.212 Y34.075 E0.09619
G1 X75.062 Y38.925 E0.63169
G1 X76.106 Y38.925 E0.09619
G1 X71.256 Y34.075 E0.63169
G1 X72.301 Y34.075 E0.09619
G1 X77.150 Y38.925 E0.63169
G1 X78.195 Y38.925 E0.09619
G1 X73.345 Y34.075 E0.63169
G1 X74.389 Y34.075 E0.09619
G1 X79.239 Y38.925 E0.63169
G1 X80.283 Y38.925 E0.09619
G1 X75.434 Y34.075 E0.63169
G1 X76.478 Y34.075 E0.09619
G1 X81.328 Y38.925 E0.63169
G1 X82.372 Y38.925 E0.09619
G1 X77.522 Y34.075 E0.63169
G1 X78.567 Y34.075 E0.09619
G1 X83.416 Y38.925 E0.63169
G1 X84.461 Y38.925 E0.09619
G1 X79.611 Y34.075 E0.63169
G1 X80.655 Y34.075 E0.09619
G1 X85.505 Y38.925 E0.63169
G1 X86.549 Y38.925 E0.09619
G1 X81.700 Y34.075 E0.63169
G1 X82.744 Y34.075 E0.09619
G1 X87.594 Y38.925 E0.63169
G1 X88.638 Y38.925 E0.09619
G1 X83.788 Y34.075 E0.63169
G1 X84.833 Y34.075 E0.09619
G1 X89.682 Y38.925 E0.63169
G1 X90.727 Y38.925 E0.09619
G1 X85.877 Y34.075 E0.63169
G1 X86.921 Y34.075 E0.09619
G1 X91.771 Y38.925 E0.63169
G1 X92.815 Y38.925 E0.09619
G1 X87.966 Y34.075 E0.63169
G1 X89.010 Y34.075 E0.09619
G1 X93.539 Y38.605 E0.58998
G1 X93.539 Y37.560 E0.09619
G1 X90.054 Y34.075 E0.45395
G1 X91.099 Y34.075 E0.09619
G1 X93.539 Y36.516 E0.31792
G1 X93.539 Y35.472 E0.09619
G1 X92.143 Y34.075 E0.18189
G1 X93.187 Y34.075 E0.09619
G1 X93.539 Y34.427 E0.04586
G1 E-3.50000 F2400.00000
G1 X41.277 Y42.737 F12000.000
G1 E3.50000 F2400.00000
G1 X36.229 Y37.688 E0.65760 F900.000
G1 X36.145 Y38.648 E0.08879
G1 X40.755 Y43.259 E0.60053
G1 X40.561 Y44.109 E0.08034
G1 X36.061 Y39.609 E0.58622
G1 X35.977 Y40.569 E0.08879
G1 X40.477 Y45.069 E0.58622
G1 X40.393 Y46.030 E0.08879
G1 X35.893 Y41.529 E0.58622
G1 X35.809 Y42.490 E0.08879
G1 X40.309 Y46.990 E0.58622
G1 X40.225 Y47.950 E0.08879
G1 X35.725 Y43.450 E0.58622
G1 X35.641 Y44.410 E0.08879
G1 X40.141 Y48.911 E0.58622
G1 X40.057 Y49.871 E0.08879
G1 X35.557 Y45.370 E0.58622
G1 X35.473 Y46.331 E0.08879
G1 X39.973 Y50.831 E0.58622
G1 X39.889 Y51.792 E0.08879
G1 X35.389 Y47.291 E0.58622
G1 X35.305 Y48.251 E0.08879
G1 X39.805 Y52.752 E0.58622
G1 X39.721 Y53.712 E0.08879
G1 X35.221 Y49.212 E0.58622
G1 X35.137 Y50.172 E0.08879
G1 X39.637 Y54.673 E0.58622
G1 X39.553 Y55.633 E0.08879
G1 X35.053 Y51.132 E0.58622
G1 X34.969 Y52.093 E0.08879
G1 X39.469 Y56.593 E0.58622
G1 X39.385 Y57.554 E0.08879
G1 X34.885 Y53.053 E0.58622
G1 X34.801 Y54.013 E0.08879
G1 X39.301 Y58.514 E0.58622
G1 X39.217 Y59.474 E0.08879
G1 X34.717 Y54.974 E0.58622
G1 X34.633 Y55.934 E0.08879
G1 X39.133 Y60.434 E0.58622
G1 X39.049 Y61.395 E0.08879
G1 X34.549 Y56.894 E0.58622
G1 X34.465 Y57.855 E0.08879
G1 X38.965 Y62.355 E0.58622
G1 X38.881 Y63.315 E0.08879
G1 X34.381 Y58.815 E0.58622
G1 X34.297 Y59.775 E0.08879
G1 X38.797 Y64.276 E0.58622
G1 X38.713 Y65.236 E0.08879
G1 X34.212 Y60.736 E0.58622
G1 X34.128 Y61.696 E0.08879
G1 X38.629 Y66.196 E0.58622
G1 X38.545 Y67.157 E0.08879
G1 X34.044 Y62.656 E0.58622
G1 X33.960 Y63.616 E0.08879
G1 X38.461 Y68.117 E0.58622
G1 X38.377 Y69.077 E0.08879
G1 X33.876 Y64.577 E0.58622
G1 X33.792 Y65.537 E0.08879
G1 X38.293 Y70.038 E0.58622
G1 X38.209 Y70.998 E0.08879
G1 X33.708 Y66.497 E0.58622
G1 X33.624 Y67.458 E0.08879
G1 X38.125 Y71.958 E0.58622
G1 X38.041 Y72.919 E0.08879
G1 X33.540 Y68.418 E0.58622
G1 X33.456 Y69.378 E0.08879
G1 X37.957 Y73.879 E0.58622
G1 X37.873 Y74.839 E0.08879
G1 X33.372 Y70.339 E0.58622
G1 X33.288 Y71.299 E0.08879
G1 X37.789 Y75.800 E0.58622
G1 X37.705 Y76.760 E0.08879
G1 X33.204 Y72.259 E0.58622
G1 X33.120 Y73.220 E0.08879
G1 X37.621 Y77.720 E0.58622
G1 X37.537 Y78.680 E0.08879
G1 X33.036 Y74.180 E0.58622
G1 X32.952 Y75.140 E0.08879
G1 X37.453 Y79.641 E0.58622
G1 X37.369 Y80.601 E0.08879
G1 X32.868 Y76.101 E0.58622
G1 X32.784 Y77.061 E0.08879
G1 X37.285 Y81.561 E0.58622
G1 X37.201 Y82.522 E0.08879
G1 X32.700 Y78.021 E0.58622
G1 X32.616 Y78.982 E0.08879
G1 X37.117 Y83.482 E0.58622
G1 X37.033 Y84.442 E0.08879
G1 X32.532 Y79.942 E0.58622
G1 X32.448 Y80.902 E0.08879
G1 X36.949 Y85.403 E0.58622
G1 X36.865 Y86.363 E0.08879
G1 X32.364 Y81.862 E0.58622
G1 X32.280 Y82.823 E0.08879
G1 X36.781 Y87.323 E0.58622
G1 X36.697 Y88.284 E0.08879
G1 X32.196 Y83.783 E0.58622
G1 X32.112 Y84.743 E0.08879
G1 X36.613 Y89.244 E0.58622
G1 X36.529 Y90.204 E0.08879
G1 X32.028 Y85.704 E0.58622
G1 X31.944 Y86.664 E0.08879
G1 X36.445 Y91.165 E0.58622
G1 X35.394 Y91.158 E0.09678
G1 X31.860 Y87.624 E0.46029
G1 X31.776 Y88.585 E0.08879
G1 X34.249 Y91.058 E0.32217
G1 X33.105 Y90.958 E0.10581
G1 X31.692 Y89.545 E0.18404
G1 X31.608 Y90.505 E0.08879
G1 X31.960 Y90.858 E0.04591
G1 E-3.50000 F2400.00000
G1 X73.280 Y70.462 F12000.000
G1 E3.50000 F2400.00000
G1 X73.744 Y70.125 E0.05259 F900.000
G1 X74.267 Y69.892 E0.05259
G1 X74.828 Y69.773 E0.05259
G1 X75.401 Y69.773 E0.05259 F900.000
G1 X75.962 Y69.892 E0.05259
G1 X76.486 Y70.125 E0.05259
G1 X76.949 Y70.462 E0.05259
G1 X77.333 Y70.888 E0.05259
G1 X77.619 Y71.385 E0.05259
G1 X77.797 Y71.930 E0.05259
G1 X77.857 Y72.500 E0.05259
G1 X77.797 Y73.070 E0.05259
G1 X77.619 Y73.615 E0.05259
G1 X77.333 Y74.112 E0.05259
G1 X76.949 Y74.538 E0.05259
G1 X76.486 Y74.875 E0.05259
G1 X75.962 Y75.108 E0.05259
G1 X75.401 Y75.227 E0.05259
G1 X74.828 Y75.227 E0.05259
G1 X74.267 Y75.108 E0.05259
G1 X73.744 Y74.875 E0.05259
G1 X73.280 Y74.538 E0.05259
G1 X72.896 Y74.112 E0.05259
G1 X72.606 Y73.608 E0.05336
G1 X72.429 Y73.037 E0.05485
G1 X72.373 Y72.500 E0.04953
G1 X72.433 Y71.930 E0.05259
G1 X72.610 Y71.385 E0.05259
G1 X72.896 Y70.888 E0.05259
