; generated by Slic3r 1.2.6 on 2015-04-29 at 15:46:45

; external perimeters extrusion width = 0.50mm
; perimeters extrusion width = 0.72mm
; infill extrusion width = 0.72mm
; solid infill extrusion width = 0.72mm
; top infill extrusion width = 0.72mm

M107
M190 S57 ; set bed temperature
G28 ; home all axes
M83;
G10 P0 S185 R160                       ; Set tool 0 operating and standby temperatures
T0

G21 ; set units to millimeters
G90 ; use absolute coordinates
M83 ; use relative distances for extrusion
G1 E-3.50000 F2400.00000
G1 Z0.300 F12000.000
G1 X50.476 Y46.582 F12000.000
G1 E3.50000 F2400.00000
G1 X52.003 Y45.718 E0.16096 F1200.000
G1 X53.028 Y45.574 E0.09497
G1 X147.408 Y45.574 E8.65941
G1 X149.079 Y45.969 E0.15755
G1 X150.635 Y47.428 E0.19566 F1200.000
G1 X157.635 Y59.428 E1.27464
G1 X158.144 Y61.310 E0.17890
G1 X158.144 Y68.690 E0.67712
G1 X157.749 Y70.361 E0.15755
G1 X157.050 Y71.331 E0.10975
G1 X75.050 Y153.331 E10.63989
G1 X73.589 Y154.234 E0.15755
G1 X72.408 Y154.426 E0.10975
G1 X65.028 Y154.426 E0.67712
G1 X63.761 Y154.204 E0.11805
G1 X44.353 Y147.204 E1.89300
G1 X42.914 Y146.266 E0.15755
G1 X42.048 Y144.783 E0.15755
G1 X41.884 Y143.700 E0.10048
G1 X41.857 Y134.010 E0.88907
G1 X41.872 Y133.674 E0.03086
G1 X49.279 Y49.010 E7.79765
G1 X49.817 Y47.380 E0.15755
G1 X50.429 Y46.640 E0.08807
G1 E-3.50000 F2400.00000
G1 X71.273 Y69.554 F12000.000
G1 E3.50000 F2400.00000
G1 X71.273 Y149.554 E7.34004 F900.000
G1 X66.164 Y149.554 E0.46873
G1 X66.164 Y62.446 E7.99227
G1 X153.273 Y62.446 E7.99227
G1 X153.273 Y67.554 E0.46873
G1 X73.273 Y67.554 E7.34004
G1 X73.273 Y69.554 E0.18350
G1 X71.348 Y69.554 E0.17662
G1 X72.008 Y70.290 F12000.000
G1 X72.008 Y150.290 E7.34004 F900.000
G1 X65.428 Y150.290 E0.60372
G1 X65.428 Y61.710 E8.12726
G1 X154.008 Y61.710 E8.12726
G1 X154.008 Y68.290 E0.60372
G1 X74.008 Y68.290 E7.34004
G1 X74.008 Y70.290 E0.18350
G1 X72.083 Y70.290 E0.17662
G1 X71.508 Y70.290 F12000.000
G1 X66.955 Y149.115 F12000.000
G1 X66.603 Y148.763 E0.04570 F900.000
G1 X66.603 Y147.722 E0.09556
G1 X67.996 Y149.115 E0.18085
G1 X69.037 Y149.115 E0.09556
G1 X66.603 Y146.681 E0.31599
G1 X66.603 Y145.640 E0.09556
G1 X70.078 Y149.115 E0.45114
G1 X70.833 Y148.829 E0.07411
G1 X66.603 Y144.599 E0.54914
G1 X66.603 Y143.558 E0.09556
G1 X70.833 Y147.788 E0.54914
G1 X70.833 Y146.747 E0.09556
G1 X66.603 Y142.517 E0.54914
G1 X66.603 Y141.476 E0.09556
G1 X70.833 Y145.706 E0.54914
G1 X70.833 Y144.665 E0.09556
G1 X66.603 Y140.435 E0.54914
G1 X66.603 Y139.394 E0.09556
G1 X70.833 Y143.624 E0.54914
G1 X70.833 Y142.583 E0.09556
G1 X66.603 Y138.353 E0.54914
G1 X66.603 Y137.312 E0.09556
G1 X70.833 Y141.542 E0.54914
G1 X70.833 Y140.501 E0.09556
G1 X66.603 Y136.272 E0.54914
G1 X66.603 Y135.231 E0.09556
G1 X70.833 Y139.460 E0.54914
G1 X70.833 Y138.419 E0.09556
G1 X66.603 Y134.190 E0.54914
G1 X66.603 Y133.149 E0.09556
G1 X70.833 Y137.378 E0.54914
G1 X70.833 Y136.337 E0.09556
G1 X66.603 Y132.108 E0.54914
G1 X66.603 Y131.067 E0.09556
G1 X70.833 Y135.297 E0.54914
G1 X70.833 Y134.256 E0.09556
G1 X66.603 Y130.026 E0.54914
G1 X66.603 Y128.985 E0.09556
G1 X70.833 Y133.215 E0.54914
G1 X70.833 Y132.174 E0.09556
G1 X66.603 Y127.944 E0.54914
G1 X66.603 Y126.903 E0.09556
G1 X70.833 Y131.133 E0.54914
G1 X70.833 Y130.092 E0.09556
G1 X66.603 Y125.862 E0.54914
G1 X66.603 Y124.821 E0.09556
G1 X70.833 Y129.051 E0.54914
G1 X70.833 Y128.010 E0.09556
G1 X66.603 Y123.780 E0.54914
G1 X66.603 Y122.739 E0.09556
G1 X70.833 Y126.969 E0.54914
G1 X70.833 Y125.928 E0.09556
G1 X66.603 Y121.698 E0.54914
G1 X66.603 Y120.657 E0.09556
G1 X70.833 Y124.887 E0.54914
G1 X70.833 Y123.846 E0.09556
G1 X66.603 Y119.617 E0.54914
G1 X66.603 Y118.576 E0.09556
G1 X70.833 Y122.805 E0.54914
G1 X70.833 Y121.764 E0.09556
G1 X66.603 Y117.535 E0.54914
G1 X66.603 Y116.494 E0.09556
G1 X70.833 Y120.723 E0.54914
G1 X70.833 Y119.682 E0.09556
G1 X66.603 Y115.453 E0.54914
G1 X66.603 Y114.412 E0.09556
G1 X70.833 Y118.641 E0.54914
G1 X70.833 Y117.601 E0.09556
G1 X66.603 Y113.371 E0.54914
G1 X66.603 Y112.330 E0.09556
G1 X70.833 Y116.560 E0.54914
G1 X70.833 Y115.519 E0.09556
G1 X66.603 Y111.289 E0.54914
G1 X66.603 Y110.248 E0.09556
G1 X70.833 Y114.478 E0.54914
G1 X70.833 Y113.437 E0.09556
G1 X66.603 Y109.207 E0.54914
G1 X66.603 Y108.166 E0.09556
G1 X70.833 Y112.396 E0.54914
G1 X70.833 Y111.355 E0.09556
G1 X66.603 Y107.125 E0.54914
G1 X66.603 Y106.084 E0.09556
G1 X70.833 Y110.314 E0.54914
G1 X70.833 Y109.273 E0.09556
G1 X66.603 Y105.043 E0.54914
G1 X66.603 Y104.002 E0.09556
G1 X70.833 Y108.232 E0.54914
G1 X70.833 Y107.191 E0.09556
G1 X66.603 Y102.961 E0.54914
G1 X66.603 Y101.921 E0.09556
G1 X70.833 Y106.150 E0.54914
G1 X70.833 Y105.109 E0.09556
G1 X66.603 Y100.880 E0.54914
G1 X66.603 Y99.839 E0.09556
G1 X70.833 Y104.068 E0.54914
G1 X70.833 Y103.027 E0.09556
G1 X66.603 Y98.798 E0.54914
G1 X66.603 Y97.757 E0.09556
G1 X70.833 Y101.986 E0.54914
G1 X70.833 Y100.945 E0.09556
G1 X66.603 Y96.716 E0.54914
G1 X66.603 Y95.675 E0.09556
G1 X70.833 Y99.905 E0.54914
G1 X70.833 Y98.864 E0.09556
G1 X66.603 Y94.634 E0.54914
G1 X66.603 Y93.593 E0.09556
G1 X70.833 Y97.823 E0.54914
G1 X70.833 Y96.782 E0.09556
G1 X66.603 Y92.552 E0.54914
G1 X66.603 Y91.511 E0.09556
G1 X70.833 Y95.741 E0.54914
G1 X70.833 Y94.700 E0.09556
G1 X66.603 Y90.470 E0.54914
G1 X66.603 Y89.429 E0.09556
G1 X70.833 Y93.659 E0.54914
G1 X70.833 Y92.618 E0.09556
G1 X66.603 Y88.388 E0.54914
G1 X66.603 Y87.347 E0.09556
G1 X70.833 Y91.577 E0.54914
G1 X70.833 Y90.536 E0.09556
G1 X66.603 Y86.306 E0.54914
G1 X66.603 Y85.265 E0.09556
G1 X70.833 Y89.495 E0.54914
G1 X70.833 Y88.454 E0.09556
G1 X66.603 Y84.225 E0.54914
G1 X66.603 Y83.184 E0.09556
G1 X70.833 Y87.413 E0.54914
G1 X70.833 Y86.372 E0.09556
G1 X66.603 Y82.143 E0.54914
G1 X66.603 Y81.102 E0.09556
G1 X70.833 Y85.331 E0.54914
G1 X70.833 Y84.290 E0.09556
G1 X66.603 Y80.061 E0.54914
G1 X66.603 Y79.020 E0.09556
G1 X70.833 Y83.249 E0.54914
G1 X70.833 Y82.209 E0.09556
G1 X66.603 Y77.979 E0.54914
G1 X66.603 Y76.938 E0.09556
G1 X70.833 Y81.168 E0.54914
G1 X70.833 Y80.127 E0.09556
G1 X66.603 Y75.897 E0.54914
G1 X66.603 Y74.856 E0.09556
G1 X70.833 Y79.086 E0.54914
G1 X70.833 Y78.045 E0.09556
G1 X66.603 Y73.815 E0.54914
G1 X66.603 Y72.774 E0.09556
G1 X70.833 Y77.004 E0.54914
G1 X70.833 Y75.963 E0.09556
G1 X66.603 Y71.733 E0.54914
G1 X66.603 Y70.692 E0.09556
G1 X70.833 Y74.922 E0.54914
G1 X70.833 Y73.881 E0.09556
G1 X66.603 Y69.651 E0.54914
G1 X66.603 Y68.610 E0.09556
G1 X70.833 Y72.840 E0.54914
G1 X70.833 Y71.799 E0.09556
G1 X66.603 Y67.569 E0.54914
G1 X66.603 Y66.529 E0.09556
G1 X70.833 Y70.758 E0.54914
G1 X70.833 Y69.717 E0.09556
G1 X66.603 Y65.488 E0.54914
G1 X66.603 Y64.447 E0.09556
G1 X71.272 Y69.115 E0.60608
G1 X72.313 Y69.115 E0.09556
G1 X66.603 Y63.406 E0.74123
G1 X67.124 Y62.885 E0.06757
G1 X72.833 Y68.594 E0.74124
G1 X72.833 Y67.553 E0.09556
G1 X68.165 Y62.885 E0.60610
G1 X69.206 Y62.885 E0.09556
G1 X73.435 Y67.115 E0.54914
G1 X74.476 Y67.115 E0.09556
G1 X70.247 Y62.885 E0.54914
G1 X71.288 Y62.885 E0.09556
G1 X75.517 Y67.115 E0.54914
G1 X76.558 Y67.115 E0.09556
G1 X72.329 Y62.885 E0.54914
G1 X73.369 Y62.885 E0.09556
G1 X77.599 Y67.115 E0.54914
G1 X78.640 Y67.115 E0.09556
G1 X74.410 Y62.885 E0.54914
G1 X75.451 Y62.885 E0.09556
G1 X79.681 Y67.115 E0.54914
G1 X80.722 Y67.115 E0.09556
G1 X76.492 Y62.885 E0.54914
G1 X77.533 Y62.885 E0.09556
G1 X81.763 Y67.115 E0.54914
G1 X82.804 Y67.115 E0.09556
G1 X78.574 Y62.885 E0.54914
G1 X79.615 Y62.885 E0.09556
G1 X83.845 Y67.115 E0.54914
G1 X84.886 Y67.115 E0.09556
G1 X80.656 Y62.885 E0.54914
G1 X81.697 Y62.885 E0.09556
G1 X85.927 Y67.115 E0.54914
G1 X86.968 Y67.115 E0.09556
G1 X82.738 Y62.885 E0.54914
G1 X83.779 Y62.885 E0.09556
G1 X88.009 Y67.115 E0.54914
G1 X89.050 Y67.115 E0.09556
G1 X84.820 Y62.885 E0.54914
G1 X85.861 Y62.885 E0.09556
G1 X90.090 Y67.115 E0.54914
G1 X91.131 Y67.115 E0.09556
G1 X86.902 Y62.885 E0.54914
G1 X87.943 Y62.885 E0.09556
G1 X92.172 Y67.115 E0.54914
G1 X93.213 Y67.115 E0.09556
G1 X88.984 Y62.885 E0.54914
G1 X90.025 Y62.885 E0.09556
G1 X94.254 Y67.115 E0.54914
G1 X95.295 Y67.115 E0.09556
G1 X91.065 Y62.885 E0.54914
G1 X92.106 Y62.885 E0.09556
G1 X96.336 Y67.115 E0.54914
G1 X97.377 Y67.115 E0.09556
G1 X93.147 Y62.885 E0.54914
G1 X94.188 Y62.885 E0.09556
G1 X98.418 Y67.115 E0.54914
G1 X99.459 Y67.115 E0.09556
G1 X95.229 Y62.885 E0.54914
G1 X96.270 Y62.885 E0.09556
G1 X100.500 Y67.115 E0.54914
G1 X101.541 Y67.115 E0.09556
G1 X97.311 Y62.885 E0.54914
G1 X98.352 Y62.885 E0.09556
G1 X102.582 Y67.115 E0.54914
G1 X103.623 Y67.115 E0.09556
G1 X99.393 Y62.885 E0.54914
G1 X100.434 Y62.885 E0.09556
G1 X104.664 Y67.115 E0.54914
G1 X105.705 Y67.115 E0.09556
G1 X101.475 Y62.885 E0.54914
G1 X102.516 Y62.885 E0.09556
G1 X106.746 Y67.115 E0.54914
G1 X107.786 Y67.115 E0.09556
G1 X103.557 Y62.885 E0.54914
G1 X104.598 Y62.885 E0.09556
G1 X108.827 Y67.115 E0.54914
G1 X109.868 Y67.115 E0.09556
G1 X105.639 Y62.885 E0.54914
G1 X106.680 Y62.885 E0.09556
G1 X110.909 Y67.115 E0.54914
G1 X111.950 Y67.115 E0.09556
G1 X107.721 Y62.885 E0.54914
G1 X108.761 Y62.885 E0.09556
G1 X112.991 Y67.115 E0.54914
G1 X114.032 Y67.115 E0.09556
G1 X109.802 Y62.885 E0.54914
G1 X110.843 Y62.885 E0.09556
G1 X115.073 Y67.115 E0.54914
G1 X116.114 Y67.115 E0.09556
G1 X111.884 Y62.885 E0.54914
G1 X112.925 Y62.885 E0.09556
G1 X117.155 Y67.115 E0.54914
G1 X118.196 Y67.115 E0.09556
G1 X113.966 Y62.885 E0.54914
G1 X115.007 Y62.885 E0.09556
G1 X119.237 Y67.115 E0.54914
G1 X120.278 Y67.115 E0.09556
G1 X116.048 Y62.885 E0.54914
G1 X117.089 Y62.885 E0.09556
G1 X121.319 Y67.115 E0.54914
G1 X122.360 Y67.115 E0.09556
G1 X118.130 Y62.885 E0.54914
G1 X119.171 Y62.885 E0.09556
G1 X123.401 Y67.115 E0.54914
G1 X124.441 Y67.115 E0.09556
G1 X120.212 Y62.885 E0.54914
G1 X121.253 Y62.885 E0.09556
G1 X125.482 Y67.115 E0.54914
G1 X126.523 Y67.115 E0.09556
G1 X122.294 Y62.885 E0.54914
G1 X123.335 Y62.885 E0.09556
G1 X127.564 Y67.115 E0.54914
G1 X128.605 Y67.115 E0.09556
G1 X124.376 Y62.885 E0.54914
G1 X125.417 Y62.885 E0.09556
G1 X129.646 Y67.115 E0.54914
G1 X130.687 Y67.115 E0.09556
G1 X126.457 Y62.885 E0.54914
G1 X127.498 Y62.885 E0.09556
G1 X131.728 Y67.115 E0.54914
G1 X132.769 Y67.115 E0.09556
G1 X128.539 Y62.885 E0.54914
G1 X129.580 Y62.885 E0.09556
G1 X133.810 Y67.115 E0.54914
G1 X134.851 Y67.115 E0.09556
G1 X130.621 Y62.885 E0.54914
G1 X131.662 Y62.885 E0.09556
G1 X135.892 Y67.115 E0.54914
G1 X136.933 Y67.115 E0.09556
G1 X132.703 Y62.885 E0.54914
G1 X133.744 Y62.885 E0.09556
G1 X137.974 Y67.115 E0.54914
G1 X139.015 Y67.115 E0.09556
G1 X134.785 Y62.885 E0.54914
G1 X135.826 Y62.885 E0.09556
G1 X140.056 Y67.115 E0.54914
G1 X141.097 Y67.115 E0.09556
G1 X136.867 Y62.885 E0.54914
G1 X137.908 Y62.885 E0.09556
G1 X142.137 Y67.115 E0.54914
G1 X143.178 Y67.115 E0.09556
G1 X138.949 Y62.885 E0.54914
G1 X139.990 Y62.885 E0.09556
G1 X144.219 Y67.115 E0.54914
G1 X145.260 Y67.115 E0.09556
G1 X141.031 Y62.885 E0.54914
G1 X142.072 Y62.885 E0.09556
G1 X146.301 Y67.115 E0.54914
G1 X147.342 Y67.115 E0.09556
G1 X143.113 Y62.885 E0.54914
G1 X144.153 Y62.885 E0.09556
G1 X148.383 Y67.115 E0.54914
G1 X149.424 Y67.115 E0.09556
G1 X145.194 Y62.885 E0.54914
G1 X146.235 Y62.885 E0.09556
G1 X150.465 Y67.115 E0.54914
G1 X151.506 Y67.115 E0.09556
G1 X147.276 Y62.885 E0.54914
G1 X148.317 Y62.885 E0.09556
G1 X152.547 Y67.115 E0.54914
G1 X152.833 Y66.360 E0.07410
G1 X149.358 Y62.885 E0.45116
G1 X150.399 Y62.885 E0.09556
G1 X152.833 Y65.319 E0.31601
G1 X152.833 Y64.278 E0.09556
G1 X151.440 Y62.885 E0.18086
G1 X152.481 Y62.885 E0.09556
G1 X152.833 Y63.237 E0.04571
G1 E-3.50000 F2400.00000
G1 X58.724 Y55.554 F12000.000
G1 E3.50000 F2400.00000
G1 X58.486 Y58.277 E0.25073 F900.000
G1 X59.209 Y59.000 E0.09385
G1 X58.347 Y59.862 E0.11185
G1 X51.864 Y133.963 E6.82475
G1 X51.864 Y142.554 E0.78829
G1 X46.756 Y142.554 E0.46873
G1 X46.756 Y133.740 E0.80876
G1 X54.032 Y50.566 E7.66036
G1 X54.164 Y50.578 E0.01211
G1 X54.164 Y50.446 E0.01212
G1 X146.273 Y50.446 E8.45103
G1 X146.273 Y55.554 E0.46873
G1 X58.799 Y55.554 E8.02573
G1 X59.398 Y56.290 F12000.000
G1 X59.249 Y57.999 E0.15741 F900.000
G1 X60.250 Y59.000 E0.12987
G1 X59.057 Y60.193 E0.15478
G1 X52.600 Y133.995 E6.79723
G1 X52.600 Y143.290 E0.85284
G1 X46.020 Y143.290 E0.60372
G1 X46.020 Y133.708 E0.87920
G1 X53.364 Y49.769 E7.73080
G1 X53.428 Y49.775 E0.00595
G1 X53.428 Y49.710 E0.00595
G1 X147.008 Y49.710 E8.58601
G1 X147.008 Y56.290 E0.60372
G1 X59.473 Y56.290 E8.03137
G1 X58.899 Y56.261 F12000.000
G1 X58.287 Y55.660 F12000.000
G1 X54.359 Y51.732 E0.51205 F900.000
G1 X54.275 Y52.693 E0.08892
G1 X58.203 Y56.621 E0.51205
G1 X58.119 Y57.582 E0.08892
G1 X54.190 Y53.654 E0.51205
G1 X54.106 Y54.615 E0.08892
G1 X58.035 Y58.543 E0.51205
G1 X58.063 Y59.616 E0.09896
G1 X54.022 Y55.576 E0.52669
G1 X53.938 Y56.537 E0.08892
G1 X57.866 Y60.465 E0.51205
G1 X57.782 Y61.426 E0.08892
G1 X53.854 Y57.498 E0.51205
G1 X53.770 Y58.459 E0.08892
G1 X57.698 Y62.387 E0.51205
G1 X57.614 Y63.348 E0.08892
G1 X53.686 Y59.420 E0.51205
G1 X53.602 Y60.381 E0.08892
G1 X57.530 Y64.309 E0.51205
G1 X57.446 Y65.270 E0.08892
G1 X53.518 Y61.342 E0.51205
G1 X53.434 Y62.303 E0.08892
G1 X57.362 Y66.231 E0.51205
G1 X57.278 Y67.192 E0.08892
G1 X53.350 Y63.264 E0.51205
G1 X53.266 Y64.225 E0.08892
G1 X57.194 Y68.153 E0.51205
G1 X57.110 Y69.114 E0.08892
G1 X53.181 Y65.186 E0.51205
G1 X53.097 Y66.147 E0.08892
G1 X57.026 Y70.075 E0.51205
G1 X56.942 Y71.036 E0.08892
G1 X53.013 Y67.108 E0.51205
G1 X52.929 Y68.069 E0.08892
G1 X56.858 Y71.997 E0.51205
G1 X56.773 Y72.958 E0.08892
G1 X52.845 Y69.030 E0.51205
G1 X52.761 Y69.991 E0.08892
G1 X56.689 Y73.919 E0.51205
G1 X56.605 Y74.880 E0.08892
G1 X52.677 Y70.952 E0.51205
G1 X52.593 Y71.913 E0.08892
G1 X56.521 Y75.841 E0.51205
G1 X56.437 Y76.803 E0.08892
G1 X52.509 Y72.874 E0.51205
G1 X52.425 Y73.835 E0.08892
G1 X56.353 Y77.764 E0.51205
G1 X56.269 Y78.725 E0.08892
G1 X52.341 Y74.796 E0.51205
G1 X52.257 Y75.757 E0.08892
G1 X56.185 Y79.686 E0.51205
G1 X56.101 Y80.647 E0.08892
G1 X52.173 Y76.718 E0.51205
G1 X52.088 Y77.679 E0.08892
G1 X56.017 Y81.608 E0.51205
G1 X55.933 Y82.569 E0.08892
G1 X52.004 Y78.640 E0.51205
G1 X51.920 Y79.601 E0.08892
G1 X55.849 Y83.530 E0.51205
G1 X55.764 Y84.491 E0.08892
G1 X51.836 Y80.562 E0.51205
G1 X51.752 Y81.523 E0.08892
G1 X55.680 Y85.452 E0.51205
G1 X55.596 Y86.413 E0.08892
G1 X51.668 Y82.484 E0.51205
G1 X51.584 Y83.446 E0.08892
G1 X55.512 Y87.374 E0.51205
G1 X55.428 Y88.335 E0.08892
G1 X51.500 Y84.407 E0.51205
G1 X51.416 Y85.368 E0.08892
G1 X55.344 Y89.296 E0.51205
G1 X55.260 Y90.257 E0.08892
G1 X51.332 Y86.329 E0.51205
G1 X51.248 Y87.290 E0.08892
G1 X55.176 Y91.218 E0.51205
G1 X55.092 Y92.179 E0.08892
G1 X51.164 Y88.251 E0.51205
G1 X51.080 Y89.212 E0.08892
G1 X55.008 Y93.140 E0.51205
G1 X54.924 Y94.101 E0.08892
G1 X50.995 Y90.173 E0.51205
G1 X50.911 Y91.134 E0.08892
G1 X54.840 Y95.062 E0.51205
G1 X54.756 Y96.023 E0.08892
G1 X50.827 Y92.095 E0.51205
G1 X50.743 Y93.056 E0.08892
G1 X54.671 Y96.984 E0.51205
G1 X54.587 Y97.945 E0.08892
G1 X50.659 Y94.017 E0.51205
G1 X50.575 Y94.978 E0.08892
G1 X54.503 Y98.906 E0.51205
G1 X54.419 Y99.867 E0.08892
G1 X50.491 Y95.939 E0.51205
G1 X50.407 Y96.900 E0.08892
G1 X54.335 Y100.828 E0.51205
G1 X54.251 Y101.789 E0.08892
G1 X50.323 Y97.861 E0.51205
G1 X50.239 Y98.822 E0.08892
G1 X54.167 Y102.750 E0.51205
G1 X54.083 Y103.711 E0.08892
G1 X50.155 Y99.783 E0.51205
G1 X50.071 Y100.744 E0.08892
G1 X53.999 Y104.672 E0.51205
G1 X53.915 Y105.633 E0.08892
G1 X49.986 Y101.705 E0.51205
G1 X49.902 Y102.666 E0.08892
G1 X53.831 Y106.594 E0.51205
G1 X53.747 Y107.555 E0.08892
G1 X49.818 Y103.627 E0.51205
G1 X49.734 Y104.588 E0.08892
G1 X53.663 Y108.516 E0.51205
G1 X53.578 Y109.477 E0.08892
G1 X49.650 Y105.549 E0.51205
G1 X49.566 Y106.510 E0.08892
G1 X53.494 Y110.438 E0.51205
G1 X53.410 Y111.399 E0.08892
G1 X49.482 Y107.471 E0.51205
G1 X49.398 Y108.432 E0.08892
G1 X53.326 Y112.360 E0.51205
G1 X53.242 Y113.321 E0.08892
G1 X49.314 Y109.393 E0.51205
G1 X49.230 Y110.354 E0.08892
G1 X53.158 Y114.282 E0.51205
G1 X53.074 Y115.243 E0.08892
G1 X49.146 Y111.315 E0.51205
G1 X49.062 Y112.276 E0.08892
G1 X52.990 Y116.204 E0.51205
G1 X52.906 Y117.165 E0.08892
