; generated by Slic3r 1.2.6 on 2015-04-29 at 15:42:32

; external perimeters extrusion width = 0.50mm
; perimeters extrusion width = 0.72mm
; infill extrusion width = 0.72mm
; solid infill extrusion width = 0.72mm
; top infill extrusion width = 0.72mm

M107
M190 S57 ; set bed temperature
G28 ; home all axes
M83;
G10 P0 S185 R160                       ; Set tool 0 operating and standby temperatures
T0

G21 ; set units to millimeters
G90 ; use absolute coordinates
M83 ; use relative distances for extrusion
G1 E-3.50000 F2400.00000
G1 Z0.300 F12000.000
G1 X34.164 Y31.582 F12000.000
G1 E3.50000 F2400.00000
G1 X35.691 Y30.718 E0.16096 F1200.000
G1 X36.716 Y30.574 E0.09498
G1 X101.096 Y30.574 E5.90690
G1 X102.767 Y30.969 E0.15755
G1 X104.323 Y32.428 E0.19566 F1200.000
G1 X111.323 Y44.428 E1.27464
G1 X111.832 Y46.310 E0.17890
G1 X111.832 Y53.690 E0.67712
G1 X111.437 Y55.361 E0.15755
G1 X110.737 Y56.331 E0.10975
G1 X58.737 Y108.331 E6.74725
G1 X57.277 Y109.234 E0.15755
G1 X56.096 Y109.426 E0.10975
G1 X48.716 Y109.426 E0.67712
G1 X47.279 Y109.138 E0.13448
G1 X30.485 Y102.138 E1.66931
G1 X29.094 Y101.131 E0.15755
G1 X28.301 Y99.608 E0.15755
G1 X28.187 Y98.697 E0.08427
G1 X28.170 Y89.007 E0.88906
G1 X28.184 Y88.674 E0.03051
G1 X32.966 Y34.010 E5.03462
G1 X33.505 Y32.380 E0.15755
G1 X34.116 Y31.640 E0.08807
G1 E-3.50000 F2400.00000
G1 X54.960 Y54.554 F12000.000
G1 E3.50000 F2400.00000
G1 X54.960 Y104.554 E4.58753 F900.000
G1 X49.852 Y104.554 E0.46873
G1 X49.852 Y47.446 E5.23976
G1 X106.960 Y47.446 E5.23976
G1 X106.960 Y52.554 E0.46873
G1 X56.960 Y52.554 E4.58753
G1 X56.960 Y54.554 E0.18350
G1 X55.035 Y54.554 E0.17662
G1 X55.696 Y55.290 F12000.000
G1 X55.696 Y105.290 E4.58753 F900.000
G1 X49.116 Y105.290 E0.60372
G1 X49.116 Y46.710 E5.37474
G1 X107.696 Y46.710 E5.37475
G1 X107.696 Y53.290 E0.60372
G1 X57.696 Y53.290 E4.58753
G1 X57.696 Y55.290 E0.18350
G1 X55.771 Y55.290 E0.17662
G1 X55.196 Y55.290 F12000.000
G1 X54.521 Y54.726 F12000.000
G1 X50.291 Y50.496 E0.55099 F900.000
G1 X50.291 Y51.541 E0.09621
G1 X54.521 Y55.770 E0.55099
G1 X54.521 Y56.815 E0.09621
G1 X50.291 Y52.585 E0.55099
G1 X50.291 Y53.630 E0.09621
G1 X54.521 Y57.859 E0.55099
G1 X54.521 Y58.904 E0.09621
G1 X50.291 Y54.674 E0.55099
G1 X50.291 Y55.719 E0.09621
G1 X54.521 Y59.948 E0.55099
G1 X54.521 Y60.993 E0.09621
G1 X50.291 Y56.763 E0.55099
G1 X50.291 Y57.807 E0.09621
G1 X54.521 Y62.037 E0.55099
G1 X54.521 Y63.081 E0.09621
G1 X50.291 Y58.852 E0.55099
G1 X50.291 Y59.896 E0.09621
G1 X54.521 Y64.126 E0.55099
G1 X54.521 Y65.170 E0.09621
G1 X50.291 Y60.941 E0.55099
G1 X50.291 Y61.985 E0.09621
G1 X54.521 Y66.215 E0.55099
G1 X54.521 Y67.259 E0.09621
G1 X50.291 Y63.030 E0.55099
G1 X50.291 Y64.074 E0.09621
G1 X54.521 Y68.304 E0.55099
G1 X54.521 Y69.348 E0.09621
G1 X50.291 Y65.118 E0.55099
G1 X50.291 Y66.163 E0.09621
G1 X54.521 Y70.393 E0.55099
G1 X54.521 Y71.437 E0.09621
G1 X50.291 Y67.207 E0.55099
G1 X50.291 Y68.252 E0.09621
G1 X54.521 Y72.481 E0.55099
G1 X54.521 Y73.526 E0.09621
G1 X50.291 Y69.296 E0.55099
G1 X50.291 Y70.341 E0.09621
G1 X54.521 Y74.570 E0.55099
G1 X54.521 Y75.615 E0.09621
G1 X50.291 Y71.385 E0.55099
G1 X50.291 Y72.430 E0.09621
G1 X54.521 Y76.659 E0.55099
G1 X54.521 Y77.704 E0.09621
G1 X50.291 Y73.474 E0.55099
G1 X50.291 Y74.518 E0.09621
G1 X54.521 Y78.748 E0.55099
G1 X54.521 Y79.793 E0.09621
G1 X50.291 Y75.563 E0.55099
G1 X50.291 Y76.607 E0.09621
G1 X54.521 Y80.837 E0.55099
G1 X54.521 Y81.881 E0.09621
G1 X50.291 Y77.652 E0.55099
G1 X50.291 Y78.696 E0.09621
G1 X54.521 Y82.926 E0.55099
G1 X54.521 Y83.970 E0.09621
G1 X50.291 Y79.741 E0.55099
G1 X50.291 Y80.785 E0.09621
G1 X54.521 Y85.015 E0.55099
G1 X54.521 Y86.059 E0.09621
G1 X50.291 Y81.830 E0.55099
G1 X50.291 Y82.874 E0.09621
G1 X54.521 Y87.104 E0.55099
G1 X54.521 Y88.148 E0.09621
G1 X50.291 Y83.918 E0.55099
G1 X50.291 Y84.963 E0.09621
G1 X54.521 Y89.193 E0.55099
G1 X54.521 Y90.237 E0.09621
G1 X50.291 Y86.007 E0.55099
G1 X50.291 Y87.052 E0.09621
G1 X54.521 Y91.281 E0.55099
G1 X54.521 Y92.326 E0.09621
G1 X50.291 Y88.096 E0.55099
G1 X50.291 Y89.141 E0.09621
G1 X54.521 Y93.370 E0.55099
G1 X54.521 Y94.415 E0.09621
G1 X50.291 Y90.185 E0.55099
G1 X50.291 Y91.230 E0.09621
G1 X54.521 Y95.459 E0.55099
G1 X54.521 Y96.504 E0.09621
G1 X50.291 Y92.274 E0.55099
G1 X50.291 Y93.318 E0.09621
G1 X54.521 Y97.548 E0.55099
G1 X54.521 Y98.592 E0.09621
G1 X50.291 Y94.363 E0.55099
G1 X50.291 Y95.407 E0.09621
G1 X54.521 Y99.637 E0.55099
G1 X54.521 Y100.681 E0.09621
G1 X50.291 Y96.452 E0.55099
G1 X50.291 Y97.496 E0.09621
G1 X54.521 Y101.726 E0.55099
G1 X54.521 Y102.770 E0.09621
G1 X50.291 Y98.541 E0.55099
G1 X50.291 Y99.585 E0.09621
G1 X54.521 Y103.815 E0.55099
G1 X53.776 Y104.115 E0.07393
G1 X50.291 Y100.629 E0.45403
G1 X50.291 Y101.674 E0.09621
G1 X52.732 Y104.115 E0.31797
G1 X51.688 Y104.115 E0.09621
G1 X50.291 Y102.718 E0.18192
G1 X50.291 Y103.763 E0.09621
G1 X50.643 Y104.115 E0.04586
G1 X54.954 Y54.115 F12000.000
G1 X50.291 Y49.452 E0.60744 F900.000
G1 X50.291 Y48.407 E0.09621
G1 X55.999 Y54.115 E0.74349
G1 X56.521 Y53.593 E0.06803
G1 X50.813 Y47.885 E0.74350
G1 X51.858 Y47.885 E0.09621
G1 X56.521 Y52.548 E0.60745
G1 X57.132 Y52.115 F12000.000
G1 X52.902 Y47.885 E0.55099 F900.000
G1 X53.947 Y47.885 E0.09621
G1 X58.176 Y52.115 E0.55099
G1 X59.221 Y52.115 E0.09621
G1 X54.991 Y47.885 E0.55099
G1 X56.035 Y47.885 E0.09621
G1 X60.265 Y52.115 E0.55099
G1 X61.310 Y52.115 E0.09621
G1 X57.080 Y47.885 E0.55099
G1 X58.124 Y47.885 E0.09621
G1 X62.354 Y52.115 E0.55099
G1 X63.398 Y52.115 E0.09621
G1 X59.169 Y47.885 E0.55099
G1 X60.213 Y47.885 E0.09621
G1 X64.443 Y52.115 E0.55099
G1 X65.487 Y52.115 E0.09621
G1 X61.258 Y47.885 E0.55099
G1 X62.302 Y47.885 E0.09621
G1 X66.532 Y52.115 E0.55099
G1 X67.576 Y52.115 E0.09621
G1 X63.347 Y47.885 E0.55099
G1 X64.391 Y47.885 E0.09621
G1 X68.621 Y52.115 E0.55099
G1 X69.665 Y52.115 E0.09621
G1 X65.435 Y47.885 E0.55099
G1 X66.480 Y47.885 E0.09621
G1 X70.710 Y52.115 E0.55099
G1 X71.754 Y52.115 E0.09621
G1 X67.524 Y47.885 E0.55099
G1 X68.569 Y47.885 E0.09621
G1 X72.798 Y52.115 E0.55099
G1 X73.843 Y52.115 E0.09621
G1 X69.613 Y47.885 E0.55099
G1 X70.658 Y47.885 E0.09621
G1 X74.887 Y52.115 E0.55099
G1 X75.932 Y52.115 E0.09621
G1 X71.702 Y47.885 E0.55099
G1 X72.747 Y47.885 E0.09621
G1 X76.976 Y52.115 E0.55099
G1 X78.021 Y52.115 E0.09621
G1 X73.791 Y47.885 E0.55099
G1 X74.835 Y47.885 E0.09621
G1 X79.065 Y52.115 E0.55099
G1 X80.110 Y52.115 E0.09621
G1 X75.880 Y47.885 E0.55099
G1 X76.924 Y47.885 E0.09621
G1 X81.154 Y52.115 E0.55099
G1 X82.198 Y52.115 E0.09621
G1 X77.969 Y47.885 E0.55099
G1 X79.013 Y47.885 E0.09621
G1 X83.243 Y52.115 E0.55099
G1 X84.287 Y52.115 E0.09621
G1 X80.058 Y47.885 E0.55099
G1 X81.102 Y47.885 E0.09621
G1 X85.332 Y52.115 E0.55099
G1 X86.376 Y52.115 E0.09621
G1 X82.147 Y47.885 E0.55099
G1 X83.191 Y47.885 E0.09621
G1 X87.421 Y52.115 E0.55099
G1 X88.465 Y52.115 E0.09621
G1 X84.235 Y47.885 E0.55099
G1 X85.280 Y47.885 E0.09621
G1 X89.510 Y52.115 E0.55099
G1 X90.554 Y52.115 E0.09621
G1 X86.324 Y47.885 E0.55099
G1 X87.369 Y47.885 E0.09621
G1 X91.598 Y52.115 E0.55099
G1 X92.643 Y52.115 E0.09621
G1 X88.413 Y47.885 E0.55099
G1 X89.458 Y47.885 E0.09621
G1 X93.687 Y52.115 E0.55099
G1 X94.732 Y52.115 E0.09621
G1 X90.502 Y47.885 E0.55099
G1 X91.546 Y47.885 E0.09621
G1 X95.776 Y52.115 E0.55099
G1 X96.821 Y52.115 E0.09621
G1 X92.591 Y47.885 E0.55099
G1 X93.635 Y47.885 E0.09621
G1 X97.865 Y52.115 E0.55099
G1 X98.909 Y52.115 E0.09621
G1 X94.680 Y47.885 E0.55099
G1 X95.724 Y47.885 E0.09621
G1 X99.954 Y52.115 E0.55099
G1 X100.998 Y52.115 E0.09621
G1 X96.769 Y47.885 E0.55099
G1 X97.813 Y47.885 E0.09621
G1 X102.043 Y52.115 E0.55099
G1 X103.087 Y52.115 E0.09621
G1 X98.858 Y47.885 E0.55099
G1 X99.902 Y47.885 E0.09621
G1 X104.132 Y52.115 E0.55099
G1 X105.176 Y52.115 E0.09621
G1 X100.946 Y47.885 E0.55099
G1 X101.991 Y47.885 E0.09621
G1 X106.221 Y52.115 E0.55099
G1 X106.521 Y51.371 E0.07392
G1 X103.035 Y47.885 E0.45404
G1 X104.080 Y47.885 E0.09621
G1 X106.521 Y50.326 E0.31798
G1 X106.521 Y49.282 E0.09621
G1 X105.124 Y47.885 E0.18192
G1 X106.169 Y47.885 E0.09621
G1 X106.521 Y48.237 E0.04587
G1 E-3.50000 F2400.00000
G1 X42.412 Y40.554 F12000.000
G1 E3.50000 F2400.00000
G1 X42.174 Y43.277 E0.25073 F900.000
G1 X42.897 Y44.000 E0.09385
G1 X42.035 Y44.862 E0.11184
G1 X38.167 Y88.950 E4.06067
G1 X38.167 Y97.554 E0.78943
G1 X33.058 Y97.554 E0.46873
G1 X33.058 Y88.854 E0.79828
G1 X37.720 Y35.566 E4.90785
G1 X37.852 Y35.578 E0.01211
G1 X37.852 Y35.446 E0.01212
G1 X99.960 Y35.446 E5.69851
G1 X99.960 Y40.554 E0.46873
G1 X42.487 Y40.554 E5.27321
G1 X43.086 Y41.290 F12000.000
G1 X42.936 Y42.999 E0.15741 F900.000
G1 X43.937 Y44.000 E0.12987
G1 X42.745 Y45.193 E0.15477
G1 X38.902 Y88.982 E4.03316
G1 X38.902 Y98.290 E0.85397
G1 X32.322 Y98.290 E0.60372
G1 X32.322 Y88.822 E0.86872
G1 X37.051 Y34.769 E4.97829
G1 X37.116 Y34.775 E0.00595
G1 X37.116 Y34.710 E0.00595
G1 X100.696 Y34.710 E5.83350
G1 X100.696 Y41.290 E0.60372
G1 X43.161 Y41.290 E5.27886
G1 X42.587 Y41.261 F12000.000
G1 X99.521 Y36.237 F12000.000
G1 X99.169 Y35.885 E0.04593 F900.000
G1 X98.123 Y35.885 E0.09647
G1 X99.521 Y37.283 E0.18236
G1 X99.521 Y38.329 E0.09647
G1 X97.077 Y35.885 E0.31878
G1 X96.031 Y35.885 E0.09647
G1 X99.521 Y39.375 E0.45521
G1 X99.215 Y40.115 E0.07386
G1 X94.985 Y35.885 E0.55174
G1 X93.939 Y35.885 E0.09647
G1 X98.169 Y40.115 E0.55174
G1 X97.123 Y40.115 E0.09647
G1 X92.894 Y35.885 E0.55174
G1 X91.848 Y35.885 E0.09647
G1 X96.077 Y40.115 E0.55174
G1 X95.031 Y40.115 E0.09647
G1 X90.802 Y35.885 E0.55174
G1 X89.756 Y35.885 E0.09647
G1 X93.986 Y40.115 E0.55174
G1 X92.940 Y40.115 E0.09647
G1 X88.710 Y35.885 E0.55174
G1 X87.664 Y35.885 E0.09647
G1 X91.894 Y40.115 E0.55174
G1 X90.848 Y40.115 E0.09647
G1 X86.618 Y35.885 E0.55174
G1 X85.573 Y35.885 E0.09647
G1 X89.802 Y40.115 E0.55174
G1 X88.756 Y40.115 E0.09647
G1 X84.527 Y35.885 E0.55174
G1 X83.481 Y35.885 E0.09647
G1 X87.710 Y40.115 E0.55174
G1 X86.665 Y40.115 E0.09647
G1 X82.435 Y35.885 E0.55174
G1 X81.389 Y35.885 E0.09647
G1 X85.619 Y40.115 E0.55174
G1 X84.573 Y40.115 E0.09647
G1 X80.343 Y35.885 E0.55174
G1 X79.297 Y35.885 E0.09647
G1 X83.527 Y40.115 E0.55174
G1 X82.481 Y40.115 E0.09647
G1 X78.252 Y35.885 E0.55174
G1 X77.206 Y35.885 E0.09647
G1 X81.435 Y40.115 E0.55174
G1 X80.389 Y40.115 E0.09647
G1 X76.160 Y35.885 E0.55174
G1 X75.114 Y35.885 E0.09647
G1 X79.344 Y40.115 E0.55174
G1 X78.298 Y40.115 E0.09647
G1 X74.068 Y35.885 E0.55174
G1 X73.022 Y35.885 E0.09647
G1 X77.252 Y40.115 E0.55174
G1 X76.206 Y40.115 E0.09647
G1 X71.976 Y35.885 E0.55174
G1 X70.931 Y35.885 E0.09647
G1 X75.160 Y40.115 E0.55174
G1 X74.114 Y40.115 E0.09647
G1 X69.885 Y35.885 E0.55174
G1 X68.839 Y35.885 E0.09647
G1 X73.068 Y40.115 E0.55174
G1 X72.023 Y40.115 E0.09647
G1 X67.793 Y35.885 E0.55174
G1 X66.747 Y35.885 E0.09647
G1 X70.977 Y40.115 E0.55174
G1 X69.931 Y40.115 E0.09647
G1 X65.701 Y35.885 E0.55174
G1 X64.655 Y35.885 E0.09647
G1 X68.885 Y40.115 E0.55174
G1 X67.839 Y40.115 E0.09647
G1 X63.610 Y35.885 E0.55174
G1 X62.564 Y35.885 E0.09647
G1 X66.793 Y40.115 E0.55174
G1 X65.747 Y40.115 E0.09647
G1 X61.518 Y35.885 E0.55174
G1 X60.472 Y35.885 E0.09647
G1 X64.702 Y40.115 E0.55174
G1 X63.656 Y40.115 E0.09647
G1 X59.426 Y35.885 E0.55174
G1 X58.380 Y35.885 E0.09647
G1 X62.610 Y40.115 E0.55174
G1 X61.564 Y40.115 E0.09647
G1 X57.334 Y35.885 E0.55174
G1 X56.289 Y35.885 E0.09647
G1 X60.518 Y40.115 E0.55174
G1 X59.472 Y40.115 E0.09647
G1 X55.243 Y35.885 E0.55174
G1 X54.197 Y35.885 E0.09647
G1 X58.426 Y40.115 E0.55174
G1 X57.381 Y40.115 E0.09647
G1 X53.151 Y35.885 E0.55174
G1 X52.105 Y35.885 E0.09647
G1 X56.335 Y40.115 E0.55174
G1 X55.289 Y40.115 E0.09647
G1 X51.059 Y35.885 E0.55174
G1 X50.013 Y35.885 E0.09647
G1 X54.243 Y40.115 E0.55174
G1 X53.197 Y40.115 E0.09647
G1 X48.967 Y35.885 E0.55174
G1 X47.922 Y35.885 E0.09647
G1 X52.151 Y40.115 E0.55174
G1 X51.105 Y40.115 E0.09647
G1 X46.876 Y35.885 E0.55174
G1 X45.830 Y35.885 E0.09647
G1 X50.060 Y40.115 E0.55174
G1 X49.014 Y40.115 E0.09647
G1 X44.784 Y35.885 E0.55174
G1 X43.738 Y35.885 E0.09647
G1 X47.968 Y40.115 E0.55174
G1 X46.922 Y40.115 E0.09647
G1 X42.692 Y35.885 E0.55174
G1 X41.646 Y35.885 E0.09647
G1 X45.876 Y40.115 E0.55174
G1 X44.830 Y40.115 E0.09647
G1 X40.601 Y35.885 E0.55174
G1 X39.555 Y35.885 E0.09647
G1 X43.784 Y40.115 E0.55174
G1 X42.739 Y40.115 E0.09647
G1 X38.509 Y35.885 E0.55174
G1 X38.067 Y36.490 E0.06904
G1 X41.996 Y40.418 E0.51242
G1 X41.912 Y41.380 E0.08905
G1 X37.983 Y37.451 E0.51242
G1 X37.899 Y38.413 E0.08905
G1 X41.827 Y42.341 E0.51242
G1 X41.743 Y43.303 E0.08905
G1 X37.815 Y39.375 E0.51242
G1 X37.731 Y40.336 E0.08905
G1 X41.881 Y44.486 E0.54132
G1 X41.575 Y45.226 E0.07387
G1 X37.647 Y41.298 E0.51243
G1 X37.563 Y42.260 E0.08905
G1 X41.491 Y46.188 E0.51240
G1 X41.406 Y47.149 E0.08903
G1 X37.478 Y43.222 E0.51237
G1 X37.394 Y44.183 E0.08905
G1 X41.322 Y48.111 E0.51234
G1 X41.238 Y49.072 E0.08903
G1 X37.310 Y45.145 E0.51231
G1 X37.226 Y46.107 E0.08905
G1 X41.153 Y50.034 E0.51228
G1 X41.069 Y50.995 E0.08903
G1 X37.142 Y47.068 E0.51225
G1 X37.058 Y48.030 E0.08905
G1 X40.984 Y51.957 E0.51222
G1 X40.900 Y52.918 E0.08903
G1 X36.974 Y48.992 E0.51219
G1 X36.889 Y49.954 E0.08905
G1 X40.816 Y53.880 E0.51216
G1 X40.731 Y54.841 E0.08903
G1 X36.805 Y50.915 E0.51213
G1 X36.721 Y51.877 E0.08905
G1 X40.647 Y55.803 E0.51210
G1 X40.563 Y56.764 E0.08903
G1 X36.637 Y52.839 E0.51208
G1 X36.553 Y53.800 E0.08905
G1 X40.478 Y57.726 E0.51205
G1 X40.394 Y58.687 E0.08903
G1 X36.469 Y54.762 E0.51202
G1 X36.385 Y55.724 E0.08905
G1 X40.310 Y59.649 E0.51199
G1 X40.225 Y60.610 E0.08903
G1 X36.301 Y56.686 E0.51196
G1 X36.216 Y57.647 E0.08905
G1 X40.141 Y61.572 E0.51193
G1 X40.056 Y62.533 E0.08903
G1 X36.132 Y58.609 E0.51190
G1 X36.048 Y59.571 E0.08905
G1 X39.972 Y63.495 E0.51187
G1 X39.888 Y64.456 E0.08903
G1 X35.964 Y60.532 E0.51184
G1 X35.880 Y61.494 E0.08905
G1 X39.803 Y65.418 E0.51181
G1 X39.719 Y66.379 E0.08903
G1 X35.796 Y62.456 E0.51178
G1 X35.712 Y63.418 E0.08905
G1 X39.635 Y67.341 E0.51175
G1 X39.550 Y68.302 E0.08903
G1 X35.627 Y64.379 E0.51172
G1 X35.543 Y65.341 E0.08905
G1 X39.466 Y69.264 E0.51169
G1 X39.382 Y70.225 E0.08903
G1 X35.459 Y66.303 E0.51167
G1 X35.375 Y67.265 E0.08905
G1 X39.297 Y71.187 E0.51164
G1 X39.213 Y72.148 E0.08903
G1 X35.291 Y68.226 E0.51161
G1 X35.207 Y69.188 E0.08905
G1 X39.128 Y73.110 E0.51158
G1 X39.044 Y74.071 E0.08903
G1 X35.123 Y70.150 E0.51155
G1 X35.038 Y71.111 E0.08905
G1 X38.960 Y75.033 E0.51152
G1 X38.875 Y75.994 E0.08903
G1 X34.954 Y72.073 E0.51149
G1 X34.870 Y73.035 E0.08905
G1 X38.791 Y76.956 E0.51146
G1 X38.707 Y77.917 E0.08903
G1 X34.786 Y73.997 E0.51143
G1 X34.702 Y74.958 E0.08905
G1 X38.622 Y78.879 E0.51140
G1 X38.538 Y79.840 E0.08903
G1 X34.618 Y75.920 E0.51137
G1 X34.534 Y76.882 E0.08905
G1 X38.454 Y80.802 E0.51134
G1 X38.369 Y81.763 E0.08903
G1 X34.449 Y77.843 E0.51131
G1 X34.365 Y78.805 E0.08905
G1 X38.285 Y82.725 E0.51128
G1 X38.200 Y83.686 E0.08903
G1 X34.281 Y79.767 E0.51126
G1 X34.197 Y80.729 E0.08905
G1 X38.116 Y84.648 E0.51123
G1 X38.032 Y85.609 E0.08903
G1 X34.113 Y81.690 E0.51120
G1 X34.029 Y82.652 E0.08905
G1 X37.947 Y86.571 E0.51117
G1 X37.863 Y87.532 E0.08903
G1 X33.945 Y83.614 E0.51114
G1 X33.860 Y84.575 E0.08905
G1 X37.779 Y88.494 E0.51111
G1 X37.727 Y89.488 E0.09184
G1 X33.776 Y85.537 E0.51537
G1 X33.692 Y86.499 E0.08905
G1 X37.727 Y90.534 E0.52635
G1 X37.727 Y91.580 E0.09647
G1 X33.608 Y87.461 E0.53732
G1 X33.524 Y88.422 E0.08905
G1 X37.727 Y92.626 E0.54830
G1 X37.727 Y93.671 E0.09647
G1 X33.498 Y89.442 E0.55174
G1 X33.498 Y90.488 E0.09647
G1 X37.727 Y94.717 E0.55174
G1 X37.727 Y95.763 E0.09647
G1 X33.498 Y91.534 E0.55174
G1 X33.498 Y92.579 E0.09647
G1 X37.727 Y96.809 E0.55174
G1 X36.987 Y97.115 E0.07386
G1 X33.498 Y93.625 E0.45520
G1 X33.498 Y94.671 E0.09647
G1 X35.941 Y97.115 E0.31877
G1 X34.895 Y97.115 E0.09647
G1 X33.498 Y95.717 E0.18235
G1 X33.498 Y96.763 E0.09647
G1 X33.850 Y97.115 E0.04592
G1 E-3.50000 F2400.00000
G1 X68.351 Y65.717 F12000.000
G1 E3.50000 F2400.00000
G1 X68.870 Y65.340 E0.05891 F900.000
G1 X69.457 Y65.078 E0.05893
G1 X70.085 Y64.945 E0.05893
G1 X70.727 Y64.945 E0.05891 F900.000
