; generated by Slic3r 1.2.6 on 2015-04-24 at 11:22:07

; external perimeters extrusion width = 0.50mm
; perimeters extrusion width = 0.72mm
; infill extrusion width = 0.72mm
; solid infill extrusion width = 0.72mm
; top infill extrusion width = 0.72mm

M107
M190 S57 ; set bed temperature
G28 ; home all axes
M83;
G10 P0 S195 R160                       ; Set tool 0 operating and standby temperatures
T0

G21 ; set units to millimeters
G90 ; use absolute coordinates
M83 ; use relative distances for extrusion
G1 E-3.50000 F2400.00000
G1 Z0.300 F12000.000
G1 X47.817 Y45.544 F12000.000
G1 E3.50000 F2400.00000
G1 X49.029 Y44.327 E0.15755 F1200.000
G1 X51.000 Y43.764 E0.18809
G1 X141.000 Y43.764 E8.25755
G1 X142.671 Y44.159 E0.15755
G1 X143.715 Y44.934 E0.11927 F1200.000
G1 X158.365 Y60.434 E1.95684
G1 X159.226 Y61.920 E0.15755
G1 X159.386 Y63.000 E0.10020
G1 X159.386 Y70.000 E0.64225
G1 X158.991 Y71.671 E0.15755
G1 X158.292 Y72.642 E0.10975
G1 X76.142 Y154.792 E10.65936
G1 X74.681 Y155.694 E0.15755
G1 X73.500 Y155.886 E0.10975
G1 X66.500 Y155.886 E0.64225
G1 X64.436 Y155.263 E0.19782
G1 X41.936 Y140.345 E2.47696
G1 X40.761 Y139.092 E0.15755
G1 X40.264 Y137.231 E0.17672
G1 X40.264 Y127.510 E0.89191
G1 X40.279 Y127.185 E0.02990
G1 X47.279 Y47.174 E7.36904
G1 X47.794 Y45.615 E0.15067
G1 E-3.50000 F2400.00000
G1 X72.514 Y71.014 F12000.000
G1 E3.50000 F2400.00000
G1 X72.514 Y151.014 E7.34004 F900.000
G1 X67.486 Y151.014 E0.46139
G1 X67.486 Y63.986 E7.98493
G1 X154.514 Y63.986 E7.98493
G1 X154.514 Y69.014 E0.46139
G1 X74.514 Y69.014 E7.34004
G1 X74.514 Y71.014 E0.18350
G1 X72.589 Y71.014 E0.17662
G1 X73.250 Y71.750 F12000.000
G1 X73.250 Y151.750 E7.34004 F900.000
G1 X66.750 Y151.750 E0.59638
G1 X66.750 Y63.250 E8.11992
G1 X155.250 Y63.250 E8.11992
G1 X155.250 Y69.750 E0.59638
G1 X75.250 Y69.750 E7.34004
G1 X75.250 Y71.750 E0.18350
G1 X73.325 Y71.750 E0.17662
G1 X72.750 Y71.750 F12000.000
G1 X67.925 Y150.223 F12000.000
G1 X68.277 Y150.575 E0.04593 F900.000
G1 X69.323 Y150.575 E0.09655
G1 X67.925 Y149.177 E0.18248
G1 X67.925 Y148.130 E0.09655
G1 X70.370 Y150.575 E0.31903
G1 X71.416 Y150.575 E0.09655
G1 X67.925 Y147.084 E0.45557
G1 X67.925 Y146.038 E0.09655
G1 X72.075 Y150.187 E0.54154
G1 X72.075 Y149.141 E0.09655
G1 X67.925 Y144.991 E0.54154
G1 X67.925 Y143.945 E0.09655
G1 X72.075 Y148.095 E0.54154
G1 X72.075 Y147.048 E0.09655
G1 X67.925 Y142.899 E0.54154
G1 X67.925 Y141.852 E0.09655
G1 X72.075 Y146.002 E0.54154
G1 X72.075 Y144.956 E0.09655
G1 X67.925 Y140.806 E0.54154
G1 X67.925 Y139.760 E0.09655
G1 X72.075 Y143.909 E0.54154
G1 X72.075 Y142.863 E0.09655
G1 X67.925 Y138.713 E0.54154
G1 X67.925 Y137.667 E0.09655
G1 X72.075 Y141.817 E0.54154
G1 X72.075 Y140.770 E0.09655
G1 X67.925 Y136.621 E0.54154
G1 X67.925 Y135.574 E0.09655
G1 X72.075 Y139.724 E0.54154
G1 X72.075 Y138.678 E0.09655
G1 X67.925 Y134.528 E0.54154
G1 X67.925 Y133.482 E0.09655
G1 X72.075 Y137.632 E0.54154
G1 X72.075 Y136.585 E0.09655
G1 X67.925 Y132.436 E0.54154
G1 X67.925 Y131.389 E0.09655
G1 X72.075 Y135.539 E0.54154
G1 X72.075 Y134.493 E0.09655
G1 X67.925 Y130.343 E0.54154
G1 X67.925 Y129.297 E0.09655
G1 X72.075 Y133.446 E0.54154
G1 X72.075 Y132.400 E0.09655
G1 X67.925 Y128.250 E0.54154
G1 X67.925 Y127.204 E0.09655
G1 X72.075 Y131.354 E0.54154
G1 X72.075 Y130.307 E0.09655
G1 X67.925 Y126.158 E0.54154
G1 X67.925 Y125.111 E0.09655
G1 X72.075 Y129.261 E0.54154
G1 X72.075 Y128.215 E0.09655
G1 X67.925 Y124.065 E0.54154
G1 X67.925 Y123.019 E0.09655
G1 X72.075 Y127.168 E0.54154
G1 X72.075 Y126.122 E0.09655
G1 X67.925 Y121.972 E0.54154
G1 X67.925 Y120.926 E0.09655
G1 X72.075 Y125.076 E0.54154
G1 X72.075 Y124.029 E0.09655
G1 X67.925 Y119.880 E0.54154
G1 X67.925 Y118.833 E0.09655
G1 X72.075 Y122.983 E0.54154
G1 X72.075 Y121.937 E0.09655
G1 X67.925 Y117.787 E0.54154
G1 X67.925 Y116.741 E0.09655
G1 X72.075 Y120.891 E0.54154
G1 X72.075 Y119.844 E0.09655
G1 X67.925 Y115.695 E0.54154
G1 X67.925 Y114.648 E0.09655
G1 X72.075 Y118.798 E0.54154
G1 X72.075 Y117.752 E0.09655
G1 X67.925 Y113.602 E0.54154
G1 X67.925 Y112.556 E0.09655
G1 X72.075 Y116.705 E0.54154
G1 X72.075 Y115.659 E0.09655
G1 X67.925 Y111.509 E0.54154
G1 X67.925 Y110.463 E0.09655
G1 X72.075 Y114.613 E0.54154
G1 X72.075 Y113.566 E0.09655
G1 X67.925 Y109.417 E0.54154
G1 X67.925 Y108.370 E0.09655
G1 X72.075 Y112.520 E0.54154
G1 X72.075 Y111.474 E0.09655
G1 X67.925 Y107.324 E0.54154
G1 X67.925 Y106.278 E0.09655
G1 X72.075 Y110.427 E0.54154
G1 X72.075 Y109.381 E0.09655
G1 X67.925 Y105.231 E0.54154
G1 X67.925 Y104.185 E0.09655
G1 X72.075 Y108.335 E0.54154
G1 X72.075 Y107.288 E0.09655
G1 X67.925 Y103.139 E0.54154
G1 X67.925 Y102.092 E0.09655
G1 X72.075 Y106.242 E0.54154
G1 X72.075 Y105.196 E0.09655
G1 X67.925 Y101.046 E0.54154
G1 X67.925 Y100.000 E0.09655
G1 X72.075 Y104.150 E0.54154
G1 X72.075 Y103.103 E0.09655
G1 X67.925 Y98.954 E0.54154
G1 X67.925 Y97.907 E0.09655
G1 X72.075 Y102.057 E0.54154
G1 X72.075 Y101.011 E0.09655
G1 X67.925 Y96.861 E0.54154
G1 X67.925 Y95.815 E0.09655
G1 X72.075 Y99.964 E0.54154
G1 X72.075 Y98.918 E0.09655
G1 X67.925 Y94.768 E0.54154
G1 X67.925 Y93.722 E0.09655
G1 X72.075 Y97.872 E0.54154
G1 X72.075 Y96.825 E0.09655
G1 X67.925 Y92.676 E0.54154
G1 X67.925 Y91.629 E0.09655
G1 X72.075 Y95.779 E0.54154
G1 X72.075 Y94.733 E0.09655
G1 X67.925 Y90.583 E0.54154
G1 X67.925 Y89.537 E0.09655
G1 X72.075 Y93.686 E0.54154
G1 X72.075 Y92.640 E0.09655
G1 X67.925 Y88.490 E0.54154
G1 X67.925 Y87.444 E0.09655
G1 X72.075 Y91.594 E0.54154
G1 X72.075 Y90.547 E0.09655
G1 X67.925 Y86.398 E0.54154
G1 X67.925 Y85.351 E0.09655
G1 X72.075 Y89.501 E0.54154
G1 X72.075 Y88.455 E0.09655
G1 X67.925 Y84.305 E0.54154
G1 X67.925 Y83.259 E0.09655
G1 X72.075 Y87.409 E0.54154
G1 X72.075 Y86.362 E0.09655
G1 X67.925 Y82.213 E0.54154
G1 X67.925 Y81.166 E0.09655
G1 X72.075 Y85.316 E0.54154
G1 X72.075 Y84.270 E0.09655
G1 X67.925 Y80.120 E0.54154
G1 X67.925 Y79.074 E0.09655
G1 X72.075 Y83.223 E0.54154
G1 X72.075 Y82.177 E0.09655
G1 X67.925 Y78.027 E0.54154
G1 X67.925 Y76.981 E0.09655
G1 X72.075 Y81.131 E0.54154
G1 X72.075 Y80.084 E0.09655
G1 X67.925 Y75.935 E0.54154
G1 X67.925 Y74.888 E0.09655
G1 X72.075 Y79.038 E0.54154
G1 X72.075 Y77.992 E0.09655
G1 X67.925 Y73.842 E0.54154
G1 X67.925 Y72.796 E0.09655
G1 X72.075 Y76.945 E0.54154
G1 X72.075 Y75.899 E0.09655
G1 X67.925 Y71.749 E0.54154
G1 X67.925 Y70.703 E0.09655
G1 X72.075 Y74.853 E0.54154
G1 X72.075 Y73.806 E0.09655
G1 X67.925 Y69.657 E0.54154
G1 X67.925 Y68.610 E0.09655
G1 X72.075 Y72.760 E0.54154
G1 X72.075 Y71.714 E0.09655
G1 X67.925 Y67.564 E0.54154
G1 X67.925 Y66.518 E0.09655
G1 X72.075 Y70.668 E0.54154
G1 X73.028 Y70.575 E0.08841
G1 X67.925 Y65.472 E0.66599
G1 X67.945 Y64.445 E0.09473
G1 X74.075 Y70.575 E0.79993
G1 X74.075 Y69.529 E0.09655
G1 X68.971 Y64.425 E0.66600
G1 X70.018 Y64.425 E0.09655
G1 X74.167 Y68.575 E0.54154
G1 X75.214 Y68.575 E0.09655
G1 X71.064 Y64.425 E0.54154
G1 X72.110 Y64.425 E0.09655
G1 X76.260 Y68.575 E0.54154
G1 X77.306 Y68.575 E0.09655
G1 X73.157 Y64.425 E0.54154
G1 X74.203 Y64.425 E0.09655
G1 X78.353 Y68.575 E0.54154
G1 X79.399 Y68.575 E0.09655
G1 X75.249 Y64.425 E0.54154
G1 X76.296 Y64.425 E0.09655
G1 X80.445 Y68.575 E0.54154
G1 X81.492 Y68.575 E0.09655
G1 X77.342 Y64.425 E0.54154
G1 X78.388 Y64.425 E0.09655
G1 X82.538 Y68.575 E0.54154
G1 X83.584 Y68.575 E0.09655
G1 X79.435 Y64.425 E0.54154
G1 X80.481 Y64.425 E0.09655
G1 X84.631 Y68.575 E0.54154
G1 X85.677 Y68.575 E0.09655
G1 X81.527 Y64.425 E0.54154
G1 X82.574 Y64.425 E0.09655
G1 X86.723 Y68.575 E0.54154
G1 X87.769 Y68.575 E0.09655
G1 X83.620 Y64.425 E0.54154
G1 X84.666 Y64.425 E0.09655
G1 X88.816 Y68.575 E0.54154
G1 X89.862 Y68.575 E0.09655
G1 X85.712 Y64.425 E0.54154
G1 X86.759 Y64.425 E0.09655
G1 X90.908 Y68.575 E0.54154
G1 X91.955 Y68.575 E0.09655
G1 X87.805 Y64.425 E0.54154
G1 X88.851 Y64.425 E0.09655
G1 X93.001 Y68.575 E0.54154
G1 X94.047 Y68.575 E0.09655
G1 X89.898 Y64.425 E0.54154
G1 X90.944 Y64.425 E0.09655
G1 X95.094 Y68.575 E0.54154
G1 X96.140 Y68.575 E0.09655
G1 X91.990 Y64.425 E0.54154
G1 X93.037 Y64.425 E0.09655
G1 X97.186 Y68.575 E0.54154
G1 X98.233 Y68.575 E0.09655
G1 X94.083 Y64.425 E0.54154
G1 X95.129 Y64.425 E0.09655
G1 X99.279 Y68.575 E0.54154
G1 X100.325 Y68.575 E0.09655
G1 X96.176 Y64.425 E0.54154
G1 X97.222 Y64.425 E0.09655
G1 X101.372 Y68.575 E0.54154
G1 X102.418 Y68.575 E0.09655
G1 X98.268 Y64.425 E0.54154
G1 X99.315 Y64.425 E0.09655
G1 X103.464 Y68.575 E0.54154
G1 X104.510 Y68.575 E0.09655
G1 X100.361 Y64.425 E0.54154
G1 X101.407 Y64.425 E0.09655
G1 X105.557 Y68.575 E0.54154
G1 X106.603 Y68.575 E0.09655
G1 X102.453 Y64.425 E0.54154
G1 X103.500 Y64.425 E0.09655
G1 X107.649 Y68.575 E0.54154
G1 X108.696 Y68.575 E0.09655
G1 X104.546 Y64.425 E0.54154
G1 X105.592 Y64.425 E0.09655
G1 X109.742 Y68.575 E0.54154
G1 X110.788 Y68.575 E0.09655
G1 X106.639 Y64.425 E0.54154
G1 X107.685 Y64.425 E0.09655
G1 X111.835 Y68.575 E0.54154
G1 X112.881 Y68.575 E0.09655
G1 X108.731 Y64.425 E0.54154
G1 X109.778 Y64.425 E0.09655
G1 X113.927 Y68.575 E0.54154
G1 X114.974 Y68.575 E0.09655
G1 X110.824 Y64.425 E0.54154
G1 X111.870 Y64.425 E0.09655
G1 X116.020 Y68.575 E0.54154
G1 X117.066 Y68.575 E0.09655
G1 X112.917 Y64.425 E0.54154
G1 X113.963 Y64.425 E0.09655
G1 X118.113 Y68.575 E0.54154
G1 X119.159 Y68.575 E0.09655
G1 X115.009 Y64.425 E0.54154
G1 X116.056 Y64.425 E0.09655
G1 X120.205 Y68.575 E0.54154
G1 X121.251 Y68.575 E0.09655
G1 X117.102 Y64.425 E0.54154
G1 X118.148 Y64.425 E0.09655
G1 X122.298 Y68.575 E0.54154
G1 X123.344 Y68.575 E0.09655
G1 X119.194 Y64.425 E0.54154
G1 X120.241 Y64.425 E0.09655
G1 X124.390 Y68.575 E0.54154
G1 X125.437 Y68.575 E0.09655
G1 X121.287 Y64.425 E0.54154
G1 X122.333 Y64.425 E0.09655
G1 X126.483 Y68.575 E0.54154
G1 X127.529 Y68.575 E0.09655
G1 X123.380 Y64.425 E0.54154
G1 X124.426 Y64.425 E0.09655
G1 X128.576 Y68.575 E0.54154
G1 X129.622 Y68.575 E0.09655
G1 X125.472 Y64.425 E0.54154
G1 X126.519 Y64.425 E0.09655
G1 X130.668 Y68.575 E0.54154
G1 X131.715 Y68.575 E0.09655
G1 X127.565 Y64.425 E0.54154
G1 X128.611 Y64.425 E0.09655
G1 X132.761 Y68.575 E0.54154
G1 X133.807 Y68.575 E0.09655
G1 X129.658 Y64.425 E0.54154
G1 X130.704 Y64.425 E0.09655
G1 X134.854 Y68.575 E0.54154
G1 X135.900 Y68.575 E0.09655
G1 X131.750 Y64.425 E0.54154
G1 X132.797 Y64.425 E0.09655
G1 X136.946 Y68.575 E0.54154
G1 X137.992 Y68.575 E0.09655
G1 X133.843 Y64.425 E0.54154
G1 X134.889 Y64.425 E0.09655
G1 X139.039 Y68.575 E0.54154
G1 X140.085 Y68.575 E0.09655
G1 X135.935 Y64.425 E0.54154
G1 X136.982 Y64.425 E0.09655
G1 X141.131 Y68.575 E0.54154
G1 X142.178 Y68.575 E0.09655
G1 X138.028 Y64.425 E0.54154
G1 X139.074 Y64.425 E0.09655
G1 X143.224 Y68.575 E0.54154
G1 X144.270 Y68.575 E0.09655
G1 X140.121 Y64.425 E0.54154
G1 X141.167 Y64.425 E0.09655
G1 X145.317 Y68.575 E0.54154
G1 X146.363 Y68.575 E0.09655
G1 X142.213 Y64.425 E0.54154
G1 X143.260 Y64.425 E0.09655
G1 X147.409 Y68.575 E0.54154
G1 X148.456 Y68.575 E0.09655
G1 X144.306 Y64.425 E0.54154
G1 X145.352 Y64.425 E0.09655
G1 X149.502 Y68.575 E0.54154
G1 X150.548 Y68.575 E0.09655
G1 X146.399 Y64.425 E0.54154
G1 X147.445 Y64.425 E0.09655
G1 X151.595 Y68.575 E0.54154
G1 X152.641 Y68.575 E0.09655
G1 X148.491 Y64.425 E0.54154
G1 X149.538 Y64.425 E0.09655
G1 X153.687 Y68.575 E0.54154
G1 X154.075 Y67.916 E0.07052
G1 X150.584 Y64.425 E0.45559
G1 X151.630 Y64.425 E0.09655
G1 X154.075 Y66.870 E0.31904
G1 X154.075 Y65.824 E0.09655
G1 X152.676 Y64.425 E0.18250
G1 X153.723 Y64.425 E0.09655
G1 X154.075 Y64.777 E0.04595
G1 E-3.50000 F2400.00000
G1 X57.290 Y54.364 F12000.000
G1 E3.50000 F2400.00000
G1 X57.089 Y56.660 E0.21140 F900.000
G1 X57.930 Y57.500 E0.10903
G1 X56.928 Y58.501 E0.12994
G1 X50.093 Y136.624 E7.19521
G1 X45.136 Y136.191 E0.45660
G1 X45.136 Y127.560 E0.79188
G1 X52.041 Y48.636 E7.26901
G1 X139.864 Y48.636 E8.05788
G1 X139.864 Y54.364 E0.52562
G1 X57.365 Y54.364 E7.56936
G1 X57.964 Y55.100 F12000.000
G1 X57.852 Y56.382 E0.11808 F900.000
G1 X58.970 Y57.500 E0.14505
G1 X57.638 Y58.832 E0.17287
G1 X50.762 Y137.421 E7.23814
G1 X44.400 Y136.865 E0.58594
G1 X44.400 Y127.528 E0.85667
G1 X51.367 Y47.900 E7.33380
G1 X140.600 Y47.900 E8.18722
G1 X140.600 Y55.100 E0.66060
G1 X58.039 Y55.100 E7.57500
G1 X57.465 Y55.071 F12000.000
G1 X45.575 Y135.451 F12000.000
G1 X45.929 Y135.805 E0.04617 F900.000
G1 X47.075 Y135.905 E0.10610
G1 X45.575 Y134.405 E0.19565
G1 X45.575 Y133.359 E0.09645
G1 X48.221 Y136.005 E0.34514
G1 X49.367 Y136.106 E0.10610
G1 X45.575 Y132.313 E0.49462
G1 X45.575 Y131.268 E0.09645
G1 X49.767 Y135.459 E0.54676
G1 X49.851 Y134.498 E0.08903
G1 X45.575 Y130.222 E0.55773
G1 X45.575 Y129.176 E0.09645
G1 X49.935 Y133.536 E0.56870
G1 X50.019 Y132.575 E0.08903
G1 X45.575 Y128.130 E0.57968
G1 X45.603 Y127.112 E0.09393
G1 X50.103 Y131.613 E0.58703
G1 X50.188 Y130.651 E0.08903
G1 X45.687 Y126.151 E0.58703
G1 X45.771 Y125.189 E0.08903
G1 X50.272 Y129.690 E0.58703
G1 X50.356 Y128.728 E0.08903
G1 X45.855 Y124.227 E0.58703
G1 X45.939 Y123.266 E0.08903
G1 X50.440 Y127.766 E0.58703
G1 X50.524 Y126.805 E0.08903
G1 X46.024 Y122.304 E0.58703
G1 X46.108 Y121.342 E0.08903
G1 X50.608 Y125.843 E0.58703
G1 X50.692 Y124.881 E0.08903
G1 X46.192 Y120.381 E0.58703
G1 X46.276 Y119.419 E0.08903
G1 X50.777 Y123.920 E0.58703
G1 X50.861 Y122.958 E0.08903
G1 X46.360 Y118.458 E0.58703
G1 X46.444 Y117.496 E0.08903
G1 X50.945 Y121.996 E0.58703
G1 X51.029 Y121.035 E0.08903
G1 X46.528 Y116.534 E0.58703
G1 X46.613 Y115.573 E0.08903
G1 X51.113 Y120.073 E0.58703
G1 X51.197 Y119.112 E0.08903
G1 X46.697 Y114.611 E0.58703
G1 X46.781 Y113.649 E0.08903
G1 X51.281 Y118.150 E0.58703
G1 X51.365 Y117.188 E0.08903
G1 X46.865 Y112.688 E0.58703
G1 X46.949 Y111.726 E0.08903
G1 X51.450 Y116.227 E0.58703
G1 X51.534 Y115.265 E0.08903
G1 X47.033 Y110.764 E0.58703
G1 X47.117 Y109.803 E0.08903
G1 X51.618 Y114.303 E0.58703
G1 X51.702 Y113.342 E0.08903
G1 X47.201 Y108.841 E0.58703
G1 X47.286 Y107.880 E0.08903
G1 X51.786 Y112.380 E0.58703
G1 X51.870 Y111.418 E0.08903
G1 X47.370 Y106.918 E0.58703
G1 X47.454 Y105.956 E0.08903
G1 X51.954 Y110.457 E0.58703
G1 X52.039 Y109.495 E0.08903
G1 X47.538 Y104.995 E0.58703
G1 X47.622 Y104.033 E0.08903
G1 X52.123 Y108.533 E0.58703
G1 X52.207 Y107.572 E0.08903
G1 X47.706 Y103.071 E0.58703
G1 X47.790 Y102.110 E0.08903
G1 X52.291 Y106.610 E0.58703
G1 X52.375 Y105.649 E0.08903
G1 X47.875 Y101.148 E0.58703
G1 X47.959 Y100.186 E0.08903
G1 X52.459 Y104.687 E0.58703
G1 X52.543 Y103.725 E0.08903
G1 X48.043 Y99.225 E0.58703
G1 X48.127 Y98.263 E0.08903
G1 X52.627 Y102.764 E0.58703
G1 X52.712 Y101.802 E0.08903
G1 X48.211 Y97.301 E0.58703
G1 X48.295 Y96.340 E0.08903
G1 X52.796 Y100.840 E0.58703
G1 X52.880 Y99.879 E0.08903
G1 X48.379 Y95.378 E0.58703
G1 X48.463 Y94.417 E0.08903
G1 X52.964 Y98.917 E0.58703
G1 X53.048 Y97.955 E0.08903
G1 X48.548 Y93.455 E0.58703
G1 X48.632 Y92.493 E0.08903
G1 X53.132 Y96.994 E0.58703
G1 X53.216 Y96.032 E0.08903
G1 X48.716 Y91.532 E0.58703
G1 X48.800 Y90.570 E0.08903
G1 X53.301 Y95.071 E0.58703
G1 X53.385 Y94.109 E0.08903
G1 X48.884 Y89.608 E0.58703
G1 X48.968 Y88.647 E0.08903
G1 X53.469 Y93.147 E0.58703
G1 X53.553 Y92.186 E0.08903
G1 X49.052 Y87.685 E0.58703
G1 X49.136 Y86.723 E0.08903
G1 X53.637 Y91.224 E0.58703
G1 X53.721 Y90.262 E0.08903
G1 X49.221 Y85.762 E0.58703
G1 X49.305 Y84.800 E0.08903
G1 X53.805 Y89.301 E0.58703
G1 X53.889 Y88.339 E0.08903
G1 X49.389 Y83.838 E0.58703
G1 X49.473 Y82.877 E0.08903
G1 X53.974 Y87.377 E0.58703
G1 X54.058 Y86.416 E0.08903
G1 X49.557 Y81.915 E0.58703
G1 X49.641 Y80.954 E0.08903
G1 X54.142 Y85.454 E0.58703
G1 X54.226 Y84.492 E0.08903
G1 X49.725 Y79.992 E0.58703
G1 X49.810 Y79.030 E0.08903
G1 X54.310 Y83.531 E0.58703
G1 X54.394 Y82.569 E0.08903
G1 X49.894 Y78.069 E0.58703
G1 X49.978 Y77.107 E0.08903
G1 X54.478 Y81.608 E0.58703
G1 X54.563 Y80.646 E0.08903
G1 X50.062 Y76.145 E0.58703
G1 X50.146 Y75.184 E0.08903
G1 X54.647 Y79.684 E0.58703
G1 X54.731 Y78.723 E0.08903
G1 X50.230 Y74.222 E0.58703
G1 X50.314 Y73.260 E0.08903
G1 X54.815 Y77.761 E0.58703
G1 X54.899 Y76.799 E0.08903
G1 X50.398 Y72.299 E0.58703
G1 X50.483 Y71.337 E0.08903
G1 X54.983 Y75.838 E0.58703
G1 X55.067 Y74.876 E0.08903
G1 X50.567 Y70.375 E0.58703
