; generated by Slic3r 1.2.6 on 2015-04-24 at 10:01:01

; external perimeters extrusion width = 0.50mm
; perimeters extrusion width = 0.72mm
; infill extrusion width = 0.72mm
; solid infill extrusion width = 0.72mm
; top infill extrusion width = 0.72mm

M107
M190 S57 ; set bed temperature
G28 ; home all axes
M83;
G10 P0 S195 R160                       ; Set tool 0 operating and standby temperatures
T0

G21 ; set units to millimeters
G90 ; use absolute coordinates
M83 ; use relative distances for extrusion
G1 E-3.50000 F2400.00000
G1 Z0.300 F12000.000
G1 X55.356 Y44.567 F12000.000
G1 E3.50000 F2400.00000
G1 X70.981 Y28.821 E2.03529 F1200.000
G1 X72.439 Y27.913 E0.15755
G1 X73.652 Y27.717 E0.11280
G1 X73.800 Y27.718 E0.01358
G1 X88.450 Y27.794 E1.34414 F1200.000
G1 X90.119 Y28.197 E0.15755
G1 X91.432 Y29.304 E0.15755
G1 X92.166 Y31.527 E0.21479
G1 X92.192 Y76.377 E4.11500
G1 X91.798 Y78.048 E0.15755
G1 X91.101 Y79.018 E0.10958
G1 X59.001 Y111.186 E4.16956
G1 X57.541 Y112.090 E0.15755
G1 X55.831 Y112.246 E0.15755
G1 X53.684 Y111.157 E0.22095
G1 X51.200 Y108.612 E0.32626
G1 X48.788 Y105.981 E0.32746
G1 X47.951 Y104.482 E0.15755
G1 X47.832 Y103.032 E0.13348
G1 X54.297 Y46.772 E5.19588
G1 X55.324 Y44.634 E0.21757
G1 E-3.50000 F2400.00000
G1 X78.122 Y40.135 F12000.000
G1 E3.50000 F2400.00000
G1 X72.487 Y42.002 E0.54460 F900.000
G1 X63.517 Y51.315 E1.18636
G1 X61.293 Y49.245 E0.27873
G1 X59.557 Y47.249 E0.24271
G1 X74.104 Y32.590 E1.89477
G1 X87.296 Y32.659 E1.21041
G1 X87.321 Y75.910 E3.96827
G1 X56.366 Y106.931 E4.02086
G1 X54.699 Y105.223 E0.21900
G1 X53.118 Y103.497 E0.21472
G1 X74.061 Y82.739 E2.70543
G1 X82.724 Y63.739 E1.91598
G1 X82.707 Y46.109 E1.61749
G1 X78.167 Y40.194 E0.68414
G1 X77.856 Y40.998 F12000.000
G1 X72.891 Y42.643 E0.47995 F900.000
G1 X63.545 Y52.346 E1.23602
G1 X60.763 Y49.757 E0.34864
G1 X58.553 Y47.216 E0.30898
G1 X73.799 Y31.853 E1.98580
G1 X88.031 Y31.927 E1.30583
G1 X88.056 Y76.214 E4.06331
G1 X56.360 Y107.978 E4.11719
G1 X54.164 Y105.728 E0.28847
G1 X52.098 Y103.472 E0.28067
G1 X73.448 Y82.312 E2.75795
G1 X81.988 Y63.579 E1.88893
G1 X81.972 Y46.359 E1.57992
G1 X77.902 Y41.057 E0.61327
G1 X77.647 Y40.543 F12000.000
G1 X81.848 Y44.059 F12000.000
G1 X86.866 Y49.076 E0.65169 F900.000
G1 X86.866 Y50.118 E0.09569
G1 X83.147 Y46.400 E0.48302
G1 X83.148 Y47.442 E0.09573
G1 X86.867 Y51.160 E0.48297
G1 X86.867 Y52.202 E0.09569
G1 X83.149 Y48.484 E0.48291
G1 X83.150 Y49.527 E0.09573
G1 X86.868 Y53.244 E0.48286
G1 X86.869 Y54.286 E0.09569
G1 X83.151 Y50.569 E0.48281
G1 X83.152 Y51.611 E0.09573
G1 X86.869 Y55.328 E0.48276
G1 X86.870 Y56.370 E0.09569
G1 X83.153 Y52.654 E0.48270
G1 X83.154 Y53.696 E0.09573
G1 X86.870 Y57.412 E0.48265
G1 X86.871 Y58.454 E0.09569
G1 X83.155 Y54.738 E0.48260
G1 X83.156 Y55.781 E0.09573
G1 X86.872 Y59.496 E0.48255
G1 X86.872 Y60.538 E0.09569
G1 X83.157 Y56.823 E0.48249
G1 X83.158 Y57.865 E0.09573
G1 X86.873 Y61.580 E0.48244
G1 X86.873 Y62.622 E0.09569
G1 X83.159 Y58.908 E0.48239
G1 X83.160 Y59.950 E0.09573
G1 X86.874 Y63.664 E0.48234
G1 X86.875 Y64.706 E0.09569
G1 X83.161 Y60.992 E0.48228
G1 X83.162 Y62.035 E0.09573
G1 X86.875 Y65.748 E0.48223
G1 X86.876 Y66.790 E0.09569
G1 X83.163 Y63.077 E0.48218
G1 X83.036 Y63.991 E0.08478
G1 X86.876 Y67.831 E0.49875
G1 X86.877 Y68.873 E0.09569
G1 X82.710 Y64.707 E0.54118
G1 X82.384 Y65.422 E0.07219
G1 X86.878 Y69.915 E0.58361
G1 X86.878 Y70.957 E0.09569
G1 X82.058 Y66.137 E0.62605
G1 X81.732 Y66.852 E0.07219
G1 X86.879 Y71.999 E0.66848
G1 X86.879 Y73.041 E0.09569
G1 X81.406 Y67.568 E0.71091
G1 X81.080 Y68.283 E0.07219
G1 X86.880 Y74.083 E0.75334
G1 X86.880 Y75.125 E0.09569
G1 X80.754 Y68.998 E0.79578
G1 X80.427 Y69.713 E0.07219
G1 X86.707 Y75.993 E0.81564
G1 X86.187 Y76.515 E0.06763
G1 X80.101 Y70.429 E0.79045
G1 X79.775 Y71.144 E0.07219
G1 X85.667 Y77.036 E0.76525
G1 X85.147 Y77.557 E0.06763
G1 X79.449 Y71.859 E0.74005
G1 X79.123 Y72.574 E0.07219
G1 X84.627 Y78.078 E0.71485
G1 X84.107 Y78.599 E0.06763
G1 X78.797 Y73.290 E0.68965
G1 X78.471 Y74.005 E0.07219
G1 X83.587 Y79.121 E0.66445
G1 X83.067 Y79.642 E0.06763
G1 X78.145 Y74.720 E0.63926
G1 X77.819 Y75.435 E0.07219
G1 X82.546 Y80.163 E0.61406
G1 X82.026 Y80.684 E0.06763
G1 X77.493 Y76.151 E0.58886
G1 X77.166 Y76.866 E0.07219
G1 X81.506 Y81.206 E0.56366
G1 X80.986 Y81.727 E0.06763
G1 X76.840 Y77.581 E0.53846
G1 X76.514 Y78.296 E0.07219
G1 X80.466 Y82.248 E0.51326
G1 X79.946 Y82.769 E0.06763
G1 X76.188 Y79.012 E0.48806
G1 X75.862 Y79.727 E0.07219
G1 X79.426 Y83.291 E0.46287
G1 X78.906 Y83.812 E0.06763
G1 X75.536 Y80.442 E0.43767
G1 X75.210 Y81.157 E0.07219
G1 X78.386 Y84.333 E0.41247
G1 X77.865 Y84.854 E0.06763
G1 X74.884 Y81.873 E0.38727
G1 X74.558 Y82.588 E0.07219
G1 X77.345 Y85.375 E0.36207
G1 X76.825 Y85.897 E0.06763
G1 X74.129 Y83.200 E0.35022
G1 X73.606 Y83.719 E0.06763
G1 X76.305 Y86.418 E0.35060
G1 X75.785 Y86.939 E0.06763
G1 X73.083 Y84.237 E0.35097
G1 X72.560 Y84.755 E0.06763
G1 X75.265 Y87.460 E0.35134
G1 X74.745 Y87.982 E0.06763
G1 X72.037 Y85.274 E0.35172
G1 X71.514 Y85.792 E0.06763
G1 X74.225 Y88.503 E0.35209
G1 X73.704 Y89.024 E0.06763
G1 X70.991 Y86.310 E0.35247
G1 X70.468 Y86.829 E0.06763
G1 X73.184 Y89.545 E0.35284
G1 X72.664 Y90.067 E0.06763
G1 X69.945 Y87.347 E0.35321
G1 X69.422 Y87.865 E0.06763
G1 X72.144 Y90.588 E0.35359
G1 X71.624 Y91.109 E0.06763
G1 X68.899 Y88.384 E0.35396
G1 X68.376 Y88.902 E0.06763
G1 X71.104 Y91.630 E0.35433
G1 X70.584 Y92.151 E0.06763
G1 X67.853 Y89.421 E0.35471
G1 X67.330 Y89.939 E0.06763
G1 X70.064 Y92.673 E0.35508
G1 X69.543 Y93.194 E0.06763
G1 X66.807 Y90.457 E0.35543
G1 X66.284 Y90.976 E0.06763
G1 X69.023 Y93.714 E0.35573
G1 X68.502 Y94.235 E0.06763
G1 X65.761 Y91.494 E0.35603
G1 X65.238 Y92.012 E0.06763
G1 X67.981 Y94.756 E0.35634
G1 X67.461 Y95.277 E0.06763
G1 X64.715 Y92.531 E0.35664
G1 X64.192 Y93.049 E0.06763
G1 X66.940 Y95.797 E0.35694
G1 X66.419 Y96.318 E0.06763
G1 X63.669 Y93.567 E0.35724
G1 X63.146 Y94.086 E0.06763
G1 X65.899 Y96.839 E0.35754
G1 X65.378 Y97.359 E0.06763
G1 X62.623 Y94.604 E0.35784
G1 X62.100 Y95.122 E0.06763
G1 X64.857 Y97.880 E0.35814
G1 X64.337 Y98.401 E0.06763
G1 X61.577 Y95.641 E0.35844
G1 X61.054 Y96.159 E0.06763
G1 X63.816 Y98.921 E0.35874
G1 X63.295 Y99.442 E0.06763
G1 X60.531 Y96.678 E0.35904
G1 X60.008 Y97.196 E0.06763
G1 X62.775 Y99.963 E0.35934
G1 X62.254 Y100.483 E0.06763
G1 X59.485 Y97.714 E0.35964
G1 X58.962 Y98.233 E0.06763
G1 X61.733 Y101.004 E0.35995
G1 X61.213 Y101.525 E0.06763
G1 X58.439 Y98.751 E0.36025
G1 X57.916 Y99.269 E0.06763
G1 X60.692 Y102.045 E0.36055
G1 X60.171 Y102.566 E0.06763
G1 X57.393 Y99.788 E0.36085
G1 X56.870 Y100.306 E0.06763
G1 X59.651 Y103.087 E0.36115
G1 X59.130 Y103.607 E0.06763
G1 X56.347 Y100.824 E0.36145
G1 X55.824 Y101.343 E0.06763
G1 X58.609 Y104.128 E0.36175
G1 X58.089 Y104.649 E0.06763
G1 X55.301 Y101.861 E0.36205
G1 X54.778 Y102.379 E0.06763
G1 X57.568 Y105.169 E0.36235
G1 X57.047 Y105.690 E0.06763
G1 X54.255 Y102.898 E0.36265
G1 X55.048 Y104.732 F12000.000
G1 X56.527 Y106.211 E0.19200 F900.000
G1 E-3.50000 F2400.00000
G1 X60.584 Y46.746 F12000.000
G1 E3.50000 F2400.00000
G1 X64.054 Y50.216 E0.45069 F900.000
G1 X64.565 Y49.686 E0.06764
G1 X61.103 Y46.224 E0.44968
G1 X61.622 Y45.701 E0.06763
G1 X65.076 Y49.155 E0.44868
G1 X65.587 Y48.625 E0.06764
G1 X62.140 Y45.178 E0.44767
G1 X62.659 Y44.656 E0.06763
G1 X66.098 Y48.094 E0.44666
G1 X66.609 Y47.564 E0.06764
G1 X63.178 Y44.133 E0.44565
G1 X63.696 Y43.610 E0.06763
G1 X67.120 Y47.034 E0.44464
G1 X67.631 Y46.503 E0.06764
G1 X64.215 Y43.088 E0.44363
G1 X64.734 Y42.565 E0.06763
G1 X68.142 Y45.973 E0.44262
G1 X68.652 Y45.442 E0.06764
G1 X65.252 Y42.042 E0.44161
G1 X65.771 Y41.519 E0.06763
G1 X69.163 Y44.912 E0.44060
G1 X69.674 Y44.381 E0.06764
G1 X66.290 Y40.997 E0.43959
G1 X66.808 Y40.474 E0.06763
G1 X70.185 Y43.851 E0.43858
G1 X70.696 Y43.320 E0.06764
G1 X67.327 Y39.951 E0.43757
G1 X67.846 Y39.429 E0.06763
G1 X71.207 Y42.790 E0.43656
G1 X71.718 Y42.260 E0.06764
G1 X68.364 Y38.906 E0.43555
G1 X68.883 Y38.383 E0.06763
G1 X72.229 Y41.729 E0.43454
G1 X72.965 Y41.424 E0.07317
G1 X69.402 Y37.861 E0.46275
G1 X69.920 Y37.338 E0.06763
G1 X73.747 Y41.164 E0.49698
G1 X74.529 Y40.905 E0.07568
G1 X70.439 Y36.815 E0.53121
G1 X70.960 Y36.294 E0.06763
G1 X75.311 Y40.646 E0.56522
G1 X76.093 Y40.387 E0.07568
G1 X71.480 Y35.774 E0.59919
G1 X72.001 Y35.253 E0.06763
G1 X76.876 Y40.128 E0.63316
G1 X77.658 Y39.869 E0.07568
G1 X72.522 Y34.732 E0.66713
G1 X73.042 Y34.212 E0.06763
G1 X86.865 Y48.035 E1.79534
G1 X86.864 Y46.993 E0.09569
G1 X73.563 Y33.691 E1.72763
G1 X74.084 Y33.170 E0.06763
G1 X86.864 Y45.951 E1.65993
G1 X86.863 Y44.909 E0.09569
G1 X74.990 Y33.035 E1.54213
G1 X76.037 Y33.041 E0.09614
G1 X86.863 Y43.867 E1.40610
G1 X86.862 Y42.825 E0.09569
G1 X77.083 Y33.046 E1.27006
G1 X78.130 Y33.052 E0.09614
G1 X86.861 Y41.783 E1.13403
G1 X86.861 Y40.741 E0.09569
G1 X79.177 Y33.057 E0.99799
G1 X80.224 Y33.063 E0.09614
G1 X86.860 Y39.699 E0.86196
G1 X86.860 Y38.657 E0.09569
G1 X81.271 Y33.068 E0.72592
G1 X82.317 Y33.073 E0.09614
G1 X86.859 Y37.615 E0.58989
G1 X86.858 Y36.573 E0.09569
G1 X83.364 Y33.079 E0.45385
G1 X84.411 Y33.084 E0.09614
G1 X86.858 Y35.531 E0.31782
G1 X86.857 Y34.489 E0.09569
G1 X85.458 Y33.090 E0.18178
G1 X86.504 Y33.095 E0.09614
G1 X86.857 Y33.447 E0.04575
G1 E-3.50000 F2400.00000
G1 Z0.600 F12000.000
G1 X77.999 Y40.534 F12000.000
G1 E3.50000 F2400.00000
G1 X72.674 Y42.298 E0.45791 F1800.000
G1 X63.530 Y51.792 E1.07599
G1 X61.048 Y49.482 E0.27679
G1 X59.092 Y47.234 E0.24324
G1 X73.963 Y32.249 E1.72332
G1 X87.636 Y32.320 E1.11623
G1 X87.661 Y76.050 E3.56981
G1 X56.363 Y107.416 E3.61713
G1 X54.451 Y105.457 E0.22346
G1 X52.646 Y103.485 E0.21820
G1 X73.777 Y82.541 E2.42872
G1 X82.384 Y63.665 E1.69356
G1 X82.367 Y46.225 E1.42364
G1 X78.044 Y40.594 E0.57950
G1 X77.802 Y41.174 F12000.000
G1 X72.973 Y42.773 E0.27641 F1800.000
G1 X63.551 Y52.556 E0.73795
G1 X60.655 Y49.862 E0.21490
G1 X58.349 Y47.209 E0.19098
G1 X73.737 Y31.703 E1.18694
G1 X88.181 Y31.778 E0.78481
G1 X88.206 Y76.276 E2.41769
G1 X56.359 Y108.192 E2.44975
G1 X54.055 Y105.831 E0.17921
G1 X51.890 Y103.467 E0.17417
G1 X73.323 Y82.225 E1.63955
G1 X81.838 Y63.547 E1.11532
G1 X81.822 Y46.410 E0.93106
G1 X77.848 Y41.233 E0.35461
G1 X77.593 Y40.719 F12000.000
G1 X75.384 Y40.939 F12000.000
G1 X83.636 Y32.686 E0.96098 F1800.000
G1 X84.565 Y32.691 E0.07648
G1 X76.780 Y40.476 E0.90656
G1 X78.086 Y40.103 E0.11188
G1 X85.494 Y32.696 E0.86257
G1 X86.423 Y32.701 E0.07648
G1 X78.492 Y40.632 E0.92352
G1 X78.897 Y41.160 E0.05483
G1 X87.249 Y32.808 E0.97252
G1 X87.249 Y33.741 E0.07684
G1 X79.303 Y41.688 E0.92537
G1 X79.708 Y42.216 E0.05483
G1 X87.250 Y34.675 E0.87822
G1 X87.250 Y35.608 E0.07683
G1 X80.114 Y42.744 E0.83107
G1 X80.519 Y43.273 E0.05483
G1 X87.251 Y36.541 E0.78392
G1 X87.251 Y37.474 E0.07684
G1 X80.925 Y43.801 E0.73677
G1 X81.330 Y44.329 E0.05483
G1 X87.252 Y38.407 E0.68962
G1 X87.252 Y39.340 E0.07684
G1 X81.735 Y44.857 E0.64247
G1 X82.141 Y45.385 E0.05483
G1 X87.253 Y40.273 E0.59532
G1 X87.254 Y41.206 E0.07683
G1 X82.546 Y45.914 E0.54816
G1 X82.755 Y46.639 E0.06212
G1 X87.254 Y42.139 E0.52393
G1 X87.255 Y43.073 E0.07684
G1 X82.756 Y47.571 E0.52388
G1 X82.757 Y48.504 E0.07681
G1 X87.255 Y44.006 E0.52384
G1 X87.256 Y44.939 E0.07684
G1 X82.758 Y49.437 E0.52380
G1 X82.759 Y50.370 E0.07681
G1 X87.256 Y45.872 E0.52376
G1 X87.257 Y46.805 E0.07684
G1 X82.759 Y51.302 E0.52372
G1 X82.760 Y52.235 E0.07681
G1 X87.257 Y47.738 E0.52367
G1 X87.258 Y48.671 E0.07684
G1 X82.761 Y53.168 E0.52363
G1 X82.762 Y54.101 E0.07681
G1 X87.258 Y49.604 E0.52359
G1 X87.259 Y50.537 E0.07684
G1 X82.763 Y55.033 E0.52355
G1 X82.764 Y55.966 E0.07681
G1 X87.259 Y51.471 E0.52351
G1 X87.260 Y52.404 E0.07684
G1 X82.765 Y56.899 E0.52346
G1 X82.766 Y57.832 E0.07681
G1 X87.260 Y53.337 E0.52342
G1 X87.261 Y54.270 E0.07684
G1 X82.767 Y58.764 E0.52338
G1 X82.767 Y59.697 E0.07681
G1 X87.262 Y55.203 E0.52334
G1 X87.262 Y56.136 E0.07683
G1 X82.768 Y60.630 E0.52330
G1 X82.769 Y61.563 E0.07681
G1 X87.263 Y57.069 E0.52325
G1 X87.263 Y58.002 E0.07684
G1 X82.770 Y62.495 E0.52321
G1 X82.771 Y63.428 E0.07681
G1 X87.264 Y58.936 E0.52317
G1 X87.264 Y59.869 E0.07683
G1 X82.400 Y64.733 E0.56646
G1 X81.617 Y66.449 F12000.000
G1 X87.265 Y60.802 E0.65764 F1800.000
G1 X87.265 Y61.735 E0.07684
G1 X80.835 Y68.165 E0.74881
G1 X80.053 Y69.881 F12000.000
G1 X87.266 Y62.668 E0.83999 F1800.000
G1 X87.266 Y63.601 E0.07684
G1 X79.270 Y71.597 E0.93116
G1 X78.488 Y73.313 F12000.000
G1 X87.267 Y64.534 E1.02234 F1800.000
G1 X87.267 Y65.467 E0.07683
G1 X77.705 Y75.029 E1.11351
G1 X76.923 Y76.746 F12000.000
G1 X87.268 Y66.400 E1.20469 F1800.000
G1 X87.269 Y67.334 E0.07684
G1 X76.140 Y78.462 E1.29586
G1 X75.358 Y80.178 F12000.000
G1 X87.269 Y68.267 E1.38703 F1800.000
G1 X87.273 Y74.798 F12000.000
G1 X55.762 Y106.310 E3.66946 F1800.000
G1 X55.295 Y105.843 E0.05436
G1 X87.272 Y73.865 E3.72376
G1 X87.272 Y72.932 E0.07684
G1 X54.831 Y105.373 E3.77773
G1 X54.380 Y104.890 E0.05439
G1 X87.271 Y71.999 E3.83015
G1 X87.271 Y71.066 E0.07683
G1 X53.934 Y104.403 E3.88205
G1 X53.488 Y103.915 E0.05441
G1 X87.270 Y70.133 E3.93396
G1 X87.270 Y69.200 E0.07684
G1 X74.576 Y81.894 E1.47821
G1 X69.668 Y93.337 F12000.000
G1 X56.229 Y106.776 E1.56503 F1800.000
G1 E-3.50000 F2400.00000
G1 X66.486 Y47.969 F12000.000
G1 E3.50000 F2400.00000
G1 X63.315 Y51.140 E0.36925 F1800.000
G1 X62.831 Y50.690 E0.05440
G1 X80.850 Y32.672 E2.09823
G1 X79.921 Y32.667 E0.07648
G1 X62.348 Y50.240 E2.04639
G1 X61.864 Y49.790 E0.05440
G1 X78.992 Y32.662 E1.99455
G1 X78.063 Y32.658 E0.07648
G1 X61.380 Y49.340 E1.94271
G1 X60.937 Y48.850 E0.05443
G1 X77.134 Y32.653 E1.88621
G1 X76.205 Y32.648 E0.07648
G1 X60.502 Y48.351 E1.82862
G1 X60.068 Y47.852 E0.05449
G1 X75.277 Y32.643 E1.77103
G1 X74.348 Y32.638 E0.07648
G1 X70.372 Y36.614 E0.46298
G1 X72.591 Y41.864 F12000.000
G1 X81.778 Y32.677 E1.06982 F1800.000
G1 X82.707 Y32.682 E0.07648
G1 X73.988 Y41.401 E1.01540
G1 E-3.50000 F2400.00000
G1 Z0.900 F12000.000
G1 X77.999 Y40.534 F12000.000
G1 E3.50000 F2400.00000
G1 X72.674 Y42.298 E0.45791 F1800.000
G1 X63.530 Y51.792 E1.07599
G1 X61.048 Y49.482 E0.27679
G1 X59.092 Y47.234 E0.24324
G1 X73.963 Y32.249 E1.72332
G1 X87.636 Y32.320 E1.11623
G1 X87.661 Y76.050 E3.56981
G1 X56.363 Y107.416 E3.61713
G1 X54.451 Y105.457 E0.22346
G1 X52.646 Y103.485 E0.21820
G1 X73.777 Y82.541 E2.42872
G1 X82.384 Y63.665 E1.69356
G1 X82.367 Y46.225 E1.42364
G1 X78.044 Y40.594 E0.57950
G1 X77.802 Y41.174 F12000.000
G1 X72.973 Y42.773 E0.27641 F1800.000
G1 X63.551 Y52.556 E0.73795
G1 X60.655 Y49.862 E0.21490
G1 X58.349 Y47.209 E0.19098
G1 X73.737 Y31.703 E1.18694
G1 X88.181 Y31.778 E0.78481
G1 X88.206 Y76.276 E2.41769
G1 X56.359 Y108.192 E2.44975
G1 X54.055 Y105.831 E0.17921
G1 X51.890 Y103.467 E0.17417
G1 X73.323 Y82.225 E1.63955
G1 X81.838 Y63.547 E1.11532
G1 X81.822 Y46.410 E0.93106
G1 X77.848 Y41.233 E0.35461
G1 X77.593 Y40.719 F12000.000
G1 X80.824 Y43.392 F12000.000
G1 X87.258 Y49.826 E0.74879 F1800.000
G1 X87.258 Y48.893 E0.07682
G1 X72.537 Y34.172 E1.71309
G1 X73.003 Y33.705 E0.05429
G1 X87.257 Y47.959 E1.65874
G1 X87.257 Y47.026 E0.07682
G1 X73.470 Y33.239 E1.60439
G1 X73.936 Y32.772 E0.05429
G1 X87.256 Y46.092 E1.55004
G1 X87.256 Y45.159 E0.07682
G1 X74.739 Y32.642 E1.45659
G1 X75.677 Y32.647 E0.07717
G1 X87.255 Y44.225 E1.34739
G1 X87.255 Y43.292 E0.07682
G1 X76.614 Y32.651 E1.23819
G1 X77.552 Y32.656 E0.07717
G1 X87.254 Y42.358 E1.12899
G1 X87.254 Y41.425 E0.07682
G1 X78.490 Y32.661 E1.01979
G1 X79.428 Y32.666 E0.07717
G1 X87.253 Y40.491 E0.91059
G1 X87.252 Y39.557 E0.07682
G1 X80.366 Y32.671 E0.80139
G1 X81.304 Y32.676 E0.07717
G1 X87.252 Y38.624 E0.69219
G1 X87.251 Y37.690 E0.07682
G1 X82.242 Y32.681 E0.58298
G1 X83.179 Y32.685 E0.07717
G1 X87.251 Y36.757 E0.47378
G1 X87.250 Y35.823 E0.07682
G1 X84.117 Y32.690 E0.36458
G1 X85.055 Y32.695 E0.07717
G1 X87.250 Y34.890 E0.25538
G1 X87.249 Y33.956 E0.07682
G1 X85.993 Y32.700 E0.14618
G1 X86.931 Y32.705 E0.07717
G1 X87.249 Y33.023 E0.03698
G1 X82.755 Y46.256 F12000.000
G1 X87.259 Y50.760 E0.52413 F1800.000
G1 X87.259 Y51.693 E0.07682
