; generated by Slic3r 1.0.0RC2 on 2014-02-10 at 19:15:41

; layer_height = 0.24
; perimeters = 2
; top_solid_layers = 4
; bottom_solid_layers = 3
; fill_density = 0.3
; perimeter_speed = 20
; infill_speed = 20
; travel_speed = 60
; nozzle_diameter = 0.5
; filament_diameter = 1.75
; extrusion_multiplier = 1
; perimeters extrusion width = 0.50mm
; infill extrusion width = 0.87mm
; solid infill extrusion width = 0.85mm
; top infill extrusion width = 0.85mm

G21 ; set units to millimeters
M140 S65; Set bed temperature
G28 ; Home all axes
G1 Z5 F200 ; lift nozzle
G1 X2 Y50 F2000; Go to wait for warm position
M116; Wait for all temperatures
G10 P0 S185 R0 ; Set extruder temperature
T0; Select extruder
M116; Wait for all temperatures
G90 ; use absolute coordinates
M83 ; use relative distances for extrusion
G1 F1800.000 E-4.00000
G1 X107.920 Y86.393 F3600.000
G1 Z0.240 F3600.000
G1 E4.00000 F1800.000
G1 X108.810 Y85.473 E0.06386 F600.000
G1 X109.880 Y84.743 E0.06462
G1 X111.060 Y84.233 E0.06413
G1 X112.330 Y83.973 E0.06467
G1 X114.250 Y83.773 E0.09631
G1 X116.020 Y83.643 E0.08854
G1 X117.940 Y83.543 E0.09592
G1 X119.540 Y83.503 E0.07985
G1 X121.450 Y83.503 E0.09529
G1 X123.050 Y83.543 E0.07985
G1 X124.810 Y83.633 E0.08792
G1 X126.740 Y83.773 E0.09654
G1 X128.670 Y83.973 E0.09680
G1 X130.000 Y84.263 E0.06791
G1 X131.240 Y84.813 E0.06768
G1 X132.350 Y85.613 E0.06826
G1 X133.260 Y86.623 E0.06782
G1 X133.940 Y87.793 E0.06751
G1 X134.360 Y89.093 E0.06816
G1 X134.500 Y90.443 E0.06771
G1 X134.500 Y96.993 E0.32678
G1 X134.480 Y97.493 E0.02497
G1 X133.480 Y110.493 E0.65049
G1 X133.230 Y111.853 E0.06899
G1 X132.690 Y113.133 E0.06931
G1 X131.900 Y114.263 E0.06879
G1 X130.880 Y115.203 E0.06920
G1 X129.690 Y115.913 E0.06913
G1 X128.380 Y116.343 E0.06879
G1 X127.000 Y116.493 E0.06925
G1 X112.000 Y116.493 E0.74835
G1 X110.730 Y116.373 E0.06364
G1 X109.510 Y116.003 E0.06360
G1 X108.390 Y115.393 E0.06363
G1 X107.400 Y114.593 E0.06350
G1 X106.600 Y113.603 E0.06350
G1 X105.990 Y112.483 E0.06363
G1 X105.620 Y111.263 E0.06360
G1 X105.500 Y109.993 E0.06364
G1 X105.500 Y103.443 E0.32678
G1 X105.520 Y102.943 E0.02497
G1 X106.520 Y89.943 E0.65049
G1 X106.740 Y88.673 E0.06430
G1 X107.220 Y87.473 E0.06448
G1 X107.879 Y86.455 E0.06047
G1 F1800.000 E-4.00000
G1 X118.352 Y104.917 F3600.000
G1 E4.00000 F1800.000
G1 X118.896 Y104.640 E0.03049 F600.000
G1 X119.500 Y104.544 E0.03049
G1 X120.104 Y104.640 E0.03049
G1 X120.648 Y104.917 E0.03049
G1 X121.080 Y105.349 E0.03049
G1 X121.358 Y105.894 E0.03049
G1 X121.453 Y106.497 E0.03049
G1 X121.358 Y107.101 E0.03049
G1 X121.080 Y107.646 E0.03049
G1 X120.648 Y108.078 E0.03049
G1 X120.104 Y108.355 E0.03049
G1 X119.500 Y108.451 E0.03049
G1 X118.896 Y108.355 E0.03049
G1 X118.352 Y108.078 E0.03049
G1 X117.920 Y107.646 E0.03049
G1 X117.642 Y107.101 E0.03049
G1 X117.547 Y106.497 E0.03049
G1 X117.642 Y105.894 E0.03049
G1 X117.920 Y105.349 E0.03049
G1 X118.299 Y104.970 E0.02674
G1 X118.326 Y104.418 F3600.000
G1 X119.869 Y103.959 F3600.000
G1 X119.923 Y103.743 E0.01111 F600.000
G1 X121.865 Y103.792 E0.09690
G1 X123.440 Y103.871 E0.07868
G1 X125.013 Y103.990 E0.07868
G1 X126.250 Y104.115 E0.06205
G1 X126.250 Y109.247 E0.25606
G1 X119.903 Y109.247 E0.31663
G1 X119.854 Y109.043 E0.01048
G1 X120.946 Y108.487 E0.06110
G1 X121.490 Y107.943 E0.03839
G1 X121.839 Y107.258 E0.03839
G1 X121.959 Y106.498 E0.03839
G1 X121.839 Y105.738 E0.03839
G1 X121.490 Y105.052 E0.03839
G1 X120.946 Y104.508 E0.03839
G1 X119.936 Y103.993 E0.05656
G1 X119.131 Y103.959 F3600.000
G1 X118.054 Y104.508 E0.06030 F600.000
G1 X117.510 Y105.052 E0.03839
G1 X117.161 Y105.738 E0.03839
G1 X117.041 Y106.497 E0.03839
G1 X117.161 Y107.257 E0.03839
G1 X117.510 Y107.943 E0.03839
G1 X118.054 Y108.487 E0.03839
G1 X119.146 Y109.043 E0.06110
G1 X119.097 Y109.247 E0.01048
G1 X112.750 Y109.247 E0.31663
G1 X112.750 Y104.115 E0.25606
G1 X113.987 Y103.990 E0.06204
G1 X115.560 Y103.871 E0.07868
G1 X117.135 Y103.792 E0.07868
G1 X119.077 Y103.743 E0.09690
G1 X119.113 Y103.886 E0.00737
G1 X118.705 Y103.253 F3600.000
G1 X120.295 Y103.253 E0.07931 F420.000
G1 X121.884 Y103.292 E0.07931
G1 X123.471 Y103.372 E0.07931
G1 X125.057 Y103.492 E0.07931
G1 X126.750 Y103.663 E0.08491
G1 X126.750 Y109.747 E0.30356
G1 X112.250 Y109.747 E0.72341
G1 X112.250 Y103.663 E0.30356
G1 X113.943 Y103.492 E0.08491
G1 X115.528 Y103.372 E0.07931
G1 X117.116 Y103.292 E0.07931
G1 X118.630 Y103.254 E0.07556
G1 X118.959 Y103.683 F3600.000
G1 F1800.000 E-4.00000
G1 X121.267 Y108.863 F3600.000
G1 E4.00000 F1800.000
G1 X121.191 Y108.786 E0.00976 F600.000
G1 X121.820 Y108.142 E0.08088
G1 X122.541 Y108.863 E0.09156
G1 X123.814 Y108.863 E0.11437
G1 X122.226 Y107.275 E0.20176
G1 X122.279 Y106.054 E0.10972
G1 X125.087 Y108.863 E0.35678
G1 X125.865 Y108.368 E0.08285
G1 X121.669 Y104.172 E0.53306
G1 X123.005 Y104.235 E0.12013
G1 X125.865 Y107.095 E0.36336
G1 X125.865 Y105.822 E0.11437
G1 X124.371 Y104.327 E0.18982
G1 X125.770 Y104.453 E0.12617
G1 X125.865 Y104.548 E0.01211
G1 X119.612 Y103.617 F3600.000
G1 X119.581 Y103.585 E0.00151 F300.000
G1 X119.612 Y103.617 F3600.000
G1 X119.476 Y103.966 E0.01281 F300.000
G1 X119.500 Y103.989 E0.00115 F300.000
G1 X119.426 Y104.202 F3600.000
G1 X119.438 Y104.213 E0.00043 F300.000
G1 F1800.000 E-4.00000
G1 X119.426 Y108.793 F3600.000
G1 E4.00000 F1800.000
G1 X119.456 Y108.824 E0.00113 F300.000
G1 X119.500 Y109.067 F3600.000
G1 X119.520 Y109.086 E0.00080 F300.000
G1 X119.409 Y109.385 E0.00924 F300.000
G1 X119.435 Y109.412 E0.00109 F300.000
G1 F1800.000 E-4.00000
G1 X117.709 Y104.167 F3600.000
G1 E4.00000 F1800.000
G1 X117.777 Y104.235 E0.00782 F600.000
G1 X117.203 Y104.809 E0.06569
G1 X116.603 Y104.208 E0.06875
G1 X115.512 Y104.265 E0.08843
G1 X116.812 Y105.565 E0.14887
G1 X116.656 Y106.557 E0.08126
G1 X114.445 Y104.346 E0.25317
G1 X113.393 Y104.441 E0.08553
G1 X117.774 Y108.822 E0.50157
G1 X116.663 Y108.858 E0.08999
G1 X113.139 Y105.335 E0.40344
G1 X113.139 Y106.482 E0.09290
G1 X115.515 Y108.858 E0.27206
G1 X114.368 Y108.858 E0.09290
G1 X113.139 Y107.630 E0.14067
G1 X113.139 Y108.777 E0.09290
G1 X113.220 Y108.858 E0.00929
G1 F1800.000 E-4.00000
G1 X119.896 Y95.355 F3600.000
G1 E4.00000 F1800.000
G1 X119.352 Y95.078 E0.03049 F600.000
G1 X118.920 Y94.646 E0.03049
G1 X118.642 Y94.101 E0.03049
G1 X118.547 Y93.497 E0.03049
G1 X118.642 Y92.894 E0.03049
G1 X118.920 Y92.349 E0.03049
G1 X119.352 Y91.917 E0.03049
G1 X119.847 Y91.665 E0.02771
G1 X119.896 Y91.640 E0.00277
G1 X120.500 Y91.544 E0.03049
G1 X121.104 Y91.640 E0.03049
G1 X121.648 Y91.917 E0.03049
G1 X122.080 Y92.349 E0.03049
G1 X122.358 Y92.894 E0.03049
G1 X122.453 Y93.497 E0.03049
G1 X122.358 Y94.101 E0.03049
G1 X122.080 Y94.646 E0.03049
G1 X121.648 Y95.078 E0.03049
G1 X121.104 Y95.355 E0.03049
G1 X120.500 Y95.451 E0.03049
G1 X119.971 Y95.367 E0.02674
G1 X119.508 Y95.670 F3600.000
G1 X120.854 Y96.043 F3600.000
G1 X121.946 Y95.487 E0.06110 F600.000
G1 X122.490 Y94.943 E0.03839
G1 X122.839 Y94.258 E0.03839
G1 X122.959 Y93.498 E0.03839
G1 X122.839 Y92.738 E0.03839
G1 X122.490 Y92.052 E0.03839
G1 X121.946 Y91.508 E0.03839
G1 X120.869 Y90.959 E0.06030
G1 X120.923 Y90.743 E0.01111
G1 X122.865 Y90.792 E0.09690
G1 X124.440 Y90.871 E0.07868
G1 X126.013 Y90.990 E0.07868
G1 X127.250 Y91.115 E0.06205
G1 X127.250 Y96.247 E0.25606
G1 X120.903 Y96.247 E0.31663
G1 X120.872 Y96.116 E0.00674
G1 X120.146 Y96.043 F3600.000
G1 X120.097 Y96.247 E0.01048 F600.000
G1 X113.750 Y96.247 E0.31663
G1 X113.750 Y91.115 E0.25606
G1 X114.987 Y90.990 E0.06204
G1 X116.560 Y90.871 E0.07868
G1 X118.135 Y90.792 E0.07868
G1 X120.077 Y90.743 E0.09690
G1 X120.131 Y90.959 E0.01111
G1 X119.054 Y91.508 E0.06030
G1 X118.510 Y92.052 E0.03839
G1 X118.161 Y92.738 E0.03839
G1 X118.041 Y93.497 E0.03839
G1 X118.161 Y94.257 E0.03839
G1 X118.510 Y94.943 E0.03839
G1 X119.054 Y95.487 E0.03839
G1 X120.079 Y96.009 E0.05736
G1 F1800.000 E-4.00000
G1 X119.705 Y90.253 F3600.000
G1 E4.00000 F1800.000
G1 X121.295 Y90.253 E0.07931 F420.000
G1 X122.884 Y90.292 E0.07931
G1 X124.471 Y90.372 E0.07931
G1 X126.057 Y90.492 E0.07931
G1 X127.750 Y90.663 E0.08491
G1 X127.750 Y96.747 E0.30356
G1 X113.250 Y96.747 E0.72341
G1 X113.250 Y90.663 E0.30356
G1 X114.943 Y90.492 E0.08491
G1 X116.528 Y90.372 E0.07931
G1 X118.116 Y90.292 E0.07931
G1 X119.630 Y90.254 E0.07556
G1 X119.959 Y90.683 F3600.000
G1 F1800.000 E-4.00000
G1 X122.267 Y95.863 F3600.000
G1 E4.00000 F1800.000
G1 X122.191 Y95.786 E0.00976 F600.000
G1 X122.820 Y95.142 E0.08088
G1 X123.541 Y95.863 E0.09156
G1 X124.814 Y95.863 E0.11437
G1 X123.226 Y94.275 E0.20176
G1 X123.279 Y93.054 E0.10972
G1 X126.087 Y95.863 E0.35678
G1 X126.865 Y95.368 E0.08285
G1 X122.669 Y91.172 E0.53306
G1 X124.005 Y91.235 E0.12013
G1 X126.865 Y94.095 E0.36336
G1 X126.865 Y92.822 E0.11437
G1 X125.371 Y91.327 E0.18982
G1 X126.770 Y91.453 E0.12617
G1 X126.865 Y91.548 E0.01211
G1 X120.612 Y90.617 F3600.000
G1 X120.581 Y90.585 E0.00151 F300.000
G1 X120.612 Y90.617 F3600.000
G1 X120.476 Y90.966 E0.01281 F300.000
G1 X120.500 Y90.989 E0.00115 F300.000
G1 X120.426 Y91.202 F3600.000
G1 X120.438 Y91.213 E0.00043 F300.000
G1 F1800.000 E-4.00000
G1 X120.426 Y95.793 F3600.000
G1 E4.00000 F1800.000
G1 X120.456 Y95.824 E0.00113 F300.000
G1 X120.500 Y96.067 F3600.000
G1 X120.520 Y96.086 E0.00080 F300.000
G1 X120.409 Y96.385 E0.00924 F300.000
G1 X120.435 Y96.412 E0.00109 F300.000
G1 F1800.000 E-4.00000
G1 X118.709 Y91.167 F3600.000
G1 E4.00000 F1800.000
G1 X118.777 Y91.235 E0.00782 F600.000
G1 X118.203 Y91.809 E0.06569
G1 X117.603 Y91.208 E0.06875
G1 X116.512 Y91.265 E0.08843
G1 X117.812 Y92.565 E0.14887
G1 X117.656 Y93.557 E0.08126
G1 X115.445 Y91.346 E0.25317
G1 X114.393 Y91.441 E0.08553
G1 X118.774 Y95.822 E0.50157
G1 X117.663 Y95.858 E0.08999
G1 X114.139 Y92.335 E0.40344
G1 X114.139 Y93.482 E0.09290
G1 X116.515 Y95.858 E0.27206
G1 X115.368 Y95.858 E0.09290
G1 X114.139 Y94.630 E0.14067
G1 X114.139 Y95.777 E0.09290
G1 X114.220 Y95.858 E0.00929
G1 F1800.000 E-4.00000
G1 Z0.480 F3600.000
G1 X118.819 Y104.680 F3600.000
G1 E4.00000 F1800.000
G1 X118.896 Y104.640 E0.00436 F1200
G1 X119.500 Y104.544 E0.03049
G1 X120.104 Y104.640 E0.03049
G1 X120.648 Y104.917 E0.03049
G1 X121.080 Y105.349 E0.03049
G1 X121.358 Y105.894 E0.03049
G1 X121.453 Y106.497 E0.03049
G1 X121.358 Y107.101 E0.03049
G1 X121.080 Y107.646 E0.03049
G1 X120.648 Y108.078 E0.03049
G1 X120.104 Y108.355 E0.03049
G1 X119.500 Y108.451 E0.03049
G1 X118.896 Y108.355 E0.03049
G1 X118.352 Y108.078 E0.03049
G1 X117.920 Y107.646 E0.03049
G1 X117.642 Y107.101 E0.03049
G1 X117.547 Y106.497 E0.03049
G1 X117.642 Y105.894 E0.03049
G1 X117.920 Y105.349 E0.03049
G1 X118.352 Y104.917 E0.03049
G1 X118.752 Y104.714 E0.02238
G1 X118.823 Y104.592 F3600.000
G1 X119.869 Y103.959 F3600.000
G1 X119.923 Y103.743 E0.01111 F1200
G1 X121.865 Y103.792 E0.09690
G1 X123.440 Y103.871 E0.07868
G1 X125.013 Y103.990 E0.07868
G1 X126.250 Y104.115 E0.06204
G1 X126.250 Y109.247 E0.25606
G1 X119.903 Y109.247 E0.31663
G1 X119.854 Y109.043 E0.01048
G1 X120.946 Y108.487 E0.06110
G1 X121.490 Y107.943 E0.03839
G1 X121.839 Y107.257 E0.03839
G1 X121.959 Y106.497 E0.03839
G1 X121.839 Y105.738 E0.03839
G1 X121.490 Y105.052 E0.03839
G1 X120.946 Y104.508 E0.03839
G1 X119.936 Y103.993 E0.05656
G1 X119.131 Y103.959 F3600.000
G1 X118.054 Y104.508 E0.06030 F1200
G1 X117.510 Y105.052 E0.03839
G1 X117.161 Y105.738 E0.03839
G1 X117.041 Y106.497 E0.03839
G1 X117.161 Y107.257 E0.03839
G1 X117.510 Y107.943 E0.03839
G1 X118.054 Y108.487 E0.03839
G1 X119.146 Y109.043 E0.06110
G1 X119.097 Y109.247 E0.01048
G1 X112.750 Y109.247 E0.31663
G1 X112.750 Y104.115 E0.25606
G1 X113.987 Y103.990 E0.06204
G1 X115.560 Y103.871 E0.07868
G1 X117.135 Y103.792 E0.07868
G1 X119.077 Y103.743 E0.09690
G1 X119.113 Y103.886 E0.00737
G1 X118.705 Y103.253 F3600.000
G1 X120.295 Y103.253 E0.07931 F840
G1 X121.884 Y103.292 E0.07931
G1 X123.471 Y103.372 E0.07931
G1 X125.057 Y103.492 E0.07931
G1 X126.750 Y103.663 E0.08491
G1 X126.750 Y109.747 E0.30356
G1 X112.250 Y109.747 E0.72341
G1 X112.250 Y103.663 E0.30356
G1 X113.943 Y103.492 E0.08491
G1 X115.528 Y103.372 E0.07931
G1 X117.116 Y103.292 E0.07931
G1 X118.630 Y103.254 E0.07556
G1 X118.959 Y103.683 F3600.000
G1 X121.223 Y104.235 F3600.000
G1 X121.291 Y104.167 E0.00782 F1200
G1 X122.397 Y104.208 E0.08960
G1 X121.797 Y104.809 E0.06875
G1 X122.188 Y105.565 E0.06894
G1 X123.488 Y104.265 E0.14887
G1 X124.555 Y104.346 E0.08662
G1 X122.344 Y106.557 E0.25317
G1 X121.226 Y108.822 F3600.000
G1 X125.607 Y104.441 E0.50157 F1200
G1 X125.861 Y105.335 E0.07521
G1 X122.337 Y108.858 E0.40344
G1 X123.485 Y108.858 E0.09290
G1 X125.861 Y106.482 E0.27206
G1 X125.861 Y107.630 E0.09290
G1 X124.632 Y108.858 E0.14067
G1 X125.780 Y108.858 E0.09290
G1 X125.861 Y108.777 E0.00929
G1 X119.574 Y108.793 F3600.000
G1 X119.544 Y108.824 E0.00113 F600
G1 X119.500 Y109.067 F3600.000
G1 X119.480 Y109.086 E0.00080 F600
G1 X119.565 Y109.412 E0.00975 F600
G1 X119.591 Y109.385 E0.00109 F600
G1 F1800.000 E-4.00000
G1 X119.562 Y104.213 F3600.000
G1 E4.00000 F1800.000
G1 X119.574 Y104.202 E0.00043 F600
G1 X119.500 Y103.989 F3600.000
G1 X119.388 Y103.617 E0.01331 F600
G1 X119.419 Y103.585 E0.00151 F600
G1 X119.524 Y103.966 F3600.000
G1 X119.500 Y103.989 E0.00115 F600
G1 F1800.000 E-4.00000
G1 X117.809 Y108.786 F3600.000
G1 E4.00000 F1800.000
G1 X117.733 Y108.863 E0.00976 F1200
G1 X117.180 Y108.142 E0.08158
G1 X116.459 Y108.863 E0.09156
G1 X115.186 Y108.863 E0.11437
G1 X116.774 Y107.275 E0.20176
G1 X116.721 Y106.054 E0.10972
G1 X113.913 Y108.863 E0.35678
G1 X113.135 Y108.368 E0.08285
G1 X117.331 Y104.172 E0.53306
G1 X115.995 Y104.235 E0.12013
G1 X113.135 Y107.095 E0.36336
G1 X113.135 Y105.822 E0.11437
G1 X114.629 Y104.327 E0.18982
G1 X113.230 Y104.453 E0.12617
G1 X113.135 Y104.548 E0.01211
G1 F1800.000 E-4.00000
G1 X119.352 Y95.078 F3600.000
G1 E4.00000 F1800.000
G1 X118.920 Y94.646 E0.03049 F1200
G1 X118.642 Y94.101 E0.03049
G1 X118.547 Y93.497 E0.03049
G1 X118.629 Y92.980 E0.02612
G1 X118.642 Y92.894 E0.00436
G1 X118.920 Y92.349 E0.03049
G1 X119.352 Y91.917 E0.03049
G1 X119.896 Y91.640 E0.03049
G1 X120.500 Y91.544 E0.03049
G1 X121.104 Y91.640 E0.03049
G1 X121.648 Y91.917 E0.03049
G1 X122.080 Y92.349 E0.03049
G1 X122.358 Y92.894 E0.03049
G1 X122.453 Y93.497 E0.03049
G1 X122.358 Y94.101 E0.03049
G1 X122.080 Y94.646 E0.03049
G1 X121.648 Y95.078 E0.03049
G1 X121.104 Y95.355 E0.03049
G1 X120.500 Y95.451 E0.03049
G1 X119.896 Y95.355 E0.03049
G1 X119.419 Y95.112 E0.02674
G1 X118.885 Y95.257 F3600.000
G1 X120.854 Y96.043 F3600.000
G1 X121.946 Y95.487 E0.06110 F1200
G1 X122.490 Y94.943 E0.03839
G1 X122.839 Y94.257 E0.03839
G1 X122.959 Y93.497 E0.03839
G1 X122.839 Y92.738 E0.03839
G1 X122.490 Y92.052 E0.03839
G1 X121.946 Y91.508 E0.03839
G1 X120.869 Y90.959 E0.06030
G1 X120.923 Y90.743 E0.01111
G1 X122.865 Y90.792 E0.09690
G1 X124.440 Y90.871 E0.07868
G1 X126.013 Y90.990 E0.07868
G1 X127.250 Y91.115 E0.06204
G1 X127.250 Y96.247 E0.25606
G1 X120.903 Y96.247 E0.31663
G1 X120.872 Y96.116 E0.00674
G1 X120.146 Y96.043 F3600.000
G1 X120.097 Y96.247 E0.01048 F1200
G1 X113.750 Y96.247 E0.31663
G1 X113.750 Y91.115 E0.25606
G1 X114.987 Y90.990 E0.06204
G1 X116.560 Y90.871 E0.07868
G1 X118.135 Y90.792 E0.07868
G1 X120.077 Y90.743 E0.09690
G1 X120.131 Y90.959 E0.01111
G1 X119.054 Y91.508 E0.06030
G1 X118.510 Y92.052 E0.03839
G1 X118.161 Y92.738 E0.03839
G1 X118.041 Y93.497 E0.03839
G1 X118.161 Y94.257 E0.03839
G1 X118.510 Y94.943 E0.03839
G1 X119.054 Y95.487 E0.03839
G1 X120.079 Y96.009 E0.05736
G1 F1800.000 E-4.00000
G1 X119.705 Y90.253 F3600.000
G1 E4.00000 F1800.000
G1 X121.295 Y90.253 E0.07931 F840
G1 X122.884 Y90.292 E0.07931
G1 X124.471 Y90.372 E0.07931
G1 X126.057 Y90.492 E0.07931
G1 X127.750 Y90.663 E0.08491
G1 X127.750 Y96.747 E0.30356
G1 X113.250 Y96.747 E0.72341
G1 X113.250 Y90.663 E0.30356
G1 X114.943 Y90.492 E0.08491
G1 X116.528 Y90.372 E0.07931
G1 X118.116 Y90.292 E0.07931
G1 X119.630 Y90.254 E0.07556
G1 X119.959 Y90.683 F3600.000
G1 X122.223 Y91.235 F3600.000
G1 X122.291 Y91.167 E0.00782 F1200
G1 X123.397 Y91.208 E0.08960
G1 X122.797 Y91.809 E0.06875
G1 X123.188 Y92.565 E0.06894
