; generated by Slic3r 1.0.0RC2 on 2014-02-17 at 09:25:23

; layer_height = 0.24
; perimeters = 2
; top_solid_layers = 4
; bottom_solid_layers = 3
; fill_density = 0.3
; perimeter_speed = 20
; infill_speed = 20
; travel_speed = 60
; nozzle_diameter = 0.5
; filament_diameter = 1.75
; extrusion_multiplier = 1
; perimeters extrusion width = 0.50mm
; infill extrusion width = 0.87mm
; solid infill extrusion width = 0.85mm
; top infill extrusion width = 0.85mm

G21 ; set units to millimeters
M140 S65; Set bed temperature
G28 X0 Y0; Home all axes
G1 Z5 F200 ; lift nozzle
G1 X2 Y50 F2000; Go to wait for warm position
M116; Wait for all temperatures
G10 P0 S190 R0 ; Set extruder temperature
T0; Select extruder
M116; Wait for all temperatures
G90 ; use absolute coordinates
M83 ; use relative distances for extrusion
G1 F1800.000 E-4.00000
G1 X65.320 Y56.295 F3600.000
G1 Z0.240 F3600.000
G1 E4.00000 F1800.000
G1 X65.750 Y55.795 E0.03290 F600.000
G1 X73.560 Y47.655 E0.56280
G1 X74.020 Y47.225 E0.03141
G1 X75.440 Y46.005 E0.09340
G1 X76.810 Y44.895 E0.08797
G1 X78.080 Y43.925 E0.07973
G1 X79.640 Y42.795 E0.09610
G1 X80.950 Y41.895 E0.07929
G1 X82.550 Y40.855 E0.09521
G1 X84.040 Y39.935 E0.08736
G1 X85.420 Y39.125 E0.07983
G1 X87.090 Y38.215 E0.09488
G1 X88.500 Y37.475 E0.07944
G1 X90.120 Y36.685 E0.08992
G1 X91.720 Y35.955 E0.08774
G1 X93.470 Y35.215 E0.09479
G1 X94.950 Y34.625 E0.07949
G1 X96.780 Y33.955 E0.09723
G1 X98.290 Y33.445 E0.07952
G1 X100.140 Y32.865 E0.09673
G1 X101.670 Y32.435 E0.07929
G1 X103.510 Y31.965 E0.09475
G1 X105.270 Y31.555 E0.09016
G1 X106.840 Y31.245 E0.07984
G1 X108.690 Y30.915 E0.09375
G1 X110.270 Y30.675 E0.07973
G1 X112.180 Y30.435 E0.09604
G1 X113.770 Y30.275 E0.07973
G1 X115.520 Y30.145 E0.08755
G1 X117.440 Y30.045 E0.09592
G1 X119.040 Y30.005 E0.07985
G1 X120.950 Y30.005 E0.09529
G1 X122.550 Y30.045 E0.07985
G1 X124.470 Y30.145 E0.09592
G1 X126.220 Y30.275 E0.08755
G1 X127.810 Y30.435 E0.07973
G1 X129.720 Y30.675 E0.09604
G1 X131.300 Y30.915 E0.07973
G1 X133.150 Y31.245 E0.09375
G1 X134.720 Y31.555 E0.07984
G1 X136.480 Y31.965 E0.09016
G1 X138.320 Y32.435 E0.09475
G1 X139.850 Y32.865 E0.07929
G1 X141.700 Y33.445 E0.09673
G1 X143.210 Y33.955 E0.07952
G1 X145.040 Y34.625 E0.09723
G1 X146.520 Y35.215 E0.07949
G1 X148.270 Y35.955 E0.09479
G1 X149.870 Y36.685 E0.08774
G1 X151.490 Y37.475 E0.08992
G1 X152.900 Y38.215 E0.07944
G1 X154.570 Y39.125 E0.09488
G1 X155.950 Y39.935 E0.07983
G1 X157.440 Y40.855 E0.08736
G1 X159.040 Y41.895 E0.09521
G1 X160.350 Y42.795 E0.07929
G1 X161.910 Y43.925 E0.09610
G1 X163.180 Y44.895 E0.07973
G1 X164.690 Y46.115 E0.09685
G1 X165.910 Y47.155 E0.07998
G1 X167.330 Y48.425 E0.09504
G1 X168.600 Y49.615 E0.08683
G1 X169.740 Y50.735 E0.07973
G1 X171.460 Y52.545 E0.12457
G1 X171.800 Y52.935 E0.02581
G1 X177.000 Y59.375 E0.41296
G1 X177.590 Y60.205 E0.05080
G1 X178.570 Y61.665 E0.08773
G1 X179.610 Y63.305 E0.09688
G1 X180.430 Y64.675 E0.07966
G1 X181.380 Y66.355 E0.09629
G1 X182.190 Y67.875 E0.08593
G1 X182.910 Y69.295 E0.07943
G1 X183.740 Y71.075 E0.09798
G1 X184.380 Y72.535 E0.07953
G1 X185.130 Y74.345 E0.09775
G1 X186.260 Y77.415 E0.16321
G1 X186.870 Y79.305 E0.09908
G1 X187.320 Y80.835 E0.07957
G1 X187.770 Y82.495 E0.08581
G1 X188.230 Y84.375 E0.09656
G1 X188.570 Y85.935 E0.07966
G1 X188.900 Y87.705 E0.08983
G1 X189.210 Y89.555 E0.09358
G1 X189.450 Y91.305 E0.08813
G1 X189.630 Y92.895 E0.07983
G1 X189.800 Y94.805 E0.09567
G1 X189.910 Y96.555 E0.08748
G1 X189.970 Y98.145 E0.07938
G1 X190.000 Y99.875 E0.08632
G1 X189.970 Y101.845 E0.09830
G1 X189.910 Y103.435 E0.07938
G1 X189.800 Y105.185 E0.08748
G1 X189.630 Y107.095 E0.09567
G1 X189.430 Y108.855 E0.08837
G1 X189.210 Y110.435 E0.07959
G1 X188.900 Y112.285 E0.09358
G1 X188.570 Y114.055 E0.08983
G1 X188.230 Y115.615 E0.07966
G1 X187.770 Y117.495 E0.09656
G1 X187.320 Y119.155 E0.08581
G1 X186.870 Y120.685 E0.07957
G1 X186.260 Y122.575 E0.09908
G1 X185.130 Y125.645 E0.16321
G1 X184.380 Y127.455 E0.09775
G1 X183.740 Y128.915 E0.07953
G1 X182.910 Y130.695 E0.09798
G1 X182.190 Y132.115 E0.07943
G1 X181.380 Y133.635 E0.08593
G1 X180.430 Y135.315 E0.09629
G1 X179.610 Y136.685 E0.07966
G1 X178.570 Y138.325 E0.09688
G1 X177.600 Y139.765 E0.08662
G1 X176.680 Y141.065 E0.07946
G1 X175.610 Y142.495 E0.08910
G1 X174.560 Y143.845 E0.08533
G1 X173.300 Y145.365 E0.09850
G1 X172.250 Y146.565 E0.07955
G1 X170.980 Y147.955 E0.09393
G1 X169.740 Y149.255 E0.08963
G1 X168.600 Y150.375 E0.07973
G1 X167.330 Y151.565 E0.08683
G1 X165.910 Y152.835 E0.09504
G1 X164.690 Y153.875 E0.07998
G1 X163.180 Y155.095 E0.09685
G1 X161.910 Y156.065 E0.07973
G1 X160.350 Y157.195 E0.09610
G1 X159.040 Y158.095 E0.07929
G1 X157.440 Y159.135 E0.09521
G1 X155.950 Y160.055 E0.08736
G1 X154.570 Y160.865 E0.07983
G1 X153.010 Y161.725 E0.08887
G1 X151.310 Y162.605 E0.09550
G1 X149.700 Y163.385 E0.08925
G1 X148.210 Y164.055 E0.08151
G1 X146.520 Y164.775 E0.09165
G1 X145.040 Y165.365 E0.07949
G1 X143.210 Y166.035 E0.09723
G1 X141.700 Y166.545 E0.07952
G1 X139.850 Y167.125 E0.09673
G1 X138.320 Y167.555 E0.07929
G1 X136.480 Y168.025 E0.09475
G1 X134.760 Y168.425 E0.08810
G1 X133.190 Y168.745 E0.07994
G1 X131.300 Y169.075 E0.09572
G1 X129.720 Y169.315 E0.07973
G1 X127.810 Y169.555 E0.09604
G1 X126.220 Y169.715 E0.07973
G1 X124.470 Y169.845 E0.08755
G1 X122.550 Y169.945 E0.09592
G1 X120.950 Y169.985 E0.07985
G1 X119.040 Y169.985 E0.09529
G1 X117.440 Y169.945 E0.07985
G1 X115.520 Y169.845 E0.09592
G1 X113.770 Y169.715 E0.08755
G1 X112.180 Y169.555 E0.07973
G1 X110.270 Y169.315 E0.09604
G1 X108.690 Y169.075 E0.07973
G1 X107.000 Y168.785 E0.08555
G1 X105.230 Y168.425 E0.09011
G1 X103.510 Y168.025 E0.08810
G1 X101.670 Y167.555 E0.09475
G1 X100.140 Y167.125 E0.07929
G1 X98.290 Y166.545 E0.09673
G1 X96.780 Y166.035 E0.07952
G1 X94.950 Y165.365 E0.09723
G1 X93.470 Y164.775 E0.07949
G1 X91.720 Y164.035 E0.09479
G1 X90.120 Y163.305 E0.08774
G1 X88.680 Y162.605 E0.07988
G1 X86.980 Y161.725 E0.09550
G1 X85.420 Y160.865 E0.08887
G1 X84.040 Y160.055 E0.07983
G1 X82.550 Y159.135 E0.08736
G1 X80.950 Y158.095 E0.09521
G1 X79.640 Y157.195 E0.07929
G1 X78.080 Y156.065 E0.09610
G1 X76.810 Y155.095 E0.07973
G1 X75.300 Y153.875 E0.09685
G1 X74.080 Y152.835 E0.07998
G1 X72.660 Y151.565 E0.09504
G1 X71.390 Y150.375 E0.08683
G1 X70.250 Y149.255 E0.07973
G1 X69.010 Y147.955 E0.08963
G1 X67.740 Y146.565 E0.09393
G1 X66.690 Y145.365 E0.07955
G1 X65.430 Y143.845 E0.09850
G1 X64.380 Y142.495 E0.08533
G1 X63.310 Y141.065 E0.08910
G1 X62.390 Y139.765 E0.07946
G1 X61.420 Y138.325 E0.08662
G1 X60.380 Y136.685 E0.09688
G1 X59.560 Y135.315 E0.07966
G1 X58.610 Y133.635 E0.09629
G1 X57.800 Y132.115 E0.08593
G1 X57.080 Y130.695 E0.07943
G1 X56.250 Y128.915 E0.09798
G1 X55.610 Y127.455 E0.07953
G1 X54.860 Y125.645 E0.09775
G1 X53.730 Y122.575 E0.16321
G1 X53.120 Y120.685 E0.09908
G1 X52.670 Y119.155 E0.07957
G1 X52.220 Y117.495 E0.08581
G1 X51.760 Y115.615 E0.09656
G1 X51.420 Y114.055 E0.07966
G1 X51.090 Y112.285 E0.08983
G1 X50.780 Y110.435 E0.09358
G1 X50.540 Y108.685 E0.08813
G1 X50.360 Y107.095 E0.07983
G1 X50.190 Y105.185 E0.09567
G1 X50.080 Y103.435 E0.08748
G1 X50.020 Y101.845 E0.07938
G1 X50.000 Y100.075 E0.08831
G1 X50.020 Y98.145 E0.09629
G1 X50.080 Y96.555 E0.07938
G1 X50.190 Y94.805 E0.08748
G1 X50.360 Y92.895 E0.09567
G1 X50.560 Y91.135 E0.08837
G1 X50.780 Y89.555 E0.07959
G1 X51.090 Y87.675 E0.09506
G1 X51.380 Y86.145 E0.07769
G1 X51.750 Y84.405 E0.08875
G1 X52.220 Y82.495 E0.09813
G1 X52.670 Y80.835 E0.08581
G1 X53.120 Y79.305 E0.07957
G1 X53.730 Y77.415 E0.09908
G1 X54.860 Y74.345 E0.16321
G1 X55.610 Y72.535 E0.09775
G1 X56.250 Y71.075 E0.07953
G1 X57.080 Y69.295 E0.09798
G1 X57.800 Y67.875 E0.07943
G1 X58.610 Y66.355 E0.08593
G1 X59.560 Y64.675 E0.09629
G1 X60.380 Y63.305 E0.07966
G1 X61.420 Y61.665 E0.09688
G1 X62.390 Y60.225 E0.08662
G1 X63.310 Y58.925 E0.07946
G1 X64.380 Y57.495 E0.08910
G1 X65.274 Y56.354 E0.07231
G1 F1800.000 E-4.00000
G1 X102.157 Y44.996 F3600.000
G1 E4.00000 F1800.000
G1 X102.047 Y44.300 E0.03517 F600.000
G1 X102.157 Y43.604 E0.03517
G1 X102.477 Y42.975 E0.03519
G1 X102.976 Y42.477 E0.03515
G1 X103.604 Y42.157 E0.03517
G1 X104.300 Y42.047 E0.03517
G1 X104.996 Y42.157 E0.03517
G1 X105.624 Y42.477 E0.03517
G1 X106.123 Y42.975 E0.03515
G1 X106.443 Y43.604 E0.03519
G1 X106.553 Y44.300 E0.03517
G1 X106.443 Y44.996 E0.03517
G1 X106.123 Y45.625 E0.03519
G1 X105.624 Y46.123 E0.03515
G1 X104.996 Y46.443 E0.03517
G1 X104.300 Y46.553 E0.03517
G1 X103.604 Y46.443 E0.03517
G1 X102.976 Y46.123 E0.03517
G1 X102.477 Y45.625 E0.03515
G1 X102.191 Y45.063 E0.03145
G1 X101.674 Y44.867 F3600.000
G1 F1800.000 E-4.00000
G1 X133.947 Y45.300 F3600.000
G1 E4.00000 F1800.000
G1 X134.057 Y44.604 E0.03517 F600.000
G1 X134.377 Y43.975 E0.03519
G1 X134.876 Y43.477 E0.03515
G1 X135.504 Y43.157 E0.03517
G1 X136.200 Y43.047 E0.03517
G1 X136.896 Y43.157 E0.03517
G1 X137.524 Y43.477 E0.03517
G1 X138.023 Y43.975 E0.03515
G1 X138.343 Y44.604 E0.03519
G1 X138.453 Y45.300 E0.03517
G1 X138.343 Y45.996 E0.03517
G1 X138.023 Y46.625 E0.03519
G1 X137.524 Y47.123 E0.03515
G1 X136.896 Y47.443 E0.03517
G1 X136.200 Y47.553 E0.03517
G1 X135.504 Y47.443 E0.03517
G1 X134.876 Y47.123 E0.03517
G1 X134.377 Y46.625 E0.03515
G1 X134.057 Y45.996 E0.03519
G1 X133.959 Y45.374 E0.03142
G1 X133.528 Y45.028 F3600.000
G1 F1800.000 E-4.00000
G1 X143.930 Y46.700 F3600.000
G1 E4.00000 F1800.000
G1 X144.108 Y46.115 E0.03050 F600.000
G1 X144.459 Y45.614 E0.03050
G1 X144.947 Y45.246 E0.03049
G1 X145.525 Y45.048 E0.03049
G1 X146.136 Y45.037 E0.03048
G1 X146.720 Y45.215 E0.03047
G1 X147.221 Y45.566 E0.03049
G1 X147.588 Y46.054 E0.03050
G1 X147.787 Y46.632 E0.03049
G1 X147.798 Y47.243 E0.03050
G1 X147.619 Y47.827 E0.03045
G1 X147.269 Y48.328 E0.03049
G1 X146.781 Y48.696 E0.03049
G1 X146.203 Y48.894 E0.03047
G1 X145.592 Y48.906 E0.03049
G1 X145.008 Y48.726 E0.03050
G1 X144.507 Y48.376 E0.03048
G1 X144.139 Y47.888 E0.03050
G1 X143.940 Y47.310 E0.03049
G1 X143.931 Y46.775 E0.02670
G1 X143.552 Y46.372 F3600.000
G1 F1800.000 E-4.00000
G1 X62.640 Y102.860 F3600.000
G1 E4.00000 F1800.000
G1 X62.955 Y103.384 E0.03048 F600.000
G1 X63.092 Y103.979 E0.03049
G1 X63.039 Y104.588 E0.03049
G1 X62.800 Y105.151 E0.03049
G1 X62.399 Y105.612 E0.03049
G1 X61.875 Y105.926 E0.03048
G1 X61.280 Y106.064 E0.03049
G1 X60.671 Y106.011 E0.03048
G1 X60.109 Y105.772 E0.03048
G1 X59.648 Y105.371 E0.03049
G1 X59.333 Y104.847 E0.03049
G1 X59.195 Y104.252 E0.03049
G1 X59.249 Y103.643 E0.03048
G1 X59.487 Y103.081 E0.03049
G1 X59.888 Y102.620 E0.03049
G1 X60.412 Y102.305 E0.03049
G1 X61.007 Y102.167 E0.03048
G1 X61.616 Y102.221 E0.03049
G1 X62.179 Y102.459 E0.03049
G1 X62.583 Y102.811 E0.02674
G1 X63.136 Y102.799 F3600.000
G1 F1800.000 E-4.00000
G1 X151.157 Y148.245 F3600.000
G1 E4.00000 F1800.000
G1 X151.453 Y147.711 E0.03049 F600.000
G1 X151.900 Y147.294 E0.03049
G1 X152.454 Y147.036 E0.03048
G1 X153.061 Y146.961 E0.03049
G1 X153.660 Y147.078 E0.03049
G1 X154.195 Y147.374 E0.03049
G1 X154.612 Y147.821 E0.03049
G1 X154.870 Y148.375 E0.03049
G1 X154.944 Y148.981 E0.03049
G1 X154.828 Y149.581 E0.03049
G1 X154.531 Y150.116 E0.03049
G1 X154.085 Y150.532 E0.03049
G1 X153.531 Y150.791 E0.03048
G1 X152.924 Y150.865 E0.03049
G1 X152.324 Y150.749 E0.03049
G1 X151.790 Y150.452 E0.03048
G1 X151.373 Y150.005 E0.03049
G1 X151.115 Y149.452 E0.03049
G1 X151.040 Y148.845 E0.03049
G1 X151.143 Y148.319 E0.02675
G1 X150.856 Y147.846 F3600.000
G1 X138.823 Y154.376 F3600.000
G1 X139.143 Y155.004 E0.03517 F600.000
G1 X139.253 Y155.700 E0.03517
G1 X139.143 Y156.396 E0.03517
G1 X138.823 Y157.024 E0.03517
G1 X138.324 Y157.523 E0.03517
G1 X137.696 Y157.843 E0.03517
G1 X137.000 Y157.953 E0.03517
G1 X136.304 Y157.843 E0.03517
G1 X135.676 Y157.523 E0.03517
G1 X135.177 Y157.024 E0.03517
G1 X134.857 Y156.396 E0.03517
G1 X134.747 Y155.700 E0.03517
G1 X134.857 Y155.004 E0.03517
G1 X135.177 Y154.376 E0.03517
G1 X135.676 Y153.877 E0.03517
G1 X136.304 Y153.557 E0.03517
G1 X137.000 Y153.447 E0.03517
G1 X137.696 Y153.557 E0.03517
G1 X138.324 Y153.877 E0.03517
G1 X138.770 Y154.323 E0.03143
G1 X139.322 Y154.350 F3600.000
G1 F1800.000 E-4.00000
G1 X106.253 Y156.100 F3600.000
G1 E4.00000 F1800.000
G1 X106.143 Y156.796 E0.03517 F600.000
G1 X105.823 Y157.424 E0.03517
G1 X105.324 Y157.923 E0.03517
G1 X104.696 Y158.243 E0.03517
G1 X104.000 Y158.353 E0.03517
G1 X103.304 Y158.243 E0.03517
G1 X102.676 Y157.923 E0.03517
G1 X102.177 Y157.424 E0.03517
G1 X101.857 Y156.796 E0.03517
G1 X101.747 Y156.100 E0.03517
G1 X101.857 Y155.404 E0.03517
G1 X102.177 Y154.776 E0.03517
G1 X102.676 Y154.277 E0.03517
G1 X103.304 Y153.957 E0.03517
G1 X104.000 Y153.847 E0.03517
G1 X104.696 Y153.957 E0.03517
G1 X105.324 Y154.277 E0.03517
G1 X105.823 Y154.776 E0.03517
G1 X106.143 Y155.404 E0.03517
G1 X106.241 Y156.026 E0.03143
G1 X106.672 Y156.372 F3600.000
G1 X107.740 Y156.057 F3600.000
G1 X107.563 Y154.942 E0.05631 F420.000
G1 X107.031 Y153.898 E0.05848
G1 X106.202 Y153.069 E0.05849
G1 X105.158 Y152.536 E0.05848
G1 X104.000 Y152.353 E0.05849
G1 X102.842 Y152.536 E0.05849
G1 X102.243 Y152.842 E0.03356
G1 X101.445 Y152.572 E0.04200
G1 X100.130 Y152.089 E0.06990
G1 X98.827 Y151.573 E0.06990
G1 X97.538 Y151.025 E0.06990
G1 X96.263 Y150.444 E0.06990
G1 X95.003 Y149.832 E0.06990
G1 X93.758 Y149.188 E0.06990
G1 X92.513 Y148.503 E0.07089
G1 X91.320 Y147.807 E0.06891
G1 X90.128 Y147.071 E0.06990
G1 X88.954 Y146.306 E0.06990
G1 X87.800 Y145.511 E0.06990
G1 X86.667 Y144.687 E0.06990
G1 X85.554 Y143.836 E0.06990
G1 X84.464 Y142.956 E0.06990
G1 X83.395 Y142.050 E0.06990
G1 X82.350 Y141.116 E0.06990
G1 X81.329 Y140.157 E0.06990
G1 X80.332 Y139.173 E0.06990
G1 X79.360 Y138.164 E0.06990
G1 X78.414 Y137.130 E0.06990
G1 X77.494 Y136.073 E0.06991
G1 X76.601 Y134.994 E0.06990
G1 X75.735 Y133.892 E0.06990
G1 X74.897 Y132.769 E0.06990
G1 X74.088 Y131.625 E0.06991
G1 X73.308 Y130.462 E0.06990
G1 X72.557 Y129.279 E0.06990
G1 X71.836 Y128.077 E0.06990
G1 X71.146 Y126.858 E0.06990
G1 X70.486 Y125.622 E0.06990
G1 X69.858 Y124.369 E0.06990
G1 X69.262 Y123.101 E0.06990
G1 X68.697 Y121.819 E0.06990
G1 X68.165 Y120.523 E0.06990
G1 X67.666 Y119.214 E0.06990
G1 X67.199 Y117.893 E0.06990
G1 X66.761 Y116.541 E0.07090
G1 X66.367 Y115.217 E0.06891
G1 X66.001 Y113.864 E0.06990
G1 X65.670 Y112.503 E0.06990
G1 X65.373 Y111.134 E0.06990
G1 X65.111 Y109.758 E0.06990
G1 X64.883 Y108.375 E0.06990
G1 X64.690 Y106.987 E0.06990
G1 X64.531 Y105.595 E0.06990
G1 X64.408 Y104.199 E0.06991
G1 X64.320 Y102.801 E0.06990
G1 X64.268 Y101.401 E0.06991
G1 X64.250 Y100.000 E0.06990
G1 X64.268 Y98.599 E0.06990
G1 X64.320 Y97.199 E0.06991
G1 X64.408 Y95.801 E0.06990
G1 X64.531 Y94.405 E0.06990
G1 X64.690 Y93.012 E0.06991
G1 X64.727 Y92.750 E0.01322
G1 X99.250 Y92.750 E1.72238
G1 X99.250 Y52.750 E1.99561
G1 X93.250 Y52.750 E0.29934
G1 X93.250 Y87.250 E1.72121
G1 X71.250 Y87.250 E1.09758
G1 X71.250 Y64.750 E1.12253
G1 X90.250 Y64.750 E0.94791
G1 X90.250 Y50.400 E0.71592
G1 X92.250 Y50.400 E0.09978
G1 X92.250 Y50.250 E0.00748
G1 X99.250 Y50.250 E0.34923
G1 X99.250 Y48.259 E0.09933
G1 X100.130 Y47.911 E0.04721
G1 X101.951 Y47.257 E0.09655
G1 X103.142 Y47.863 E0.06669
G1 X104.300 Y48.047 E0.05849
G1 X105.458 Y47.863 E0.05849
G1 X106.502 Y47.331 E0.05848
G1 X107.331 Y46.502 E0.05849
G1 X107.863 Y45.458 E0.05848
G1 X108.047 Y44.300 E0.05848
G1 X107.965 Y43.780 E0.02625
G1 X109.281 Y43.002 E0.07630
G1 X110.526 Y42.368 E0.06973
G1 X111.809 Y41.812 E0.06974
G1 X113.124 Y41.339 E0.06973
G1 X114.467 Y40.949 E0.06974
G1 X115.831 Y40.644 E0.06973
G1 X117.211 Y40.425 E0.06974
G1 X118.603 Y40.293 E0.06974
G1 X120.000 Y40.250 E0.06973
G1 X121.397 Y40.293 E0.06973
G1 X122.789 Y40.425 E0.06974
G1 X124.169 Y40.644 E0.06974
G1 X125.533 Y40.949 E0.06973
G1 X126.876 Y41.339 E0.06974
G1 X128.191 Y41.812 E0.06973
G1 X129.474 Y42.368 E0.06974
G1 X130.719 Y43.002 E0.06973
G1 X131.922 Y43.714 E0.06975
G1 X132.628 Y44.193 E0.04258
G1 X132.453 Y45.300 E0.05590
G1 X132.637 Y46.458 E0.05848
G1 X133.169 Y47.502 E0.05848
G1 X133.998 Y48.331 E0.05849
G1 X135.042 Y48.863 E0.05848
G1 X136.200 Y49.047 E0.05849
