; generated by Slic3r 1.0.0RC2 on 2014-05-02 at 19:13:30

; layer_height = 0.24
; perimeters = 2
; top_solid_layers = 4
; bottom_solid_layers = 3
; fill_density = 0.3
; perimeter_speed = 20
; infill_speed = 20
; travel_speed = 60
; nozzle_diameter = 0.5
; filament_diameter = 1.75
; extrusion_multiplier = 1
; perimeters extrusion width = 0.50mm
; infill extrusion width = 0.87mm
; solid infill extrusion width = 0.85mm
; top infill extrusion width = 0.85mm

G21 ; set units to millimeters
M107
M140 S65; Set bed temperature
G28 ; Home all axes
G1 Z5 F200 ; lift nozzle
G1 X2 Y50 F2000; Go to wait for warm position
M116; Wait for all temperatures
G10 P1 S185 R0 ; Set extruder temperature
T1; Select extruder
M116; Wait for all temperatures
G90 ; use absolute coordinates
M83 ; use relative distances for extrusion
G1 F1800.000 E-4.00000
G1 Z0.240 F3600.000
G1 X80.855 Y63.160 F3600.000
G1 E4.00000 F1800.000
G1 X81.835 Y62.100 E0.07202 F600.000
G1 X83.035 Y61.270 E0.07279
G1 X84.375 Y60.730 E0.07208
G1 X85.805 Y60.510 E0.07218
G1 X151.375 Y57.500 E3.27475
G1 X166.875 Y57.500 E0.77330
G1 X168.145 Y57.620 E0.06364
G1 X169.365 Y57.990 E0.06360
G1 X170.485 Y58.600 E0.06363
G1 X171.475 Y59.400 E0.06350
G1 X172.275 Y60.390 E0.06350
G1 X172.885 Y61.510 E0.06363
G1 X173.255 Y62.730 E0.06360
G1 X173.375 Y64.000 E0.06364
G1 X173.375 Y79.000 E0.74835
G1 X173.365 Y79.410 E0.02046
G1 X170.615 Y122.940 E2.17605
G1 X170.325 Y124.470 E0.07769
G1 X169.685 Y125.900 E0.07816
G1 X168.725 Y127.130 E0.07784
G1 X163.255 Y132.600 E0.38594
G1 X162.265 Y133.410 E0.06382
G1 X161.135 Y134.010 E0.06383
G1 X159.915 Y134.380 E0.06360
G1 X119.385 Y142.380 E2.06106
G1 X118.755 Y142.470 E0.03175
G1 X118.125 Y142.500 E0.03147
G1 X102.625 Y142.500 E0.77330
G1 X101.605 Y142.420 E0.05104
G1 X99.285 Y142.050 E0.11721
G1 X98.285 Y141.810 E0.05131
G1 X97.345 Y141.420 E0.05077
G1 X95.255 Y140.350 E0.11714
G1 X94.655 Y140.000 E0.03465
G1 X94.095 Y139.590 E0.03463
G1 X69.005 Y119.030 E1.61834
G1 X68.005 Y118.000 E0.07162
G1 X67.255 Y116.780 E0.07145
G1 X66.785 Y115.430 E0.07132
G1 X66.625 Y114.000 E0.07179
G1 X66.625 Y98.500 E0.77330
G1 X66.705 Y97.500 E0.05005
G1 X67.065 Y95.180 E0.11713
G1 X67.245 Y94.380 E0.04091
G1 X67.515 Y93.600 E0.04118
G1 X80.135 Y64.420 E1.58611
G1 X80.818 Y63.225 E0.06866
G1 F1800.000 E-4.00000
G1 X125.225 Y71.506 F3600.000
G1 E4.00000 F1800.000
G1 X126.631 Y70.100 E0.09919 F600.000
G1 X128.619 Y70.100 E0.09920
G1 X130.025 Y71.506 E0.09919
G1 X130.025 Y73.494 E0.09920
G1 X128.619 Y74.900 E0.09919
G1 X126.631 Y74.900 E0.09920
G1 X125.225 Y73.494 E0.09919
G1 X125.225 Y71.581 E0.09546
G1 X125.725 Y71.713 F3600.000
G1 X126.838 Y70.600 E0.07852 F600.000
G1 X128.412 Y70.600 E0.07853
G1 X129.525 Y71.713 E0.07852
G1 X129.525 Y73.287 E0.07853
G1 X128.412 Y74.400 E0.07852
G1 X126.838 Y74.400 E0.07853
G1 X125.725 Y73.287 E0.07852
G1 X125.725 Y71.788 E0.07479
G1 X125.475 Y71.280 F3600.000
G1 X99.025 Y71.506 F3600.000
G1 X99.025 Y73.494 E0.09920 F600.000
G1 X97.619 Y74.900 E0.09919
G1 X95.631 Y74.900 E0.09920
G1 X94.225 Y73.494 E0.09919
G1 X94.225 Y71.506 E0.09920
G1 X95.631 Y70.100 E0.09919
G1 X97.619 Y70.100 E0.09920
G1 X98.972 Y71.453 E0.09545
G1 X98.525 Y71.713 F3600.000
G1 X98.525 Y73.287 E0.07853 F600.000
G1 X97.412 Y74.400 E0.07852
G1 X95.838 Y74.400 E0.07853
G1 X94.725 Y73.287 E0.07852
G1 X94.725 Y71.713 E0.07853
G1 X95.838 Y70.600 E0.07852
G1 X97.412 Y70.600 E0.07853
G1 X98.472 Y71.660 E0.07478
G1 X99.008 Y71.842 F3600.000
G1 X101.360 Y99.775 F3600.000
G1 X101.875 Y99.750 E0.02571 F600.000
G1 X102.390 Y99.775 E0.02571
G1 X102.899 Y99.851 E0.02571
G1 X103.399 Y99.976 E0.02570
G1 X103.884 Y100.149 E0.02571
G1 X104.350 Y100.370 E0.02571
G1 X104.792 Y100.635 E0.02571
G1 X105.206 Y100.941 E0.02570
G1 X105.588 Y101.288 E0.02571
G1 X105.934 Y101.669 E0.02570
G1 X106.241 Y102.083 E0.02571
G1 X106.505 Y102.525 E0.02571
G1 X106.726 Y102.991 E0.02571
G1 X106.899 Y103.476 E0.02571
G1 X107.025 Y103.976 E0.02570
G1 X107.100 Y104.485 E0.02571
G1 X107.125 Y105.000 E0.02571
G1 X107.100 Y105.515 E0.02571
G1 X107.025 Y106.024 E0.02571
G1 X106.899 Y106.524 E0.02570
G1 X106.726 Y107.009 E0.02570
G1 X106.505 Y107.475 E0.02571
G1 X106.241 Y107.917 E0.02571
G1 X105.934 Y108.331 E0.02571
G1 X105.588 Y108.712 E0.02570
G1 X105.206 Y109.059 E0.02571
G1 X104.792 Y109.365 E0.02570
G1 X104.350 Y109.630 E0.02571
G1 X103.884 Y109.851 E0.02571
G1 X103.399 Y110.024 E0.02571
G1 X102.899 Y110.149 E0.02570
G1 X102.390 Y110.225 E0.02570
G1 X101.875 Y110.250 E0.02571
G1 X101.360 Y110.225 E0.02571
G1 X100.851 Y110.149 E0.02571
G1 X100.351 Y110.024 E0.02570
G1 X99.866 Y109.851 E0.02571
G1 X99.400 Y109.630 E0.02571
G1 X98.958 Y109.365 E0.02571
G1 X98.544 Y109.059 E0.02570
G1 X98.163 Y108.712 E0.02571
G1 X97.817 Y108.331 E0.02571
G1 X97.510 Y107.917 E0.02570
G1 X97.245 Y107.475 E0.02571
G1 X97.024 Y107.009 E0.02571
G1 X96.851 Y106.524 E0.02571
G1 X96.726 Y106.024 E0.02570
G1 X96.650 Y105.515 E0.02571
G1 X96.625 Y105.000 E0.02571
G1 X96.650 Y104.485 E0.02571
G1 X96.726 Y103.976 E0.02571
G1 X96.851 Y103.476 E0.02570
G1 X97.024 Y102.991 E0.02571
G1 X97.245 Y102.525 E0.02571
G1 X97.510 Y102.083 E0.02571
G1 X97.817 Y101.669 E0.02570
G1 X98.163 Y101.288 E0.02571
G1 X98.544 Y100.941 E0.02571
G1 X98.958 Y100.635 E0.02570
G1 X99.400 Y100.370 E0.02571
G1 X99.866 Y100.149 E0.02571
G1 X100.351 Y99.976 E0.02571
G1 X100.851 Y99.851 E0.02570
G1 X101.286 Y99.786 E0.02196
G1 X101.574 Y99.323 F3600.000
G1 X101.362 Y99.274 F3600.000
G1 X100.753 Y99.360 E0.03070 F600.000
G1 X100.206 Y99.497 E0.02815
G1 X99.674 Y99.687 E0.02816
G1 X99.164 Y99.928 E0.02816
G1 X98.680 Y100.218 E0.02816
G1 X98.227 Y100.554 E0.02815
G1 X97.809 Y100.934 E0.02815
G1 X97.430 Y101.352 E0.02816
G1 X97.093 Y101.805 E0.02815
G1 X96.803 Y102.289 E0.02816
G1 X96.562 Y102.799 E0.02816
G1 X96.372 Y103.331 E0.02816
G1 X96.247 Y103.828 E0.02560
G1 X96.152 Y104.436 E0.03070
G1 X96.124 Y105.000 E0.02816
G1 X96.159 Y105.614 E0.03070
G1 X96.235 Y106.122 E0.02561
G1 X96.372 Y106.669 E0.02815
G1 X96.562 Y107.201 E0.02816
G1 X96.803 Y107.711 E0.02816
G1 X97.093 Y108.195 E0.02816
G1 X97.430 Y108.648 E0.02816
G1 X97.809 Y109.066 E0.02816
G1 X98.227 Y109.446 E0.02816
G1 X98.680 Y109.782 E0.02816
G1 X99.164 Y110.072 E0.02816
G1 X99.674 Y110.313 E0.02816
G1 X100.206 Y110.503 E0.02816
G1 X100.753 Y110.640 E0.02815
G1 X101.311 Y110.723 E0.02816
G1 X101.875 Y110.751 E0.02816
G1 X102.439 Y110.723 E0.02816
G1 X102.997 Y110.640 E0.02816
G1 X103.544 Y110.503 E0.02815
G1 X104.076 Y110.313 E0.02816
G1 X104.586 Y110.072 E0.02816
G1 X105.070 Y109.782 E0.02815
G1 X105.523 Y109.446 E0.02816
G1 X105.942 Y109.066 E0.02816
G1 X106.321 Y108.648 E0.02815
G1 X106.657 Y108.195 E0.02816
G1 X106.947 Y107.711 E0.02816
G1 X107.188 Y107.201 E0.02816
G1 X107.378 Y106.669 E0.02815
G1 X107.569 Y105.909 E0.03909
G1 X107.900 Y105.950 E0.01666
G1 X107.900 Y115.750 E0.48891
G1 X95.275 Y115.750 E0.62986
G1 X95.275 Y110.350 E0.26941
G1 X92.875 Y110.350 E0.11974
G1 X92.875 Y96.250 E0.70345
G1 X92.790 Y96.250 E0.00424
G1 X92.776 Y95.966 E0.01418
G1 X92.477 Y93.952 E0.10160
G1 X91.982 Y91.976 E0.10160
G1 X91.296 Y90.059 E0.10160
G1 X90.875 Y89.168 E0.04916
G1 X90.875 Y73.750 E0.76921
G1 X86.856 Y73.750 E0.20053
G1 X86.856 Y67.750 E0.29934
G1 X131.375 Y67.750 E2.22109
G1 X131.375 Y79.074 E0.56496
G1 X131.101 Y79.143 E0.01408
G1 X129.184 Y79.829 E0.10160
G1 X127.343 Y80.699 E0.10159
G1 X125.596 Y81.746 E0.10160
G1 X124.004 Y82.927 E0.09892
G1 X122.452 Y84.327 E0.10426
G1 X121.084 Y85.836 E0.10160
G1 X119.849 Y87.509 E0.10376
G1 X118.824 Y89.218 E0.09943
G1 X117.954 Y91.059 E0.10160
G1 X117.268 Y92.976 E0.10160
G1 X116.773 Y94.952 E0.10160
G1 X116.474 Y96.966 E0.10160
G1 X116.460 Y97.250 E0.01418
G1 X116.375 Y97.250 E0.00424
G1 X116.375 Y115.750 E0.92297
G1 X110.400 Y115.750 E0.29809
G1 X110.400 Y106.669 E0.45305
G1 X111.131 Y107.400 E0.05157
G1 X113.119 Y107.400 E0.09919
G1 X114.525 Y105.994 E0.09919
G1 X114.525 Y104.006 E0.09920
G1 X113.119 Y102.600 E0.09919
G1 X111.131 Y102.600 E0.09919
G1 X110.400 Y103.331 E0.05157
G1 X110.400 Y91.892 E0.57068
G1 X110.891 Y92.068 E0.02601
G1 X111.296 Y92.169 E0.02082
G1 X111.708 Y92.230 E0.02081
G1 X112.125 Y92.251 E0.02082
G1 X112.542 Y92.230 E0.02080
G1 X112.955 Y92.169 E0.02083
G1 X113.359 Y92.068 E0.02081
G1 X113.752 Y91.927 E0.02081
G1 X114.129 Y91.749 E0.02081
G1 X114.487 Y91.534 E0.02081
G1 X114.822 Y91.286 E0.02081
G1 X115.131 Y91.006 E0.02081
G1 X115.411 Y90.697 E0.02082
G1 X115.660 Y90.362 E0.02081
G1 X115.874 Y90.004 E0.02081
G1 X116.052 Y89.627 E0.02081
G1 X116.193 Y89.234 E0.02081
G1 X116.294 Y88.829 E0.02082
G1 X116.356 Y88.416 E0.02081
G1 X116.376 Y88.000 E0.02080
G1 X116.356 Y87.583 E0.02082
G1 X116.294 Y87.171 E0.02080
G1 X116.193 Y86.766 E0.02082
G1 X116.052 Y86.373 E0.02081
G1 X115.874 Y85.996 E0.02081
G1 X115.660 Y85.638 E0.02081
G1 X115.411 Y85.303 E0.02081
G1 X115.131 Y84.994 E0.02081
G1 X114.822 Y84.714 E0.02081
G1 X114.487 Y84.465 E0.02082
G1 X114.129 Y84.251 E0.02081
G1 X113.788 Y84.090 E0.01883
G1 X113.359 Y83.932 E0.02279
G1 X112.954 Y83.831 E0.02081
G1 X112.542 Y83.770 E0.02082
G1 X112.125 Y83.749 E0.02080
G1 X111.708 Y83.770 E0.02082
G1 X111.296 Y83.831 E0.02081
G1 X110.891 Y83.932 E0.02082
G1 X110.498 Y84.073 E0.02081
G1 X110.157 Y84.234 E0.01882
G1 X109.763 Y84.466 E0.02279
G1 X109.428 Y84.714 E0.02082
G1 X109.119 Y84.994 E0.02081
G1 X108.839 Y85.303 E0.02081
G1 X108.614 Y85.606 E0.01883
G1 X108.376 Y85.996 E0.02279
G1 X108.198 Y86.373 E0.02081
G1 X108.057 Y86.766 E0.02081
G1 X107.956 Y87.171 E0.02081
G1 X107.895 Y87.584 E0.02082
G1 X107.874 Y88.000 E0.02080
G1 X107.900 Y88.453 E0.02265
G1 X107.900 Y104.050 E0.77810
G1 X107.569 Y104.091 E0.01666
G1 X107.378 Y103.331 E0.03909
G1 X107.188 Y102.799 E0.02815
G1 X106.947 Y102.289 E0.02816
G1 X106.657 Y101.805 E0.02816
G1 X106.321 Y101.352 E0.02816
G1 X105.942 Y100.934 E0.02815
G1 X105.523 Y100.554 E0.02816
G1 X105.070 Y100.218 E0.02816
G1 X104.586 Y99.928 E0.02815
G1 X104.076 Y99.687 E0.02816
G1 X103.544 Y99.497 E0.02816
G1 X102.997 Y99.360 E0.02815
G1 X102.439 Y99.277 E0.02816
G1 X101.875 Y99.249 E0.02816
G1 X101.437 Y99.271 E0.02186
G1 X92.375 Y96.750 F3600.000
G1 X92.314 Y96.750 E0.00305 F420.000
G1 X92.278 Y96.015 E0.03671
G1 X91.986 Y94.049 E0.09915
G1 X91.503 Y92.122 E0.09915
G1 X90.834 Y90.251 E0.09915
G1 X90.375 Y89.280 E0.05354
G1 X90.375 Y74.250 E0.74987
G1 X86.356 Y74.250 E0.20053
G1 X86.356 Y67.250 E0.34923
G1 X131.875 Y67.250 E2.27098
G1 X131.875 Y79.464 E0.60937
G1 X131.247 Y79.622 E0.03232
G1 X129.376 Y80.291 E0.09915
G1 X127.579 Y81.141 E0.09914
G1 X125.875 Y82.162 E0.09915
G1 X124.302 Y83.329 E0.09769
G1 X122.806 Y84.681 E0.10059
G1 X121.471 Y86.153 E0.09915
G1 X120.278 Y87.766 E0.10009
G1 X119.266 Y89.454 E0.09820
G1 X118.416 Y91.251 E0.09915
G1 X117.747 Y93.122 E0.09915
G1 X117.264 Y95.049 E0.09914
G1 X116.972 Y97.015 E0.09915
G1 X116.936 Y97.750 E0.03671
G1 X116.875 Y97.750 E0.00305
G1 X116.875 Y116.250 E0.92297
G1 X109.900 Y116.250 E0.34798
G1 X109.900 Y105.462 E0.53821
G1 X111.338 Y106.900 E0.10146
G1 X112.912 Y106.900 E0.07853
G1 X114.025 Y105.787 E0.07853
G1 X114.025 Y104.213 E0.07853
G1 X112.912 Y103.100 E0.07853
G1 X111.338 Y103.100 E0.07853
G1 X109.900 Y104.538 E0.10146
G1 X109.900 Y91.033 E0.67374
G1 X110.357 Y91.307 E0.02659
G1 X110.690 Y91.465 E0.01836
G1 X111.036 Y91.589 E0.01836
G1 X111.393 Y91.678 E0.01836
G1 X111.757 Y91.732 E0.01836
G1 X112.125 Y91.750 E0.01836
G1 X112.493 Y91.732 E0.01836
G1 X112.857 Y91.678 E0.01837
G1 X113.214 Y91.589 E0.01836
G1 X113.560 Y91.465 E0.01836
G1 X113.893 Y91.307 E0.01836
G1 X114.209 Y91.118 E0.01836
G1 X114.504 Y90.899 E0.01836
G1 X114.777 Y90.652 E0.01836
G1 X115.024 Y90.379 E0.01836
G1 X115.243 Y90.084 E0.01836
G1 X115.433 Y89.768 E0.01836
G1 X115.590 Y89.435 E0.01836
G1 X115.714 Y89.089 E0.01836
G1 X115.803 Y88.732 E0.01836
G1 X115.857 Y88.368 E0.01836
G1 X115.875 Y88.000 E0.01836
G1 X115.857 Y87.632 E0.01836
G1 X115.803 Y87.268 E0.01836
G1 X115.714 Y86.911 E0.01837
G1 X115.590 Y86.565 E0.01836
G1 X115.433 Y86.232 E0.01836
G1 X115.243 Y85.916 E0.01836
G1 X115.024 Y85.621 E0.01836
G1 X114.777 Y85.348 E0.01836
G1 X114.504 Y85.101 E0.01836
G1 X114.209 Y84.882 E0.01836
G1 X113.893 Y84.693 E0.01836
G1 X113.574 Y84.542 E0.01760
G1 X113.214 Y84.411 E0.01912
G1 X112.857 Y84.322 E0.01836
G1 X112.493 Y84.268 E0.01836
G1 X112.125 Y84.250 E0.01836
G1 X111.757 Y84.268 E0.01836
G1 X111.393 Y84.322 E0.01836
G1 X111.036 Y84.411 E0.01836
G1 X110.704 Y84.530 E0.01760
G1 X110.357 Y84.693 E0.01912
G1 X110.042 Y84.882 E0.01836
G1 X109.746 Y85.101 E0.01836
G1 X109.473 Y85.348 E0.01836
G1 X109.226 Y85.621 E0.01836
G1 X109.007 Y85.916 E0.01836
G1 X108.818 Y86.232 E0.01836
G1 X108.667 Y86.551 E0.01760
G1 X108.536 Y86.911 E0.01912
G1 X108.447 Y87.268 E0.01836
G1 X108.393 Y87.632 E0.01836
G1 X108.375 Y88.000 E0.01836
G1 X108.400 Y88.416 E0.02081
G1 X108.400 Y116.250 E1.38862
G1 X94.775 Y116.250 E0.67975
G1 X94.775 Y110.850 E0.26941
G1 X92.375 Y110.850 E0.11974
G1 X92.375 Y96.825 E0.69971
G1 X92.375 Y96.689 F3600.000
G1 F1800.000 E-4.00000
G1 X109.909 Y104.941 F3600.000
G1 E4.00000 F1800.000
G1 X110.198 Y105.001 E0.01472 F420.000
G1 X110.446 Y104.417 E0.03162
G1 X110.198 Y105.001 F3600.000
G1 X110.452 Y105.613 E0.03305 F420.000
G1 F1800.000 E-4.00000
G1 X110.789 Y101.800 F3600.000
G1 E4.00000 F1800.000
G1 X111.200 Y102.211 E0.04688 F600.000
G1 X112.344 Y102.211 E0.09237
G1 X110.789 Y100.656 E0.17751
G1 X110.789 Y99.512 E0.09237
G1 X115.986 Y104.708 E0.59329
G1 X115.986 Y103.564 E0.09237
G1 X110.789 Y98.368 E0.59329
G1 X110.789 Y97.223 E0.09237
G1 X115.986 Y102.420 E0.59329
G1 X115.986 Y101.276 E0.09237
G1 X110.789 Y96.079 E0.59329
G1 X110.789 Y94.935 E0.09237
G1 X115.986 Y100.132 E0.59329
G1 X115.986 Y98.988 E0.09237
G1 X110.789 Y93.791 E0.59329
G1 X110.789 Y92.647 E0.09237
G1 X115.986 Y97.843 E0.59329
G1 X116.103 Y96.816 E0.08346
G1 X111.917 Y92.630 E0.47788
G1 X112.989 Y92.558 E0.08670
G1 X116.251 Y95.820 E0.37243
G1 X116.403 Y94.828 E0.08103
G1 X113.873 Y92.297 E0.28886
G1 X114.625 Y91.905 E0.06848
G1 X116.632 Y93.913 E0.22915
G1 X116.861 Y92.998 E0.07615
G1 X115.269 Y91.406 E0.18174
G1 X115.814 Y90.807 E0.06539
G1 X117.152 Y92.144 E0.15274
G1 X117.454 Y91.302 E0.07225
G1 X116.257 Y90.105 E0.13663
G1 X116.581 Y89.285 E0.07117
G1 X117.790 Y90.494 E0.13803
G1 X118.158 Y89.717 E0.06937
G1 X116.750 Y88.310 E0.16067
G1 X116.676 Y87.091 F3600.000
G1 X118.533 Y88.948 E0.21200 F600.000
G1 X118.961 Y88.233 E0.06733
G1 X98.868 Y68.139 E2.29402
G1 X100.012 Y68.139 E0.09237
G1 X119.390 Y87.517 E2.21235
G1 X119.680 Y86.663 E0.07283
G1 X101.156 Y68.139 E2.11482
G1 X102.300 Y68.139 E0.09237
G1 X120.166 Y86.005 E2.03964
G1 X120.659 Y85.353 E0.06593
G1 X103.445 Y68.139 E1.96531
G1 X104.589 Y68.139 E0.09237
G1 X121.203 Y84.753 E1.89679
G1 X121.747 Y84.153 E0.06539
G1 X105.733 Y68.139 E1.82827
G1 X106.877 Y68.139 E0.09237
G1 X122.321 Y83.583 E1.76318
G1 X122.921 Y83.039 E0.06539
G1 X108.021 Y68.139 E1.70108
G1 X109.166 Y68.139 E0.09237
G1 X123.521 Y82.495 E1.63897
G1 X124.175 Y82.005 E0.06598
G1 X110.310 Y68.139 E1.58298
G1 X111.454 Y68.139 E0.09237
G1 X124.832 Y81.517 E1.52736
G1 X125.511 Y81.052 E0.06645
G1 X112.598 Y68.139 E1.47425
G1 X113.742 Y68.139 E0.09237
G1 X126.157 Y80.554 E1.41731
G1 X126.933 Y80.186 E0.06937
G1 X114.886 Y68.139 E1.37537
G1 X116.031 Y68.139 E0.09237
G1 X127.657 Y79.766 E1.32739
G1 X128.373 Y79.337 E0.06733
G1 X117.175 Y68.139 E1.27844
G1 X118.319 Y68.139 E0.09237
G1 X129.291 Y79.111 E1.25267
G1 X130.134 Y78.810 E0.07225
G1 X126.613 Y75.289 E0.40195
G1 X127.757 Y75.289 E0.09237
G1 X130.977 Y78.508 E0.36753
G1 X130.986 Y77.374 E0.09162
G1 X128.841 Y75.229 E0.24488
G1 X129.413 Y74.657 E0.06531
G1 X130.986 Y76.229 E0.17956
G1 X130.986 Y75.085 E0.09237
G1 X130.162 Y74.261 E0.09407
G1 X130.734 Y73.689 E0.06531
G1 X130.986 Y73.941 E0.02875
G1 X130.986 Y70.508 F3600.000
G1 X128.617 Y68.139 E0.27049 F600.000
G1 X129.761 Y68.139 E0.09237
G1 X130.986 Y69.364 E0.13986
G1 X130.986 Y68.220 E0.09237
G1 X130.905 Y68.139 E0.00923
G1 X129.886 Y70.553 F3600.000
G1 X127.472 Y68.139 E0.27553 F600.000
