; generated by Slic3r 1.0.0RC2 on 2014-02-11 at 14:42:35

; layer_height = 0.24
; perimeters = 2
; top_solid_layers = 4
; bottom_solid_layers = 3
; fill_density = 0.3
; perimeter_speed = 20
; infill_speed = 20
; travel_speed = 60
; nozzle_diameter = 0.5
; filament_diameter = 1.75
; extrusion_multiplier = 1
; perimeters extrusion width = 0.50mm
; infill extrusion width = 0.87mm
; solid infill extrusion width = 0.85mm
; top infill extrusion width = 0.85mm

G21 ; set units to millimeters
M140 S65; Set bed temperature
G28 X0 Y0; Home all axes
G1 Z5 F200 ; lift nozzle
G1 X2 Y50 F2000; Go to wait for warm position
M116; Wait for all temperatures
G10 P0 S190 R0 ; Set extruder temperature
T0; Select extruder
M116; Wait for all temperatures
G90 ; use absolute coordinates
M83 ; use relative distances for extrusion
G1 F1800.000 E-4.00000
G1 X62.510 Y69.830 F3600.000
G1 Z0.240 F3600.000
G1 E4.00000 F1800.000
G1 X63.650 Y69.030 E0.06948 F600.000
G1 X64.940 Y68.510 E0.06939
G1 X91.680 Y60.780 E1.38869
G1 X107.550 Y56.480 E0.82031
G1 X108.390 Y56.310 E0.04276
G1 X109.250 Y56.250 E0.04301
G1 X161.000 Y56.250 E2.58182
G1 X162.340 Y56.390 E0.06722
G1 X163.620 Y56.800 E0.06706
G1 X164.780 Y57.460 E0.06658
G1 X165.790 Y58.350 E0.06716
G1 X166.590 Y59.430 E0.06705
G1 X167.150 Y60.650 E0.06697
G1 X179.190 Y95.980 E1.86216
G1 X179.370 Y96.650 E0.03461
G1 X179.490 Y97.330 E0.03445
G1 X179.710 Y99.270 E0.09741
G1 X179.750 Y100.000 E0.03647
G1 X179.750 Y137.250 E1.85841
G1 X179.630 Y138.520 E0.06364
G1 X179.260 Y139.740 E0.06360
G1 X178.650 Y140.860 E0.06363
G1 X177.850 Y141.850 E0.06350
G1 X176.860 Y142.650 E0.06350
G1 X175.740 Y143.260 E0.06363
G1 X174.520 Y143.630 E0.06360
G1 X173.250 Y143.750 E0.06364
G1 X109.250 Y143.750 E3.19297
G1 X108.050 Y143.640 E0.06012
G1 X106.900 Y143.310 E0.05969
G1 X64.400 Y126.810 E2.27452
G1 X63.240 Y126.220 E0.06493
G1 X62.220 Y125.410 E0.06498
G1 X61.390 Y124.420 E0.06445
G1 X60.760 Y123.280 E0.06498
G1 X60.380 Y122.040 E0.06470
G1 X60.250 Y120.750 E0.06468
G1 X60.250 Y74.750 E2.29495
G1 X60.400 Y73.360 E0.06975
G1 X60.840 Y72.040 E0.06942
G1 X61.550 Y70.840 E0.06956
G1 X62.458 Y69.884 E0.06578
G1 F1800.000 E-4.00000
G1 X89.548 Y96.048 F3600.000
G1 E4.00000 F1800.000
G1 X90.047 Y95.666 E0.03134 F600.000
G1 X90.627 Y95.426 E0.03134
G1 X91.250 Y95.344 E0.03134
G1 X91.873 Y95.426 E0.03134
G1 X91.978 Y95.469 E0.00566
G1 X92.453 Y95.666 E0.02568
G1 X92.952 Y96.048 E0.03134
G1 X93.334 Y96.547 E0.03134
G1 X93.574 Y97.127 E0.03134
G1 X93.656 Y97.750 E0.03134
G1 X93.574 Y98.373 E0.03134
G1 X93.334 Y98.953 E0.03134
G1 X92.952 Y99.452 E0.03134
G1 X92.453 Y99.834 E0.03134
G1 X91.873 Y100.074 E0.03134
G1 X91.250 Y100.156 E0.03134
G1 X90.627 Y100.074 E0.03134
G1 X90.522 Y100.031 E0.00566
G1 X90.047 Y99.834 E0.02568
G1 X89.548 Y99.452 E0.03134
G1 X89.166 Y98.953 E0.03134
G1 X89.122 Y98.848 E0.00566
G1 X88.926 Y98.373 E0.02568
G1 X88.844 Y97.750 E0.03134
G1 X88.926 Y97.127 E0.03134
G1 X89.166 Y96.547 E0.03134
G1 X89.503 Y96.108 E0.02760
G1 X89.905 Y96.405 F3600.000
G1 X90.299 Y96.103 E0.02477 F600.000
G1 X90.758 Y95.913 E0.02477
G1 X91.250 Y95.848 E0.02477
G1 X91.786 Y95.931 E0.02708
G1 X92.201 Y96.103 E0.02239
G1 X92.595 Y96.405 E0.02477
G1 X92.897 Y96.799 E0.02477
G1 X93.087 Y97.258 E0.02477
G1 X93.152 Y97.750 E0.02477
G1 X93.087 Y98.242 E0.02477
G1 X92.897 Y98.701 E0.02477
G1 X92.595 Y99.095 E0.02477
G1 X92.201 Y99.397 E0.02477
G1 X91.742 Y99.587 E0.02477
G1 X91.250 Y99.652 E0.02477
G1 X90.714 Y99.569 E0.02708
G1 X90.299 Y99.397 E0.02239
G1 X89.905 Y99.095 E0.02477
G1 X89.584 Y98.657 E0.02708
G1 X89.413 Y98.242 E0.02239
G1 X89.348 Y97.750 E0.02477
G1 X89.413 Y97.258 E0.02477
G1 X89.603 Y96.799 E0.02477
G1 X89.859 Y96.464 E0.02103
G1 X89.797 Y95.920 F3600.000
G1 X83.203 Y75.208 F3600.000
G1 X85.315 Y74.333 E0.11404 F600.000
G1 X87.089 Y72.972 E0.11157
G1 X90.406 Y69.655 E0.23405
G1 X91.941 Y68.476 E0.09656
G1 X93.689 Y67.753 E0.09434
G1 X95.609 Y67.500 E0.09663
G1 X103.500 Y67.500 E0.39370
G1 X103.500 Y128.000 E3.01836
G1 X95.609 Y128.000 E0.39370
G1 X93.689 Y127.747 E0.09663
G1 X91.941 Y127.024 E0.09434
G1 X90.406 Y125.845 E0.09656
G1 X87.089 Y122.528 E0.23405
G1 X85.315 Y121.167 E0.11157
G1 X83.203 Y120.292 E0.11404
G1 X80.985 Y120.000 E0.11157
G1 X67.500 Y120.000 E0.67279
G1 X67.500 Y75.500 E2.22011
G1 X80.985 Y75.500 E0.67279
G1 X83.128 Y75.218 E0.10783
G1 X83.072 Y74.721 F3600.000
G1 X85.062 Y73.897 E0.10748 F420.000
G1 X86.758 Y72.595 E0.10665
G1 X90.076 Y69.278 E0.23405
G1 X91.689 Y68.040 E0.10148
G1 X93.558 Y67.266 E0.10091
G1 X95.576 Y67.000 E0.10155
G1 X104.000 Y67.000 E0.42028
G1 X104.000 Y128.500 E3.06825
G1 X95.576 Y128.500 E0.42028
G1 X93.558 Y128.234 E0.10155
G1 X91.689 Y127.460 E0.10091
G1 X90.076 Y126.222 E0.10148
G1 X86.758 Y122.905 E0.23405
G1 X85.062 Y121.603 E0.10665
G1 X83.072 Y120.779 E0.10748
G1 X80.953 Y120.500 E0.10665
G1 X67.000 Y120.500 E0.69610
G1 X67.000 Y75.000 E2.27000
G1 X80.953 Y75.000 E0.69610
G1 X82.998 Y74.731 E0.10291
G1 X83.441 Y75.059 F3600.000
G1 X103.030 Y67.889 F3600.000
G1 X103.111 Y67.970 E0.00919 F600.000
G1 X103.111 Y69.112 E0.09199
G1 X101.888 Y67.889 E0.13929
G1 X100.746 Y67.889 E0.09199
G1 X103.111 Y70.254 E0.26939
G1 X103.111 Y71.396 E0.09199
G1 X99.604 Y67.889 E0.39949
G1 X98.463 Y67.889 E0.09199
G1 X103.111 Y72.537 E0.52959
G1 X103.111 Y73.679 E0.09199
G1 X97.321 Y67.889 E0.65969
G1 X96.179 Y67.889 E0.09199
G1 X103.111 Y74.821 E0.78978
G1 X103.111 Y75.963 E0.09199
G1 X95.106 Y67.959 E0.91197
G1 X94.097 Y68.092 E0.08199
G1 X103.111 Y77.105 E1.02693
G1 X103.111 Y78.247 E0.09199
G1 X93.229 Y68.365 E1.12592
G1 X92.421 Y68.699 E0.07041
G1 X103.111 Y79.389 E1.21791
G1 X103.111 Y80.530 E0.09199
G1 X91.719 Y69.138 E1.29798
G1 X91.072 Y69.634 E0.06561
G1 X103.111 Y81.672 E1.37159
G1 X103.111 Y82.814 E0.09199
G1 X90.454 Y70.157 E1.44206
G1 X89.883 Y70.728 E0.06505
G1 X103.111 Y83.956 E1.50711
G1 X103.111 Y85.098 E0.09199
G1 X89.312 Y71.299 E1.57216
G1 X88.741 Y71.870 E0.06505
G1 X103.111 Y86.240 E1.63721
G1 X103.111 Y87.382 E0.09199
G1 X88.170 Y72.441 E1.70226
G1 X87.599 Y73.012 E0.06505
G1 X103.111 Y88.523 E1.76731
G1 X103.111 Y89.665 E0.09199
G1 X86.986 Y73.541 E1.83712
G1 X86.340 Y74.037 E0.06561
G1 X103.111 Y90.807 E1.91074
G1 X103.111 Y91.949 E0.09199
G1 X85.694 Y74.533 E1.98435
G1 X84.933 Y74.913 E0.06858
G1 X103.111 Y93.091 E2.07113
G1 X103.111 Y94.233 E0.09199
G1 X84.125 Y75.247 E2.16312
G1 X83.318 Y75.582 E0.07041
G1 X103.111 Y95.375 E2.25511
G1 X103.111 Y96.516 E0.09199
G1 X82.312 Y75.718 E2.36969
G1 X81.303 Y75.851 E0.08199
G1 X103.111 Y97.658 E2.48465
G1 X103.111 Y98.800 E0.09199
G1 X80.200 Y75.889 E2.61037
G1 X79.058 Y75.889 E0.09199
G1 X103.111 Y99.942 E2.74047
G1 X103.111 Y101.084 E0.09199
G1 X77.916 Y75.889 E2.87057
G1 X76.774 Y75.889 E0.09199
G1 X103.111 Y102.226 E3.00066
G1 X103.111 Y103.368 E0.09199
G1 X75.632 Y75.889 E3.13076
G1 X74.490 Y75.889 E0.09199
G1 X103.111 Y104.510 E3.26086
G1 X103.111 Y112.503 F3600.000
G1 X91.143 Y100.535 E1.36352 F600.000
G1 X92.137 Y100.387 E0.08092
G1 X103.111 Y111.361 E1.25034
G1 X103.111 Y110.219 E0.09199
G1 X92.885 Y99.993 E1.16505
G1 X93.461 Y99.427 E0.06505
G1 X103.111 Y109.077 E1.09945
G1 X103.111 Y107.935 E0.09199
G1 X93.865 Y98.689 E1.05344
G1 X94.046 Y97.729 E0.07874
G1 X103.111 Y106.793 E1.03276
G1 X103.111 Y105.651 E0.09199
G1 X73.349 Y75.889 E3.39096
G1 X72.207 Y75.889 E0.09199
G1 X91.271 Y94.954 E2.17211
G1 X90.311 Y95.135 E0.07874
G1 X71.065 Y75.889 E2.19279
G1 X69.923 Y75.889 E0.09199
G1 X89.573 Y95.539 E2.23880
G1 X89.007 Y96.115 E0.06505
G1 X68.781 Y75.889 E2.30441
G1 X67.889 Y76.139 E0.07462
G1 X88.613 Y96.863 E2.36122
G1 X88.465 Y97.857 E0.08092
G1 X67.889 Y77.281 E2.34430
G1 X67.889 Y78.423 E0.09199
G1 X103.111 Y113.644 E4.01297
G1 X103.111 Y114.786 E0.09199
G1 X67.889 Y79.565 E4.01297
G1 X67.889 Y80.707 E0.09199
G1 X103.111 Y115.928 E4.01297
G1 X103.111 Y117.070 E0.09199
G1 X67.889 Y81.849 E4.01297
G1 X67.889 Y82.990 E0.09199
G1 X103.111 Y118.212 E4.01297
G1 X103.111 Y119.354 E0.09199
G1 X67.889 Y84.132 E4.01297
G1 X67.889 Y85.274 E0.09199
G1 X103.111 Y120.496 E4.01297
G1 X103.111 Y121.637 E0.09199
G1 X67.889 Y86.416 E4.01297
G1 X67.889 Y87.558 E0.09199
G1 X103.111 Y122.779 E4.01297
G1 X103.111 Y123.921 E0.09199
G1 X67.889 Y88.700 E4.01297
G1 X67.889 Y89.842 E0.09199
G1 X103.111 Y125.063 E4.01297
G1 X103.111 Y126.205 E0.09199
G1 X67.889 Y90.983 E4.01297
G1 X67.889 Y92.125 E0.09199
G1 X103.111 Y127.347 E4.01297
G1 X102.233 Y127.611 E0.07386
G1 X67.889 Y93.267 E3.91295
G1 X67.889 Y94.409 E0.09199
G1 X101.091 Y127.611 E3.78285
G1 X99.949 Y127.611 E0.09199
G1 X67.889 Y95.551 E3.65275
G1 X67.889 Y96.693 E0.09199
G1 X98.807 Y127.611 E3.52265
G1 X97.665 Y127.611 E0.09199
G1 X67.889 Y97.835 E3.39255
G1 X67.889 Y98.976 E0.09199
G1 X96.524 Y127.611 E3.26246
G1 X95.343 Y127.572 E0.09513
G1 X67.889 Y100.118 E3.12799
G1 X67.889 Y101.260 E0.09199
G1 X94.028 Y127.399 E2.97817
G1 X92.194 Y126.707 F3600.000
G1 X67.889 Y102.402 E2.76917 F600.000
G1 X67.889 Y103.544 E0.09199
G1 X84.932 Y120.587 E1.94181
G1 X83.088 Y119.884 F3600.000
G1 X67.889 Y104.686 E1.73163 F600.000
G1 X67.889 Y105.828 E0.09199
G1 X81.773 Y119.711 E1.58181
G1 X80.530 Y119.611 E0.10040
G1 X67.889 Y106.970 E1.44028
G1 X67.889 Y108.111 E0.09199
G1 X79.389 Y119.611 E1.31018
G1 X78.247 Y119.611 E0.09199
G1 X67.889 Y109.253 E1.18009
G1 X67.889 Y110.395 E0.09199
G1 X77.105 Y119.611 E1.04999
G1 X75.963 Y119.611 E0.09199
G1 X67.889 Y111.537 E0.91989
G1 X67.889 Y112.679 E0.09199
G1 X74.821 Y119.611 E0.78979
G1 X73.679 Y119.611 E0.09199
G1 X67.889 Y113.821 E0.65969
G1 X67.889 Y114.963 E0.09199
G1 X72.537 Y119.611 E0.52959
G1 X71.396 Y119.611 E0.09199
G1 X67.889 Y116.104 E0.39950
G1 X67.889 Y117.246 E0.09199
G1 X70.254 Y119.611 E0.26940
G1 X69.112 Y119.611 E0.09199
G1 X67.889 Y118.388 E0.13930
G1 X67.889 Y119.530 E0.09199
G1 X67.970 Y119.611 E0.00920
G1 F1800.000 E-4.00000
G1 X114.628 Y83.913 F3600.000
G1 E4.00000 F1800.000
G1 X118.163 Y80.378 E0.24945 F600.000
G1 X125.588 Y87.802 E0.52385
G1 X122.052 Y91.338 E0.24945
G1 X114.681 Y83.966 E0.52011
G1 X115.335 Y83.913 F3600.000
G1 X118.163 Y81.085 E0.19956 F600.000
G1 X124.881 Y87.802 E0.47396
G1 X122.052 Y90.631 E0.19956
G1 X115.388 Y83.966 E0.47022
G1 X114.981 Y83.560 F3600.000
G1 X123.123 Y91.916 F3600.000
G1 X125.047 Y89.779 E0.14345 F600.000
G1 X127.373 Y88.089 E0.14345
G1 X130.000 Y86.919 E0.14345
G1 X132.812 Y86.321 E0.14345
G1 X135.688 Y86.321 E0.14345
G1 X138.500 Y86.919 E0.14345
G1 X141.127 Y88.089 E0.14345
G1 X143.453 Y89.779 E0.14345
G1 X145.377 Y91.916 E0.14345
G1 X146.815 Y94.406 E0.14345
G1 X147.704 Y97.140 E0.14345
G1 X148.004 Y100.000 E0.14345
G1 X147.704 Y102.860 E0.14345
G1 X146.815 Y105.594 E0.14345
G1 X145.377 Y108.084 E0.14345
G1 X143.453 Y110.221 E0.14345
G1 X141.127 Y111.911 E0.14345
G1 X138.500 Y113.081 E0.14345
G1 X135.688 Y113.679 E0.14345
G1 X132.812 Y113.679 E0.14346
G1 X130.000 Y113.081 E0.14345
G1 X127.373 Y111.911 E0.14345
G1 X125.047 Y110.221 E0.14345
G1 X123.123 Y108.084 E0.14345
G1 X121.685 Y105.594 E0.14346
G1 X120.796 Y102.860 E0.14345
G1 X120.496 Y100.000 E0.14345
G1 X120.796 Y97.140 E0.14345
G1 X121.685 Y94.406 E0.14345
G1 X123.085 Y91.980 E0.13971
G1 X123.529 Y92.211 F3600.000
G1 X125.383 Y90.152 E0.13821 F420.000
G1 X127.624 Y88.524 E0.13821
G1 X130.155 Y87.397 E0.13821
G1 X132.865 Y86.821 E0.13821
G1 X135.635 Y86.821 E0.13821
G1 X138.345 Y87.397 E0.13821
G1 X140.876 Y88.524 E0.13821
G1 X143.117 Y90.152 E0.13821
G1 X144.971 Y92.211 E0.13821
G1 X146.356 Y94.610 E0.13821
G1 X147.212 Y97.245 E0.13821
G1 X147.501 Y100.000 E0.13821
G1 X147.212 Y102.755 E0.13821
G1 X146.356 Y105.390 E0.13821
G1 X144.971 Y107.789 E0.13821
G1 X143.117 Y109.848 E0.13821
G1 X140.876 Y111.476 E0.13821
G1 X138.345 Y112.603 E0.13821
G1 X135.635 Y113.179 E0.13821
G1 X132.865 Y113.179 E0.13821
G1 X130.155 Y112.603 E0.13821
G1 X127.624 Y111.476 E0.13821
G1 X125.383 Y109.848 E0.13821
G1 X123.529 Y107.789 E0.13821
G1 X122.144 Y105.390 E0.13821
G1 X121.288 Y102.755 E0.13821
G1 X120.999 Y100.000 E0.13821
G1 X121.288 Y97.245 E0.13821
G1 X122.144 Y94.610 E0.13821
G1 X123.492 Y92.276 E0.13447
G1 X123.342 Y91.747 F3600.000
G1 F1800.000 E-4.00000
G1 X142.912 Y112.198 F3600.000
G1 E4.00000 F1800.000
G1 X146.448 Y108.662 E0.24945 F600.000
G1 X153.872 Y116.087 E0.52385
G1 X150.337 Y119.622 E0.24945
G1 X142.965 Y112.251 E0.52011
G1 X143.619 Y112.198 F3600.000
G1 X146.448 Y109.369 E0.19956 F600.000
G1 X153.165 Y116.087 E0.47396
G1 X150.337 Y118.915 E0.19956
G1 X143.672 Y112.251 E0.47022
G1 X143.266 Y111.844 F3600.000
G1 F1800.000 E-4.00000
G1 X159.773 Y102.156 F3600.000
G1 E4.00000 F1800.000
G1 X160.250 Y102.754 E0.03818 F600.000
G1 X160.250 Y136.500 E1.68357
G1 X110.000 Y136.500 E2.50698
G1 X110.000 Y63.500 E3.64198
G1 X160.250 Y63.500 E2.50698
G1 X160.250 Y92.603 E1.45197
G1 X162.916 Y91.863 E0.13804
G1 X164.696 Y91.767 E0.08895
G1 X166.456 Y92.055 E0.08896
G1 X168.112 Y92.715 E0.08895
G1 X169.588 Y93.716 E0.08895
G1 X170.814 Y95.010 E0.08895
G1 X171.734 Y96.538 E0.08896
G1 X172.303 Y98.227 E0.08895
G1 X172.500 Y100.041 E0.09100
G1 X172.500 Y136.500 E1.81896
G1 X166.250 Y136.500 E0.31181
G1 X166.250 Y104.414 E1.60077
G1 X167.348 Y103.885 E0.06082
G1 X168.727 Y102.156 E0.11033
G1 X169.219 Y100.000 E0.11033
G1 X168.727 Y97.844 E0.11033
G1 X167.348 Y96.115 E0.11033
G1 X167.181 Y96.034 E0.00924
G1 X165.356 Y95.155 E0.10110
G1 X163.144 Y95.155 E0.11033
G1 X161.152 Y96.115 E0.11034
G1 X159.773 Y97.844 E0.11033
G1 X159.281 Y100.000 E0.11034
G1 X159.756 Y102.083 E0.10659
G1 X160.235 Y101.934 F3600.000
G1 X160.750 Y102.579 E0.04122 F420.000
G1 X160.750 Y137.000 E1.71725
G1 X109.500 Y137.000 E2.55687
G1 X109.500 Y63.000 E3.69187
G1 X160.750 Y63.000 E2.55687
G1 X160.750 Y91.946 E1.44410
G1 X162.835 Y91.367 E0.10794
G1 X164.724 Y91.264 E0.09438
G1 X166.591 Y91.570 E0.09439
G1 X168.348 Y92.271 E0.09438
G1 X169.914 Y93.332 E0.09438
G1 X171.215 Y94.706 E0.09438
G1 X172.190 Y96.327 E0.09438
G1 X172.794 Y98.119 E0.09438
G1 X173.000 Y100.014 E0.09506
G1 X173.000 Y137.000 E1.84526
G1 X165.750 Y137.000 E0.36170
G1 X165.750 Y104.100 E1.64139
G1 X167.029 Y103.484 E0.07080
G1 X168.265 Y101.934 E0.09895
G1 X168.706 Y100.000 E0.09895
G1 X168.265 Y98.066 E0.09895
G1 X167.029 Y96.516 E0.09895
G1 X166.965 Y96.485 E0.00355
G1 X165.242 Y95.655 E0.09540
G1 X163.258 Y95.655 E0.09895
G1 X161.471 Y96.516 E0.09895
G1 X160.235 Y98.066 E0.09895
G1 X159.794 Y100.000 E0.09895
G1 X160.218 Y101.860 E0.09521
G1 X159.985 Y102.367 F3600.000
G1 X159.861 Y91.229 F3600.000
G1 X132.521 Y63.889 E3.09844 F600.000
G1 X133.657 Y63.889 E0.09102
G1 X159.861 Y90.093 E2.96972
G1 X159.861 Y88.958 E0.09102
G1 X134.792 Y63.889 E2.84099
G1 X135.928 Y63.889 E0.09102
G1 X159.861 Y87.822 E2.71227
G1 X159.861 Y86.686 E0.09102
G1 X137.064 Y63.889 E2.58355
G1 X138.200 Y63.889 E0.09102
G1 X159.861 Y85.550 E2.45483
G1 X159.861 Y84.414 E0.09102
G1 X139.336 Y63.889 E2.32610
G1 X140.472 Y63.889 E0.09102
G1 X159.861 Y83.278 E2.19738
G1 X159.861 Y82.143 E0.09102
G1 X141.607 Y63.889 E2.06866
G1 X142.743 Y63.889 E0.09102
G1 X159.861 Y81.007 E1.93993
G1 X159.861 Y79.871 E0.09102
G1 X143.879 Y63.889 E1.81121
G1 X145.015 Y63.889 E0.09102
G1 X159.861 Y78.735 E1.68249
G1 X159.861 Y77.599 E0.09102
G1 X146.151 Y63.889 E1.55377
G1 X147.286 Y63.889 E0.09102
G1 X159.861 Y76.464 E1.42504
G1 X159.861 Y75.328 E0.09102
G1 X148.422 Y63.889 E1.29632
G1 X149.558 Y63.889 E0.09102
G1 X159.861 Y74.192 E1.16760
G1 X159.861 Y73.056 E0.09102
G1 X150.694 Y63.889 E1.03888
G1 X151.830 Y63.889 E0.09102
G1 X159.861 Y71.920 E0.91015
G1 X159.861 Y70.785 E0.09102
G1 X152.965 Y63.889 E0.78143
G1 X154.101 Y63.889 E0.09102
G1 X159.861 Y69.649 E0.65271
G1 X159.861 Y68.513 E0.09102
G1 X155.237 Y63.889 E0.52398
G1 X156.373 Y63.889 E0.09102
G1 X159.861 Y67.377 E0.39526
G1 X159.861 Y66.241 E0.09102
G1 X157.509 Y63.889 E0.26654
G1 X158.644 Y63.889 E0.09102
G1 X159.861 Y65.106 E0.13782
G1 X159.861 Y63.970 E0.09102
G1 X159.780 Y63.889 E0.00909
G1 X142.392 Y88.526 F3600.000
G1 X117.755 Y63.889 E2.79214 F600.000
G1 X116.620 Y63.889 E0.09102
G1 X139.803 Y87.073 E2.62738
G1 X138.011 Y86.417 F3600.000
