; generated by Slic3r 1.0.0RC2 on 2014-02-10 at 16:33:36

; layer_height = 0.24
; perimeters = 2
; top_solid_layers = 4
; bottom_solid_layers = 3
; fill_density = 0.3
; perimeter_speed = 20
; infill_speed = 20
; travel_speed = 60
; nozzle_diameter = 0.5
; filament_diameter = 1.75
; extrusion_multiplier = 1
; perimeters extrusion width = 0.50mm
; infill extrusion width = 0.87mm
; solid infill extrusion width = 0.85mm
; top infill extrusion width = 0.85mm

G21 ; set units to millimeters
M140 S65; Set bed temperature
G28 X0 Y0; Home all axes
G1 Z5 F200 ; lift nozzle
G1 X2 Y50 F2000; Go to wait for warm position
M116; Wait for all temperatures
G10 P0 S185 R0 ; Set extruder temperature
T0; Select extruder
M116; Wait for all temperatures
G90 ; use absolute coordinates
M83 ; use relative distances for extrusion
G1 F1800.000 E-4.00000
G1 X95.580 Y93.471 F3600.000
G1 Z0.240 F3600.000
G1 E4.00000 F1800.000
G1 X101.480 Y87.581 E0.41592 F600.000
G1 X102.460 Y86.771 E0.06343
G1 X103.590 Y86.171 E0.06383
G1 X104.800 Y85.801 E0.06313
G1 X106.070 Y85.681 E0.06364
G1 X133.920 Y85.681 E1.38944
G1 X135.190 Y85.801 E0.06364
G1 X136.400 Y86.171 E0.06313
G1 X137.530 Y86.771 E0.06383
G1 X138.510 Y87.581 E0.06343
G1 X144.410 Y93.471 E0.41592
G1 X145.220 Y94.461 E0.06382
G1 X145.820 Y95.581 E0.06339
G1 X146.190 Y96.801 E0.06360
G1 X146.320 Y98.071 E0.06369
G1 X146.320 Y107.811 E0.48593
G1 X146.200 Y109.081 E0.06364
G1 X145.830 Y110.301 E0.06360
G1 X145.220 Y111.421 E0.06363
G1 X144.420 Y112.411 E0.06350
G1 X143.430 Y113.211 E0.06350
G1 X142.310 Y113.821 E0.06363
G1 X141.090 Y114.191 E0.06360
G1 X139.820 Y114.311 E0.06364
G1 X100.170 Y114.311 E1.97815
G1 X98.900 Y114.191 E0.06364
G1 X97.680 Y113.821 E0.06360
G1 X96.560 Y113.211 E0.06363
G1 X95.570 Y112.411 E0.06350
G1 X94.770 Y111.421 E0.06350
G1 X94.160 Y110.301 E0.06363
G1 X93.790 Y109.081 E0.06360
G1 X93.670 Y107.811 E0.06364
G1 X93.670 Y98.071 E0.48593
G1 X93.800 Y96.801 E0.06369
G1 X94.170 Y95.581 E0.06360
G1 X94.770 Y94.461 E0.06339
G1 X95.533 Y93.529 E0.06007
G1 F1800.000 E-4.00000
G1 X110.165 Y100.151 F3600.000
G1 E4.00000 F1800.000
G1 X110.349 Y99.757 E0.02165 F600.000
G1 X110.598 Y99.403 E0.02159
G1 X110.902 Y99.099 E0.02148
G1 X111.257 Y98.849 E0.02166
G1 X111.651 Y98.666 E0.02166
G1 X112.066 Y98.556 E0.02144
G1 X112.499 Y98.516 E0.02171
G1 X112.929 Y98.555 E0.02151
G1 X113.348 Y98.666 E0.02166
G1 X113.742 Y98.850 E0.02165
G1 X114.096 Y99.099 E0.02159
G1 X114.400 Y99.403 E0.02148
G1 X114.650 Y99.758 E0.02166
G1 X114.833 Y100.152 E0.02166
G1 X114.944 Y100.570 E0.02156
G1 X114.981 Y101.003 E0.02172
G1 X114.945 Y101.427 E0.02123
G1 X114.833 Y101.849 E0.02178
G1 X114.649 Y102.243 E0.02165
G1 X114.400 Y102.597 E0.02159
G1 X114.096 Y102.901 E0.02148
G1 X113.741 Y103.151 E0.02166
G1 X113.347 Y103.334 E0.02166
G1 X112.932 Y103.444 E0.02145
G1 X112.496 Y103.484 E0.02182
G1 X112.069 Y103.445 E0.02140
G1 X111.650 Y103.334 E0.02164
G1 X111.256 Y103.150 E0.02165
G1 X110.902 Y102.901 E0.02159
G1 X110.598 Y102.597 E0.02148
G1 X110.348 Y102.242 E0.02166
G1 X110.165 Y101.848 E0.02166
G1 X110.055 Y101.433 E0.02144
G1 X110.015 Y101.000 E0.02171
G1 X110.054 Y100.570 E0.02151
G1 X110.146 Y100.223 E0.01791
G1 X110.637 Y100.322 F3600.000
G1 X110.783 Y100.009 E0.01723 F600.000
G1 X110.982 Y99.726 E0.01725
G1 X111.225 Y99.483 E0.01717
G1 X111.508 Y99.284 E0.01727
G1 X111.821 Y99.138 E0.01723
G1 X112.155 Y99.050 E0.01719
G1 X112.498 Y99.018 E0.01723
G1 X112.842 Y99.049 E0.01723
G1 X113.177 Y99.138 E0.01726
G1 X113.490 Y99.284 E0.01723
G1 X113.773 Y99.483 E0.01725
G1 X114.016 Y99.726 E0.01717
G1 X114.215 Y100.009 E0.01727
G1 X114.361 Y100.322 E0.01723
G1 X114.450 Y100.656 E0.01723
G1 X114.479 Y101.002 E0.01729
G1 X114.450 Y101.343 E0.01706
G1 X114.361 Y101.678 E0.01731
G1 X114.215 Y101.991 E0.01723
G1 X114.016 Y102.274 E0.01725
G1 X113.773 Y102.517 E0.01717
G1 X113.490 Y102.716 E0.01727
G1 X113.177 Y102.862 E0.01723
G1 X112.843 Y102.950 E0.01719
G1 X112.497 Y102.982 E0.01733
G1 X112.156 Y102.951 E0.01713
G1 X111.821 Y102.862 E0.01726
G1 X111.508 Y102.716 E0.01723
G1 X111.225 Y102.517 E0.01725
G1 X110.982 Y102.274 E0.01717
G1 X110.783 Y101.991 E0.01727
G1 X110.637 Y101.678 E0.01723
G1 X110.549 Y101.344 E0.01719
G1 X110.517 Y101.001 E0.01723
G1 X110.548 Y100.657 E0.01723
G1 X110.618 Y100.395 E0.01352
G1 X110.422 Y100.051 F3600.000
G1 F1800.000 E-4.00000
G1 X125.015 Y101.000 F3600.000
G1 E4.00000 F1800.000
G1 X125.054 Y100.570 E0.02151 F600.000
G1 X125.165 Y100.151 E0.02166
G1 X125.275 Y99.916 E0.01294
G1 X125.349 Y99.757 E0.00871
G1 X125.598 Y99.403 E0.02159
G1 X125.902 Y99.099 E0.02147
G1 X126.257 Y98.849 E0.02166
G1 X126.651 Y98.666 E0.02166
G1 X127.066 Y98.556 E0.02144
G1 X127.499 Y98.516 E0.02171
G1 X127.929 Y98.555 E0.02151
G1 X128.348 Y98.666 E0.02166
G1 X128.583 Y98.776 E0.01294
G1 X128.742 Y98.850 E0.00871
G1 X129.096 Y99.099 E0.02159
G1 X129.400 Y99.403 E0.02148
G1 X129.650 Y99.758 E0.02166
G1 X129.833 Y100.152 E0.02166
G1 X129.944 Y100.570 E0.02156
G1 X129.981 Y101.003 E0.02172
G1 X129.944 Y101.427 E0.02123
G1 X129.833 Y101.849 E0.02178
G1 X129.723 Y102.084 E0.01294
G1 X129.649 Y102.243 E0.00871
G1 X129.400 Y102.597 E0.02159
G1 X129.096 Y102.901 E0.02147
G1 X128.741 Y103.151 E0.02166
G1 X128.347 Y103.334 E0.02166
G1 X127.932 Y103.444 E0.02145
G1 X127.496 Y103.484 E0.02182
G1 X127.069 Y103.445 E0.02140
G1 X126.650 Y103.334 E0.02164
G1 X126.256 Y103.150 E0.02165
G1 X125.902 Y102.901 E0.02159
G1 X125.598 Y102.597 E0.02148
G1 X125.348 Y102.242 E0.02166
G1 X125.165 Y101.848 E0.02166
G1 X125.055 Y101.433 E0.02144
G1 X125.022 Y101.074 E0.01797
G1 X125.517 Y101.001 F3600.000
G1 X125.548 Y100.657 E0.01723 F600.000
G1 X125.637 Y100.322 E0.01726
G1 X125.783 Y100.009 E0.01723
G1 X125.982 Y99.726 E0.01725
G1 X126.225 Y99.483 E0.01717
G1 X126.508 Y99.284 E0.01727
G1 X126.821 Y99.138 E0.01723
G1 X127.155 Y99.050 E0.01719
G1 X127.498 Y99.018 E0.01723
G1 X127.842 Y99.049 E0.01723
G1 X128.177 Y99.138 E0.01726
G1 X128.372 Y99.229 E0.01074
G1 X128.490 Y99.284 E0.00649
G1 X128.773 Y99.483 E0.01725
G1 X129.016 Y99.726 E0.01717
G1 X129.215 Y100.009 E0.01727
G1 X129.361 Y100.322 E0.01723
G1 X129.450 Y100.656 E0.01723
G1 X129.479 Y101.002 E0.01729
G1 X129.450 Y101.343 E0.01706
G1 X129.361 Y101.678 E0.01731
G1 X129.270 Y101.873 E0.01074
G1 X129.215 Y101.991 E0.00649
G1 X129.016 Y102.274 E0.01725
G1 X128.773 Y102.517 E0.01717
G1 X128.490 Y102.716 E0.01727
G1 X128.177 Y102.862 E0.01723
G1 X127.843 Y102.950 E0.01719
G1 X127.497 Y102.982 E0.01733
G1 X127.156 Y102.951 E0.01713
G1 X126.821 Y102.862 E0.01726
G1 X126.508 Y102.716 E0.01723
G1 X126.225 Y102.517 E0.01725
G1 X125.982 Y102.274 E0.01717
G1 X125.783 Y101.991 E0.01727
G1 X125.637 Y101.678 E0.01723
G1 X125.549 Y101.344 E0.01719
G1 X125.524 Y101.075 E0.01349
G1 X125.223 Y100.819 F3600.000
G1 F1800.000 E-4.00000
G1 X133.614 Y92.931 F3600.000
G1 E4.00000 F1800.000
G1 X139.070 Y98.385 E0.38490 F600.000
G1 X139.070 Y107.069 E0.43323
G1 X100.929 Y107.069 E1.90287
G1 X100.929 Y98.385 E0.43323
G1 X106.384 Y92.931 E0.38487
G1 X133.539 Y92.931 E1.35475
G1 X133.821 Y92.431 F3600.000
G1 X139.570 Y98.178 E0.40556 F420.000
G1 X139.570 Y107.569 E0.46851
G1 X100.429 Y107.569 E1.95276
G1 X100.429 Y98.178 E0.46851
G1 X106.177 Y92.431 E0.40553
G1 X133.746 Y92.431 E1.37541
G1 X133.821 Y92.931 F3600.000
G1 X133.398 Y93.321 F3600.000
G1 X138.680 Y98.603 E0.59773 F600.000
G1 X138.680 Y99.737 E0.09072
G1 X132.264 Y93.321 E0.72603
G1 X131.130 Y93.321 E0.09072
G1 X138.680 Y100.871 E0.85434
G1 X138.680 Y102.005 E0.09072
G1 X129.996 Y93.321 E0.98264
G1 X128.862 Y93.321 E0.09072
G1 X138.680 Y103.139 E1.11094
G1 X138.680 Y104.273 E0.09072
G1 X127.728 Y93.321 E1.23924
G1 X126.594 Y93.321 E0.09072
G1 X138.680 Y105.407 E1.36754
G1 X138.680 Y106.541 E0.09072
G1 X125.460 Y93.321 E1.49584
G1 X124.326 Y93.321 E0.09072
G1 X137.685 Y106.679 E1.51151
G1 X136.551 Y106.679 E0.09072
G1 X130.313 Y100.441 E0.70580
G1 X130.309 Y101.572 F3600.000
G1 X135.417 Y106.679 E0.57792 F600.000
G1 X134.283 Y106.679 E0.09072
G1 X130.005 Y102.402 E0.48403
G1 X129.509 Y103.039 E0.06465
G1 X133.149 Y106.679 E0.41190
G1 X132.015 Y106.679 E0.09072
G1 X128.861 Y103.525 E0.35693
G1 X128.024 Y103.823 E0.07101
G1 X130.881 Y106.679 E0.32323
G1 X129.747 Y106.679 E0.09072
G1 X126.860 Y103.792 E0.32665
G1 F1800.000 E-4.00000
G1 X128.058 Y98.186 F3600.000
G1 E4.00000 F1800.000
G1 X123.192 Y93.321 E0.55055 F600.000
G1 X122.058 Y93.321 E0.09072
G1 X126.927 Y98.190 E0.55091
G1 X126.097 Y98.494 E0.07070
G1 X120.924 Y93.321 E0.58533
G1 X119.790 Y93.321 E0.09072
G1 X125.460 Y98.990 E0.64151
G1 X124.974 Y99.638 E0.06481
G1 X118.656 Y93.321 E0.71485
G1 X117.522 Y93.321 E0.09072
G1 X124.676 Y100.475 E0.80947
G1 X124.706 Y101.638 E0.09313
G1 X116.388 Y93.321 E0.94112
G1 X115.254 Y93.321 E0.09072
G1 X128.613 Y106.679 E1.51151
G1 X127.479 Y106.679 E0.09072
G1 X114.120 Y93.321 E1.51151
G1 X112.987 Y93.321 E0.09072
G1 X126.345 Y106.679 E1.51151
G1 X125.211 Y106.679 E0.09072
G1 X111.853 Y93.321 E1.51151
G1 X110.719 Y93.321 E0.09072
G1 X124.078 Y106.679 E1.51151
G1 X122.944 Y106.679 E0.09072
G1 X109.585 Y93.321 E1.51151
G1 X104.124 Y95.798 F3600.000
G1 X109.654 Y101.327 E0.62567 F600.000
G1 X109.731 Y100.270 E0.08480
G1 X104.691 Y95.231 E0.57020
G1 X105.258 Y94.664 E0.06415
G1 X110.070 Y99.476 E0.54449
G1 X110.589 Y98.861 E0.06438
G1 X105.825 Y94.097 E0.53906
G1 X106.392 Y93.530 E0.06415
G1 X111.274 Y98.412 E0.55236
G1 X112.153 Y98.157 E0.07322
G1 X107.317 Y93.321 E0.54718
G1 X108.451 Y93.321 E0.09072
G1 X113.410 Y98.279 E0.56108
G1 X115.220 Y100.090 F3600.000
G1 X121.810 Y106.679 E0.74560 F600.000
G1 X120.676 Y106.679 E0.09072
G1 X115.342 Y101.346 E0.60344
G1 X115.087 Y102.225 E0.07323
G1 X119.542 Y106.679 E0.50398
G1 X118.408 Y106.679 E0.09072
G1 X114.638 Y102.910 E0.42653
G1 X114.023 Y103.429 E0.06438
G1 X117.274 Y106.679 E0.36782
G1 X116.140 Y106.679 E0.09072
G1 X113.229 Y103.769 E0.32935
G1 X112.172 Y103.845 E0.08480
G1 X115.006 Y106.679 E0.32066
G1 X113.872 Y106.679 E0.09072
G1 X103.557 Y96.365 E1.16709
G1 X102.990 Y96.932 E0.06415
G1 X112.738 Y106.679 E1.10293
G1 X111.604 Y106.679 E0.09072
G1 X102.423 Y97.499 E1.03878
G1 X101.856 Y98.066 E0.06415
G1 X110.470 Y106.679 E0.97463
G1 X109.336 Y106.679 E0.09072
G1 X101.318 Y98.662 E0.90718
G1 X101.318 Y99.796 E0.09072
G1 X108.202 Y106.679 E0.77888
G1 X107.068 Y106.679 E0.09072
G1 X101.318 Y100.930 E0.65058
G1 X101.318 Y102.063 E0.09072
G1 X105.934 Y106.679 E0.52228
G1 X104.800 Y106.679 E0.09072
G1 X101.318 Y103.197 E0.39398
G1 X101.318 Y104.331 E0.09072
G1 X103.666 Y106.679 E0.26568
G1 X102.532 Y106.679 E0.09072
G1 X101.318 Y105.465 E0.13737
G1 X101.318 Y106.599 E0.09072
G1 X101.399 Y106.679 E0.00907
G1 F1800.000 E-4.00000
G1 Z0.480 F3600.000
G1 X110.504 Y102.152 F3600.000
G1 E4.00000 F1800.000
G1 X110.335 Y101.789 E0.02002 F1200
G1 X110.231 Y101.400 E0.02006
G1 X110.195 Y101.001 E0.01998
G1 X110.231 Y100.600 E0.02010
G1 X110.334 Y100.212 E0.02007
G1 X110.504 Y99.848 E0.02003
G1 X110.736 Y99.519 E0.02007
G1 X111.018 Y99.237 E0.01989
G1 X111.347 Y99.005 E0.02007
G1 X111.710 Y98.835 E0.02003
G1 X112.099 Y98.732 E0.02005
G1 X112.498 Y98.696 E0.01998
G1 X112.899 Y98.732 E0.02010
G1 X113.288 Y98.836 E0.02007
G1 X113.651 Y99.005 E0.02003
G1 X113.980 Y99.237 E0.02007
G1 X114.262 Y99.519 E0.01989
G1 X114.494 Y99.848 E0.02007
G1 X114.664 Y100.212 E0.02003
G1 X114.768 Y100.603 E0.02021
G1 X114.801 Y101.001 E0.01995
G1 X114.768 Y101.398 E0.01984
G1 X114.663 Y101.789 E0.02019
G1 X114.494 Y102.152 E0.02003
G1 X114.262 Y102.481 E0.02007
G1 X113.980 Y102.763 E0.01989
G1 X113.651 Y102.995 E0.02007
G1 X113.288 Y103.165 E0.02003
G1 X112.899 Y103.268 E0.02007
G1 X112.498 Y103.304 E0.02009
G1 X112.099 Y103.268 E0.01999
G1 X111.710 Y103.164 E0.02005
G1 X111.347 Y102.995 E0.02003
G1 X111.018 Y102.763 E0.02007
G1 X110.736 Y102.481 E0.01989
G1 X110.548 Y102.214 E0.01633
G1 X110.939 Y101.901 F3600.000
G1 X110.806 Y101.617 E0.01563 F1200
G1 X110.725 Y101.313 E0.01571
G1 X110.697 Y101.001 E0.01561
G1 X110.725 Y100.687 E0.01571
G1 X110.806 Y100.383 E0.01571
G1 X110.939 Y100.099 E0.01563
G1 X111.120 Y99.842 E0.01571
G1 X111.341 Y99.621 E0.01557
G1 X111.598 Y99.440 E0.01571
G1 X111.882 Y99.307 E0.01563
G1 X112.186 Y99.226 E0.01570
G1 X112.498 Y99.198 E0.01561
G1 X112.812 Y99.226 E0.01572
G1 X113.116 Y99.307 E0.01571
G1 X113.400 Y99.440 E0.01563
G1 X113.657 Y99.621 E0.01571
G1 X113.878 Y99.842 E0.01557
G1 X114.059 Y100.099 E0.01572
G1 X114.192 Y100.383 E0.01563
G1 X114.273 Y100.688 E0.01576
G1 X114.299 Y101.001 E0.01566
G1 X114.273 Y101.312 E0.01556
G1 X114.192 Y101.617 E0.01575
G1 X114.059 Y101.901 E0.01563
G1 X113.878 Y102.158 E0.01572
G1 X113.657 Y102.379 E0.01557
G1 X113.400 Y102.560 E0.01572
G1 X113.116 Y102.693 E0.01563
G1 X112.812 Y102.774 E0.01571
G1 X112.498 Y102.802 E0.01571
G1 X112.186 Y102.774 E0.01561
G1 X111.882 Y102.693 E0.01570
G1 X111.598 Y102.560 E0.01563
G1 X111.341 Y102.379 E0.01571
G1 X111.120 Y102.158 E0.01557
G1 X110.982 Y101.962 E0.01197
G1 X110.910 Y101.900 F3600.000
G1 F1800.000 E-4.00000
G1 X125.195 Y101.001 F3600.000
G1 E4.00000 F1800.000
G1 X125.231 Y100.600 E0.02010 F1200
G1 X125.334 Y100.211 E0.02006
G1 X125.504 Y99.848 E0.02003
G1 X125.736 Y99.519 E0.02007
G1 X126.018 Y99.237 E0.01989
G1 X126.347 Y99.005 E0.02007
G1 X126.711 Y98.835 E0.02003
G1 X127.099 Y98.732 E0.02005
G1 X127.498 Y98.696 E0.01998
G1 X127.899 Y98.732 E0.02009
G1 X128.287 Y98.835 E0.02007
G1 X128.651 Y99.005 E0.02003
G1 X128.980 Y99.237 E0.02007
G1 X129.262 Y99.519 E0.01989
G1 X129.494 Y99.848 E0.02007
G1 X129.664 Y100.212 E0.02003
G1 X129.768 Y100.603 E0.02020
G1 X129.801 Y101.001 E0.01995
G1 X129.768 Y101.397 E0.01983
G1 X129.663 Y101.789 E0.02020
G1 X129.494 Y102.152 E0.02003
G1 X129.262 Y102.481 E0.02007
G1 X128.980 Y102.763 E0.01989
G1 X128.651 Y102.995 E0.02008
G1 X128.288 Y103.165 E0.02002
G1 X127.899 Y103.268 E0.02007
G1 X127.498 Y103.304 E0.02009
G1 X127.099 Y103.268 E0.01999
G1 X126.710 Y103.165 E0.02005
G1 X126.347 Y102.995 E0.02003
G1 X126.018 Y102.763 E0.02007
G1 X125.736 Y102.481 E0.01989
G1 X125.504 Y102.152 E0.02007
G1 X125.334 Y101.789 E0.02003
G1 X125.231 Y101.400 E0.02005
G1 X125.202 Y101.076 E0.01624
G1 X125.697 Y101.001 F3600.000
G1 X125.725 Y100.687 E0.01571 F1200
G1 X125.806 Y100.383 E0.01571
G1 X125.939 Y100.099 E0.01563
G1 X126.120 Y99.842 E0.01571
G1 X126.341 Y99.621 E0.01557
G1 X126.598 Y99.440 E0.01571
G1 X126.882 Y99.307 E0.01563
G1 X127.186 Y99.226 E0.01570
G1 X127.498 Y99.198 E0.01561
G1 X127.812 Y99.226 E0.01571
G1 X128.116 Y99.307 E0.01571
G1 X128.400 Y99.440 E0.01563
G1 X128.657 Y99.621 E0.01572
G1 X128.878 Y99.842 E0.01557
G1 X129.059 Y100.099 E0.01571
G1 X129.192 Y100.383 E0.01563
G1 X129.273 Y100.688 E0.01575
G1 X129.299 Y101.001 E0.01566
G1 X129.273 Y101.312 E0.01556
G1 X129.192 Y101.617 E0.01575
G1 X129.059 Y101.901 E0.01563
G1 X128.878 Y102.158 E0.01571
G1 X128.657 Y102.379 E0.01557
G1 X128.400 Y102.560 E0.01572
G1 X128.116 Y102.693 E0.01563
G1 X127.812 Y102.774 E0.01571
G1 X127.498 Y102.802 E0.01571
G1 X127.186 Y102.774 E0.01561
G1 X126.882 Y102.693 E0.01570
G1 X126.598 Y102.560 E0.01563
G1 X126.341 Y102.379 E0.01571
G1 X126.120 Y102.158 E0.01557
G1 X125.939 Y101.901 E0.01571
G1 X125.806 Y101.617 E0.01563
G1 X125.725 Y101.313 E0.01570
G1 X125.704 Y101.076 E0.01187
G1 X125.429 Y100.836 F3600.000
G1 X133.689 Y92.751 F3600.000
G1 X139.250 Y98.310 E0.39226 F1200
G1 X139.250 Y107.249 E0.44598
G1 X100.750 Y107.249 E1.92077
G1 X100.750 Y98.310 E0.44599
G1 X106.309 Y92.751 E0.39219
G1 X133.614 Y92.751 E1.36229
G1 X133.896 Y92.251 F3600.000
G1 X139.750 Y98.103 E0.41293 F840
G1 X139.750 Y107.749 E0.48126
G1 X100.250 Y107.749 E1.97066
G1 X100.250 Y98.103 E0.48126
G1 X106.102 Y92.251 E0.41286
G1 X133.821 Y92.251 E1.38295
G1 X133.897 Y92.751 F3600.000
G1 X126.402 Y98.550 F3600.000
G1 X131.812 Y93.140 E0.62046 F1200
G1 X132.961 Y93.140 E0.09320
G1 X127.772 Y98.330 E0.59516
G1 X128.667 Y98.584 E0.07548
G1 X133.792 Y93.459 E0.58767
G1 X134.366 Y94.034 E0.06590
G1 X129.347 Y99.053 E0.57562
G1 X129.852 Y99.697 E0.06638
G1 X134.941 Y94.608 E0.58355
G1 X135.516 Y95.183 E0.06590
