; generated by Slic3r 1.0.0RC2 on 2014-03-04 at 19:04:39

; layer_height = 0.24
; perimeters = 2
; top_solid_layers = 4
; bottom_solid_layers = 3
; fill_density = 0.3
; perimeter_speed = 20
; infill_speed = 20
; travel_speed = 60
; nozzle_diameter = 0.5
; filament_diameter = 1.75
; extrusion_multiplier = 1
; perimeters extrusion width = 0.50mm
; infill extrusion width = 0.87mm
; solid infill extrusion width = 0.85mm
; top infill extrusion width = 0.85mm
; support material extrusion width = 0.50mm

G21 ; set units to millimeters
M140 S65; Set bed temperature
;G28 ; Home all axes
G1 Z5 F200 ; lift nozzle
G1 X2 Y50 F2000; Go to wait for warm position
M116; Wait for all temperatures
G10 P0 S190 R0 ; Set extruder temperature
T0; Select extruder
M116; Wait for all temperatures
G90 ; use absolute coordinates
M83 ; use relative distances for extrusion
G1 F1800.000 E-4.00000
G1 X77.163 Y71.330 F3600.000
G1 Z0.240 F3600.000
G1 E4.00000 F1800.000
G1 X77.593 Y70.900 E0.03034 F600.000
G1 X78.053 Y70.510 E0.03009
G1 X78.383 Y70.260 E0.02065
G1 X79.153 Y69.760 E0.04580
G1 X79.513 Y69.560 E0.02055
G1 X80.083 Y69.280 E0.03168
G1 X81.063 Y68.930 E0.05192
G1 X81.663 Y68.770 E0.03098
G1 X82.263 Y68.660 E0.03043
G1 X82.853 Y68.580 E0.02970
G1 X83.633 Y68.550 E0.03894
G1 X84.053 Y68.560 E0.02096
G1 X85.113 Y68.670 E0.05317
G1 X98.393 Y71.190 E0.67436
G1 X101.963 Y71.950 E0.18210
G1 X105.653 Y72.910 E0.19022
G1 X171.993 Y92.530 E3.45143
G1 X173.003 Y92.920 E0.05402
G1 X174.643 Y93.720 E0.09104
G1 X175.863 Y94.490 E0.07198
G1 X176.883 Y95.520 E0.07232
G1 X177.653 Y96.750 E0.07240
G1 X178.133 Y98.120 E0.07242
G1 X178.293 Y99.560 E0.07228
G1 X178.293 Y101.080 E0.07583
G1 X178.143 Y102.480 E0.07025
G1 X177.683 Y103.820 E0.07068
G1 X176.953 Y105.030 E0.07050
G1 X163.953 Y122.030 E1.06770
G1 X162.853 Y123.160 E0.07868
G1 X161.503 Y123.990 E0.07906
G1 X159.993 Y124.470 E0.07905
G1 X124.243 Y131.180 E1.81472
G1 X122.643 Y131.380 E0.08045
G1 X121.753 Y131.430 E0.04447
G1 X120.583 Y131.410 E0.05838
G1 X119.693 Y131.330 E0.04458
G1 X118.523 Y131.150 E0.05906
G1 X117.703 Y130.970 E0.04188
G1 X116.563 Y130.640 E0.05921
G1 X115.683 Y130.320 E0.04672
G1 X114.603 Y129.830 E0.05917
G1 X114.073 Y129.560 E0.02968
G1 X66.213 Y102.260 E2.74889
G1 X65.343 Y101.680 E0.05217
G1 X64.573 Y101.040 E0.04995
G1 X64.273 Y100.750 E0.02082
G1 X63.553 Y99.930 E0.05444
G1 X63.303 Y99.590 E0.02105
G1 X62.983 Y99.100 E0.02920
G1 X62.693 Y98.580 E0.02970
G1 X62.513 Y98.210 E0.02053
G1 X62.133 Y97.240 E0.05197
G1 X62.013 Y96.840 E0.02083
G1 X61.793 Y95.760 E0.05499
G1 X61.693 Y94.720 E0.05213
G1 X61.743 Y93.680 E0.05195
G1 X61.873 Y92.750 E0.04685
G1 X61.963 Y92.340 E0.02094
G1 X62.113 Y91.760 E0.02989
G1 X62.483 Y90.830 E0.04994
G1 X62.733 Y90.290 E0.02969
G1 X63.043 Y89.780 E0.02978
G1 X63.543 Y89.050 E0.04414
G1 X76.543 Y72.050 E1.06770
G1 X77.113 Y71.386 E0.04366
G1 F1800.000 E-4.00000
G1 X130.589 Y96.945 F3600.000
G1 E4.00000 F1800.000
G1 X131.033 Y96.311 E0.03864 F600.000
G1 X131.581 Y95.763 E0.03864
G1 X132.215 Y95.319 E0.03864
G1 X132.917 Y94.992 E0.03864
G1 X133.562 Y94.819 E0.03328
G1 X133.665 Y94.791 E0.00536
G1 X134.437 Y94.724 E0.03864
G1 X135.208 Y94.791 E0.03864
G1 X135.956 Y94.992 E0.03864
G1 X136.658 Y95.319 E0.03864
G1 X137.293 Y95.763 E0.03864
G1 X137.840 Y96.311 E0.03864
G1 X138.284 Y96.945 E0.03864
G1 X138.612 Y97.647 E0.03864
G1 X138.784 Y98.291 E0.03328
G1 X138.812 Y98.395 E0.00536
G1 X138.880 Y99.167 E0.03864
G1 X138.812 Y99.938 E0.03864
G1 X138.612 Y100.686 E0.03864
G1 X138.284 Y101.388 E0.03864
G1 X137.840 Y102.022 E0.03864
G1 X137.293 Y102.570 E0.03864
G1 X136.658 Y103.014 E0.03864
G1 X135.956 Y103.342 E0.03864
G1 X135.208 Y103.542 E0.03864
G1 X134.437 Y103.609 E0.03864
G1 X133.665 Y103.542 E0.03864
G1 X132.917 Y103.342 E0.03864
G1 X132.215 Y103.014 E0.03864
G1 X131.581 Y102.570 E0.03864
G1 X131.033 Y102.022 E0.03864
G1 X130.589 Y101.388 E0.03864
G1 X130.262 Y100.686 E0.03864
G1 X130.061 Y99.938 E0.03864
G1 X129.994 Y99.167 E0.03864
G1 X130.061 Y98.395 E0.03864
G1 X130.262 Y97.647 E0.03864
G1 X130.557 Y97.013 E0.03490
G1 X131.024 Y97.196 F3600.000
G1 X131.418 Y96.633 E0.03427 F600.000
G1 X131.904 Y96.148 E0.03427
G1 X132.466 Y95.754 E0.03427
G1 X133.089 Y95.463 E0.03427
G1 X133.691 Y95.302 E0.03109
G1 X134.437 Y95.226 E0.03741
G1 X135.121 Y95.286 E0.03427
G1 X135.785 Y95.463 E0.03427
G1 X136.407 Y95.754 E0.03427
G1 X136.970 Y96.148 E0.03427
G1 X137.456 Y96.633 E0.03427
G1 X137.850 Y97.196 E0.03427
G1 X138.140 Y97.819 E0.03427
G1 X138.301 Y98.421 E0.03109
G1 X138.378 Y99.167 E0.03741
G1 X138.318 Y99.851 E0.03427
G1 X138.140 Y100.514 E0.03427
G1 X137.850 Y101.137 E0.03427
G1 X137.456 Y101.700 E0.03427
G1 X136.970 Y102.186 E0.03427
G1 X136.407 Y102.580 E0.03427
G1 X135.785 Y102.870 E0.03427
G1 X135.121 Y103.048 E0.03427
G1 X134.437 Y103.108 E0.03427
G1 X133.752 Y103.048 E0.03427
G1 X133.089 Y102.870 E0.03427
G1 X132.466 Y102.580 E0.03427
G1 X131.904 Y102.186 E0.03427
G1 X131.418 Y101.700 E0.03427
G1 X131.024 Y101.137 E0.03427
G1 X130.734 Y100.514 E0.03427
G1 X130.556 Y99.851 E0.03427
G1 X130.496 Y99.167 E0.03427
G1 X130.556 Y98.482 E0.03427
G1 X130.734 Y97.819 E0.03427
G1 X130.992 Y97.264 E0.03053
G1 X130.787 Y96.756 F3600.000
G1 X126.321 Y97.816 F3600.000
G1 X126.066 Y96.487 E0.06752 F600.000
G1 X125.647 Y95.200 E0.06752
G1 X125.069 Y93.976 E0.06752
G1 X124.342 Y92.835 E0.06752
G1 X123.477 Y91.794 E0.06752
G1 X122.488 Y90.870 E0.06752
G1 X121.403 Y90.086 E0.06677
G1 X118.543 Y88.376 E0.16628
G1 X115.619 Y86.808 E0.16554
G1 X112.624 Y85.378 E0.16554
G1 X109.566 Y84.091 E0.16554
G1 X106.451 Y82.949 E0.16554
G1 X103.286 Y81.953 E0.16554
G1 X100.077 Y81.107 E0.16554
G1 X96.833 Y80.413 E0.16554
G1 X93.559 Y79.871 E0.16554
G1 X90.264 Y79.483 E0.16554
G1 X86.953 Y79.249 E0.16559
G1 X83.678 Y79.177 E0.16340
G1 X83.350 Y79.149 E0.01646
G1 X83.071 Y79.076 E0.01437
G1 X82.809 Y78.957 E0.01437
G1 X82.571 Y78.794 E0.01437
G1 X82.365 Y78.593 E0.01437
G1 X82.195 Y78.361 E0.01437
G1 X82.068 Y78.102 E0.01437
G1 X81.986 Y77.826 E0.01437
G1 X81.953 Y77.540 E0.01437
G1 X81.968 Y77.283 E0.01285
G1 X82.034 Y76.972 E0.01587
G1 X82.146 Y76.706 E0.01437
G1 X82.301 Y76.463 E0.01437
G1 X82.495 Y76.251 E0.01437
G1 X82.723 Y76.075 E0.01437
G1 X82.951 Y75.954 E0.01285
G1 X83.251 Y75.850 E0.01587
G1 X83.536 Y75.808 E0.01437
G1 X83.824 Y75.816 E0.01437
G1 X84.107 Y75.872 E0.01437
G1 X84.375 Y75.976 E0.01437
G1 X84.628 Y76.127 E0.01470
G1 X85.151 Y76.590 E0.03482
G1 X85.502 Y76.815 E0.02079
G1 X85.883 Y76.984 E0.02079
G1 X86.284 Y77.095 E0.02079
G1 X86.661 Y77.139 E0.01893
G1 X90.165 Y77.370 E0.17519
G1 X93.617 Y77.764 E0.17333
G1 X97.046 Y78.321 E0.17333
G1 X100.445 Y79.042 E0.17333
G1 X103.805 Y79.923 E0.17333
G1 X107.120 Y80.964 E0.17333
G1 X108.634 Y81.520 E0.08048
G1 X110.381 Y82.161 E0.09285
G1 X113.582 Y83.513 E0.17333
G1 X116.715 Y85.015 E0.17333
G1 X121.782 Y87.727 E0.28675
G1 X123.858 Y88.653 E0.11343
G1 X125.991 Y89.441 E0.11343
G1 X128.171 Y90.087 E0.11343
G1 X130.388 Y90.589 E0.11343
G1 X132.634 Y90.942 E0.11343
G1 X134.860 Y91.144 E0.11152
G1 X135.993 Y91.288 E0.05698
G1 X137.059 Y91.576 E0.05508
G1 X138.075 Y92.007 E0.05507
G1 X139.023 Y92.574 E0.05507
G1 X139.884 Y93.265 E0.05508
G1 X140.641 Y94.068 E0.05508
G1 X140.940 Y94.488 E0.02571
G1 X141.282 Y94.967 E0.02936
G1 X141.793 Y95.946 E0.05508
G1 X142.165 Y96.985 E0.05508
G1 X142.392 Y98.065 E0.05508
G1 X142.469 Y99.196 E0.05652
G1 X142.475 Y99.897 E0.03497
G1 X142.433 Y102.153 E0.11261
G1 X144.756 Y99.830 E0.16390
G1 X145.549 Y100.624 E0.05600
G1 X146.343 Y99.830 E0.05600
G1 X147.137 Y100.624 E0.05600
G1 X147.931 Y99.830 E0.05600
G1 X148.724 Y100.624 E0.05600
G1 X149.518 Y99.830 E0.05600
G1 X150.312 Y100.624 E0.05600
G1 X151.106 Y99.830 E0.05600
G1 X151.899 Y100.624 E0.05600
G1 X152.693 Y99.830 E0.05600
G1 X153.487 Y100.624 E0.05600
G1 X154.281 Y99.830 E0.05600
G1 X155.074 Y100.624 E0.05600
G1 X155.868 Y99.830 E0.05600
G1 X156.662 Y100.624 E0.05600
G1 X157.456 Y99.830 E0.05600
G1 X158.249 Y100.624 E0.05600
G1 X159.043 Y99.830 E0.05600
G1 X159.837 Y100.624 E0.05600
G1 X160.631 Y99.830 E0.05600
G1 X161.424 Y100.624 E0.05600
G1 X162.218 Y99.830 E0.05600
G1 X163.012 Y100.624 E0.05600
G1 X163.806 Y99.830 E0.05600
G1 X164.599 Y100.624 E0.05600
G1 X165.393 Y99.830 E0.05600
G1 X166.187 Y100.624 E0.05600
G1 X166.981 Y99.830 E0.05600
G1 X167.774 Y100.624 E0.05600
G1 X168.568 Y99.830 E0.05600
G1 X169.426 Y100.689 E0.06056
G1 X169.382 Y100.604 E0.00478
G1 X170.156 Y99.830 E0.05456
G1 X170.821 Y100.496 E0.04695
G1 X139.719 Y105.812 E1.57420
G1 X138.835 Y106.029 E0.04542
G1 X136.962 Y106.790 E0.10083
G1 X135.913 Y107.061 E0.05407
G1 X134.837 Y107.187 E0.05407
G1 X133.753 Y107.168 E0.05407
G1 X132.682 Y107.003 E0.05407
G1 X131.643 Y106.696 E0.05407
G1 X130.655 Y106.251 E0.05407
G1 X129.735 Y105.677 E0.05407
G1 X129.346 Y105.354 E0.02524
G1 X128.901 Y104.985 E0.02883
G1 X128.168 Y104.187 E0.05407
G1 X127.550 Y103.297 E0.05407
G1 X127.319 Y102.846 E0.02524
G1 X127.056 Y102.332 E0.02883
G1 X126.697 Y101.309 E0.05407
G1 X126.479 Y100.248 E0.05407
G1 X126.325 Y97.891 E0.11784
G1 X125.824 Y97.879 F3600.000
G1 X125.581 Y96.612 E0.06437 F420.000
G1 X125.181 Y95.385 E0.06437
G1 X124.630 Y94.218 E0.06437
G1 X124.312 Y93.718 E0.02961
G1 X123.937 Y93.130 E0.03476
G1 X123.113 Y92.138 E0.06437
G1 X122.170 Y91.257 E0.06437
G1 X121.128 Y90.504 E0.06412
G1 X118.297 Y88.811 E0.16462
G1 X115.393 Y87.254 E0.16437
G1 X112.420 Y85.835 E0.16437
G1 X109.383 Y84.557 E0.16437
G1 X106.290 Y83.422 E0.16437
G1 X103.147 Y82.434 E0.16437
G1 X99.961 Y81.594 E0.16437
G1 X96.740 Y80.904 E0.16437
G1 X93.489 Y80.366 E0.16437
G1 X90.217 Y79.981 E0.16437
G1 X86.930 Y79.749 E0.16439
G1 X83.651 Y79.677 E0.16365
G1 X83.264 Y79.644 E0.01935
G1 X82.903 Y79.549 E0.01865
G1 X82.563 Y79.394 E0.01865
G1 X82.254 Y79.183 E0.01865
G1 X81.986 Y78.922 E0.01865
G1 X81.809 Y78.679 E0.01499
G1 X81.600 Y78.285 E0.02227
G1 X81.495 Y77.926 E0.01865
G1 X81.460 Y77.628 E0.01499
G1 X81.472 Y77.181 E0.02227
G1 X81.557 Y76.817 E0.01865
G1 X81.702 Y76.473 E0.01865
G1 X81.903 Y76.158 E0.01865
G1 X82.155 Y75.882 E0.01865
G1 X82.451 Y75.653 E0.01865
G1 X82.781 Y75.478 E0.01865
G1 X83.137 Y75.361 E0.01865
G1 X83.506 Y75.307 E0.01865
G1 X83.880 Y75.317 E0.01865
G1 X84.247 Y75.390 E0.01865
G1 X84.596 Y75.525 E0.01865
G1 X84.918 Y75.718 E0.01876
G1 X85.453 Y76.189 E0.03555
G1 X85.740 Y76.373 E0.01702
G1 X86.052 Y76.512 E0.01702
G1 X86.380 Y76.603 E0.01702
G1 X86.707 Y76.641 E0.01640
G1 X90.210 Y76.872 E0.17514
G1 X93.685 Y77.268 E0.17452
G1 X97.138 Y77.830 E0.17452
G1 X100.560 Y78.555 E0.17452
G1 X103.944 Y79.443 E0.17452
G1 X107.281 Y80.490 E0.17452
G1 X108.807 Y81.050 E0.08107
G1 X110.565 Y81.696 E0.09345
G1 X113.787 Y83.057 E0.17452
G1 X116.942 Y84.569 E0.17452
G1 X122.001 Y87.277 E0.28630
G1 X124.047 Y88.190 E0.11178
G1 X126.149 Y88.967 E0.11178
G1 X128.297 Y89.603 E0.11178
G1 X130.483 Y90.097 E0.11178
G1 X132.696 Y90.446 E0.11178
G1 X134.914 Y90.647 E0.11115
G1 X136.091 Y90.797 E0.05915
G1 X137.223 Y91.102 E0.05851
G1 X138.302 Y91.561 E0.05851
G1 X139.309 Y92.163 E0.05851
G1 X140.223 Y92.897 E0.05851
G1 X141.029 Y93.750 E0.05851
G1 X141.709 Y94.705 E0.05851
G1 X142.252 Y95.744 E0.05851
G1 X142.648 Y96.849 E0.05851
G1 X142.888 Y97.997 E0.05851
G1 X142.969 Y99.176 E0.05900
G1 X142.956 Y100.923 E0.08714
G1 X144.756 Y99.123 E0.12697
G1 X145.549 Y99.917 E0.05600
G1 X146.343 Y99.123 E0.05600
G1 X147.137 Y99.917 E0.05600
G1 X147.931 Y99.123 E0.05600
G1 X148.724 Y99.917 E0.05600
G1 X149.518 Y99.123 E0.05600
G1 X150.312 Y99.917 E0.05600
G1 X151.106 Y99.123 E0.05600
G1 X151.899 Y99.917 E0.05600
G1 X152.693 Y99.123 E0.05600
G1 X153.487 Y99.917 E0.05600
G1 X154.281 Y99.123 E0.05600
G1 X155.074 Y99.917 E0.05600
G1 X155.868 Y99.123 E0.05600
G1 X156.662 Y99.917 E0.05600
G1 X157.456 Y99.123 E0.05600
G1 X158.249 Y99.917 E0.05600
G1 X159.043 Y99.123 E0.05600
G1 X159.837 Y99.917 E0.05600
G1 X160.631 Y99.123 E0.05600
G1 X161.424 Y99.917 E0.05600
G1 X162.218 Y99.123 E0.05600
G1 X163.012 Y99.917 E0.05600
G1 X163.806 Y99.123 E0.05600
G1 X164.599 Y99.917 E0.05600
G1 X165.393 Y99.123 E0.05600
G1 X166.187 Y99.917 E0.05600
G1 X166.981 Y99.123 E0.05600
G1 X167.774 Y99.917 E0.05600
G1 X168.568 Y99.123 E0.05600
G1 X169.362 Y99.917 E0.05600
G1 X170.156 Y99.123 E0.05600
G1 X170.846 Y99.813 E0.04870
G1 X171.543 Y99.813 E0.03478
G1 X171.551 Y100.878 E0.05309
G1 X139.821 Y106.302 E1.60602
G1 X138.989 Y106.507 E0.04275
G1 X137.120 Y107.266 E0.10063
G1 X136.005 Y107.553 E0.05744
G1 X134.862 Y107.688 E0.05744
G1 X133.710 Y107.668 E0.05744
G1 X132.572 Y107.492 E0.05744
G1 X131.468 Y107.165 E0.05744
G1 X130.418 Y106.693 E0.05744
G1 X129.442 Y106.083 E0.05744
G1 X129.027 Y105.739 E0.02693
G1 X128.556 Y105.348 E0.03051
G1 X127.777 Y104.500 E0.05744
G1 X127.120 Y103.555 E0.05744
G1 X126.874 Y103.074 E0.02693
G1 X126.596 Y102.530 E0.03051
G1 X126.214 Y101.443 E0.05744
G1 X125.983 Y100.315 E0.05744
G1 X125.828 Y97.954 E0.11807
G1 X126.215 Y97.568 F3600.000
G1 X126.989 Y100.798 F3600.000
G1 X132.823 Y106.631 E0.66826 F600.000
G1 X131.043 Y105.999 F3600.000
G1 X127.616 Y102.572 E0.39251 F600.000
G1 X130.671 Y102.183 F3600.000
G1 X126.739 Y98.251 E0.45044 F600.000
G1 X126.819 Y99.479 E0.09968
G1 X134.125 Y106.786 E0.83695
G1 X135.236 Y106.749 E0.09003
G1 X131.420 Y102.932 E0.43715
G1 X133.549 Y103.914 F3600.000
G1 X136.216 Y106.581 E0.30548 F600.000
G1 X137.098 Y106.315 E0.07463
G1 X134.756 Y103.972 E0.26834
G1 X135.735 Y103.804 E0.08050
G1 X137.915 Y105.983 E0.24967
G1 X138.734 Y105.654 E0.07147
G1 X136.566 Y103.486 E0.24826
G1 X137.281 Y103.053 E0.06770
G1 X139.656 Y105.428 E0.27207
G1 X140.637 Y105.261 E0.08056
G1 X137.894 Y102.519 E0.31411
G1 X138.410 Y101.887 E0.06609
G1 X141.617 Y105.093 E0.36731
G1 X142.597 Y104.926 E0.08056
G1 X138.824 Y101.152 E0.43226
G1 X139.118 Y100.299 E0.07313
G1 X143.578 Y104.758 E0.51082
G1 X146.216 Y100.508 F3600.000
G1 X149.460 Y103.752 E0.37166 F600.000
G1 X148.480 Y103.920 E0.08056
G1 X145.642 Y101.082 E0.32510
G1 X144.274 Y100.862 E0.11221
G1 X147.499 Y104.088 E0.36947
G1 X146.519 Y104.255 E0.08056
G1 X143.700 Y101.436 E0.32292
G1 X143.126 Y102.010 E0.06575
G1 X145.539 Y104.423 E0.27636
G1 X144.558 Y104.590 E0.08056
G1 X139.259 Y99.291 E0.60699
G1 X139.107 Y97.991 E0.10608
G1 X142.066 Y100.950 E0.33903
G1 X142.086 Y99.822 E0.09143
G1 X133.693 Y91.429 E0.96137
G1 X132.418 Y91.302 E0.10377
G1 X135.613 Y94.497 E0.36593
G1 X134.312 Y94.344 E0.10608
G1 X131.055 Y91.087 E0.37304
G1 X129.638 Y90.818 E0.11690
G1 X133.305 Y94.485 E0.42009
G1 X132.451 Y94.780 E0.07313
G1 X128.154 Y90.483 E0.49222
G1 X126.531 Y90.007 E0.13700
G1 X131.717 Y95.193 E0.59402
G1 X131.085 Y95.709 E0.06609
G1 X124.787 Y89.411 E0.72140
G1 X122.863 Y88.635 F3600.000
G1 X130.550 Y96.322 E0.88060 F600.000
G1 X130.117 Y97.037 E0.06770
G1 X120.632 Y87.552 E1.08647
G1 X118.948 Y88.165 F3600.000
G1 X115.784 Y85.000 E0.36250 F600.000
G1 X114.175 Y85.688 E0.14169
G1 X111.575 Y83.088 E0.29783
G1 X112.057 Y84.718 E0.13769
G1 X109.645 Y82.305 E0.27635
G1 X110.075 Y83.883 E0.13247
G1 X107.831 Y81.639 E0.25705
G1 X108.231 Y83.187 E0.12947
G1 X106.093 Y81.049 E0.24489
G1 X106.430 Y82.534 E0.12334
G1 X104.419 Y80.524 E0.23028
G1 X104.755 Y82.007 E0.12321
G1 X102.813 Y80.065 E0.22250
G1 X103.102 Y81.502 E0.11876
G1 X101.257 Y79.657 E0.21141
G1 X101.543 Y81.091 E0.11849
G1 X99.742 Y79.290 E0.20629
G1 X99.995 Y80.692 E0.11535
G1 X98.285 Y78.982 E0.19589
G1 X98.535 Y80.379 E0.11497
G1 X96.837 Y78.682 E0.19445
G1 X97.074 Y80.066 E0.11379
G1 X95.466 Y78.459 E0.18415
G1 X95.688 Y79.829 E0.11242
G1 X94.095 Y78.236 E0.18247
G1 X94.313 Y79.601 E0.11197
G1 X92.770 Y78.059 E0.17665
G1 X91.475 Y77.911 E0.10563
G1 X92.974 Y79.410 E0.17168
G1 X91.672 Y79.257 E0.10612
G1 X90.179 Y77.763 E0.17106
G1 X88.947 Y77.680 E0.09998
G1 X90.371 Y79.104 E0.16308
G1 X89.133 Y79.013 E0.10059
G1 X87.718 Y77.599 E0.16199
G1 X86.481 Y77.510 E0.10046
G1 X87.898 Y78.926 E0.16223
G1 X86.678 Y78.854 E0.09897
G1 X84.116 Y76.293 E0.29341
G1 X83.028 Y76.353 E0.08825
G1 X85.504 Y78.828 E0.28357
G1 X84.330 Y78.803 E0.09510
G1 X82.469 Y76.941 E0.21321
