; generated by Slic3r 1.0.0RC2 on 2014-02-09 at 11:52:09

; layer_height = 0.24
; perimeters = 2
; top_solid_layers = 4
; bottom_solid_layers = 3
; fill_density = 0.3
; perimeter_speed = 20
; infill_speed = 20
; travel_speed = 60
; nozzle_diameter = 0.5
; filament_diameter = 1.75
; extrusion_multiplier = 1
; perimeters extrusion width = 0.50mm
; infill extrusion width = 0.87mm
; solid infill extrusion width = 0.85mm
; top infill extrusion width = 0.85mm

G21 ; set units to millimeters
M140 S65; Set bed temperature
G28 X0 Y0; Home all axes
G1 Z5 F200 ; lift nozzle
G1 X2 Y50 F2000; Go to wait for warm position
M116; Wait for all temperatures
G10 P0 S185 R0 ; Set extruder temperature
T0; Select extruder
M116; Wait for all temperatures
G90 ; use absolute coordinates
M83 ; use relative distances for extrusion
G1 F1800.000 E-4.00000
G1 X57.340 Y39.736 F3600.000
G1 Z0.240 F3600.000
G1 E4.00000 F1800.000
G1 X58.140 Y38.756 E0.06311 F600.000
G1 X59.130 Y37.956 E0.06350
G1 X60.250 Y37.366 E0.06316
G1 X61.460 Y36.996 E0.06313
G1 X62.720 Y36.876 E0.06315
G1 X177.270 Y36.876 E5.71492
G1 X178.530 Y36.996 E0.06315
G1 X179.740 Y37.366 E0.06313
G1 X180.860 Y37.956 E0.06316
G1 X181.850 Y38.756 E0.06350
G1 X182.650 Y39.736 E0.06311
G1 X183.260 Y40.846 E0.06319
G1 X184.100 Y42.836 E0.10776
G1 X184.830 Y44.756 E0.10248
G1 X185.140 Y45.886 E0.05846
G1 X185.250 Y47.056 E0.05863
G1 X185.250 Y152.936 E5.28237
G1 X185.140 Y154.106 E0.05863
G1 X184.830 Y155.236 E0.05846
G1 X184.100 Y157.156 E0.10248
G1 X183.260 Y159.146 E0.10776
G1 X182.650 Y160.256 E0.06319
G1 X181.850 Y161.236 E0.06311
G1 X180.860 Y162.036 E0.06350
G1 X179.740 Y162.626 E0.06316
G1 X178.530 Y162.996 E0.06313
G1 X177.270 Y163.116 E0.06315
G1 X62.720 Y163.116 E5.71492
G1 X61.460 Y162.996 E0.06315
G1 X60.250 Y162.626 E0.06313
G1 X59.130 Y162.036 E0.06316
G1 X58.140 Y161.236 E0.06350
G1 X57.340 Y160.256 E0.06311
G1 X56.730 Y159.146 E0.06319
G1 X55.890 Y157.156 E0.10776
G1 X55.160 Y155.206 E0.10388
G1 X54.850 Y154.086 E0.05798
G1 X54.750 Y152.936 E0.05759
G1 X54.750 Y47.056 E5.28237
G1 X54.850 Y45.906 E0.05759
G1 X55.160 Y44.786 E0.05798
G1 X55.890 Y42.836 E0.10388
G1 X56.730 Y40.846 E0.10776
G1 X57.304 Y39.802 E0.05945
G1 F1800.000 E-4.00000
G1 X150.849 Y53.366 F3600.000
G1 E4.00000 F1800.000
G1 X151.008 Y52.878 E0.02561 F600.000
G1 X151.265 Y52.434 E0.02559
G1 X151.608 Y52.052 E0.02559
G1 X152.023 Y51.751 E0.02559
G1 X152.492 Y51.542 E0.02560
G1 X152.902 Y51.455 E0.02095
G1 X152.993 Y51.435 E0.00464
G1 X153.507 Y51.435 E0.02560
G1 X154.008 Y51.542 E0.02560
G1 X154.477 Y51.751 E0.02560
G1 X154.892 Y52.052 E0.02559
G1 X155.235 Y52.434 E0.02559
G1 X155.492 Y52.878 E0.02559
G1 X155.651 Y53.366 E0.02560
G1 X155.704 Y53.876 E0.02560
G1 X155.651 Y54.386 E0.02560
G1 X155.492 Y54.874 E0.02560
G1 X155.235 Y55.319 E0.02559
G1 X154.892 Y55.700 E0.02559
G1 X154.477 Y56.001 E0.02559
G1 X154.008 Y56.210 E0.02560
G1 X153.507 Y56.317 E0.02560
G1 X152.993 Y56.317 E0.02560
G1 X152.492 Y56.210 E0.02559
G1 X152.023 Y56.001 E0.02560
G1 X151.608 Y55.700 E0.02559
G1 X151.265 Y55.319 E0.02559
G1 X151.008 Y54.875 E0.02559
G1 X150.849 Y54.386 E0.02560
G1 X150.796 Y53.876 E0.02560
G1 X150.842 Y53.441 E0.02185
G1 X151.337 Y53.511 F3600.000
G1 X151.467 Y53.082 E0.02234 F600.000
G1 X151.671 Y52.729 E0.02035
G1 X151.944 Y52.426 E0.02035
G1 X152.274 Y52.186 E0.02035
G1 X152.647 Y52.020 E0.02036
G1 X153.046 Y51.935 E0.02035
G1 X153.454 Y51.935 E0.02035
G1 X153.853 Y52.020 E0.02035
G1 X154.226 Y52.186 E0.02035
G1 X154.556 Y52.426 E0.02035
G1 X154.829 Y52.729 E0.02035
G1 X155.033 Y53.082 E0.02035
G1 X155.159 Y53.470 E0.02036
G1 X155.201 Y53.876 E0.02035
G1 X155.159 Y54.282 E0.02036
G1 X155.033 Y54.670 E0.02035
G1 X154.829 Y55.023 E0.02035
G1 X154.556 Y55.326 E0.02035
G1 X154.226 Y55.566 E0.02035
G1 X153.853 Y55.732 E0.02035
G1 X153.454 Y55.817 E0.02035
G1 X153.046 Y55.817 E0.02035
G1 X152.647 Y55.732 E0.02035
G1 X152.274 Y55.566 E0.02036
G1 X151.944 Y55.326 E0.02035
G1 X151.671 Y55.023 E0.02035
G1 X151.467 Y54.670 E0.02035
G1 X151.341 Y54.282 E0.02036
G1 X151.299 Y53.876 E0.02036
G1 X151.329 Y53.585 E0.01459
G1 X151.011 Y53.204 F3600.000
G1 X89.287 Y54.667 F3600.000
G1 X89.059 Y54.667 E0.01137 F600.000
G1 X88.992 Y54.874 E0.01088
G1 X88.735 Y55.319 E0.02559
G1 X88.392 Y55.700 E0.02559
G1 X87.977 Y56.001 E0.02559
G1 X87.508 Y56.210 E0.02560
G1 X87.007 Y56.317 E0.02560
G1 X86.493 Y56.317 E0.02560
G1 X85.992 Y56.210 E0.02559
G1 X85.523 Y56.001 E0.02560
G1 X85.108 Y55.700 E0.02559
G1 X84.783 Y55.339 E0.02425
G1 X84.659 Y55.339 E0.00616
G1 X84.349 Y54.386 E0.04995
G1 X84.296 Y53.876 E0.02560
G1 X84.415 Y52.742 E0.05688
G1 X84.586 Y52.742 E0.00856
G1 X84.765 Y52.434 E0.01778
G1 X85.108 Y52.052 E0.02559
G1 X85.523 Y51.751 E0.02559
G1 X85.992 Y51.542 E0.02560
G1 X86.493 Y51.435 E0.02560
G1 X87.007 Y51.435 E0.02560
G1 X87.508 Y51.542 E0.02560
G1 X87.977 Y51.751 E0.02560
G1 X88.392 Y52.052 E0.02559
G1 X88.735 Y52.434 E0.02559
G1 X88.992 Y52.878 E0.02559
G1 X89.151 Y53.366 E0.02560
G1 X89.279 Y54.593 E0.06153
G1 X88.732 Y54.167 F3600.000
G1 X88.696 Y54.167 E0.00179 F600.000
G1 X88.533 Y54.670 E0.02638
G1 X88.329 Y55.023 E0.02035
G1 X88.056 Y55.326 E0.02035
G1 X87.726 Y55.566 E0.02035
G1 X87.353 Y55.732 E0.02035
G1 X86.954 Y55.817 E0.02035
G1 X86.546 Y55.817 E0.02035
G1 X86.147 Y55.732 E0.02035
G1 X85.774 Y55.566 E0.02035
G1 X85.444 Y55.326 E0.02035
G1 X85.171 Y55.023 E0.02035
G1 X85.065 Y54.839 E0.01063
G1 X85.022 Y54.839 E0.00212
G1 X84.841 Y54.282 E0.02920
G1 X84.799 Y53.876 E0.02036
G1 X84.865 Y53.242 E0.03180
G1 X84.915 Y53.242 E0.00251
G1 X84.967 Y53.082 E0.00838
G1 X85.171 Y52.729 E0.02035
G1 X85.444 Y52.426 E0.02035
G1 X85.774 Y52.186 E0.02035
G1 X86.147 Y52.020 E0.02035
G1 X86.546 Y51.935 E0.02035
G1 X86.954 Y51.935 E0.02035
G1 X87.353 Y52.020 E0.02035
G1 X87.726 Y52.186 E0.02035
G1 X88.056 Y52.426 E0.02035
G1 X88.329 Y52.729 E0.02035
G1 X88.533 Y53.082 E0.02035
G1 X88.659 Y53.470 E0.02036
G1 X88.724 Y54.093 E0.03121
G1 X88.733 Y54.203 F3600.000
G1 F1800.000 E-4.00000
G1 X78.500 Y60.626 F3600.000
G1 E4.00000 F1800.000
G1 X161.500 Y60.626 E4.14089 F600.000
G1 X161.500 Y83.126 E1.12253
G1 X78.500 Y83.126 E4.14089
G1 X78.500 Y60.701 E1.11879
G1 X79.000 Y61.126 F3600.000
G1 X161.000 Y61.126 E4.09100 F420.000
G1 X161.000 Y82.626 E1.07264
G1 X79.000 Y82.626 E4.09100
G1 X79.000 Y61.201 E1.06890
G1 X79.000 Y60.626 F3600.000
G1 F1800.000 E-4.00000
G1 X151.008 Y88.878 F3600.000
G1 E4.00000 F1800.000
G1 X151.265 Y88.434 E0.02559 F600.000
G1 X151.608 Y88.052 E0.02559
G1 X152.023 Y87.751 E0.02559
G1 X152.492 Y87.542 E0.02560
G1 X152.993 Y87.435 E0.02560
G1 X153.507 Y87.435 E0.02560
G1 X154.008 Y87.542 E0.02560
G1 X154.477 Y87.751 E0.02560
G1 X154.892 Y88.052 E0.02559
G1 X155.235 Y88.434 E0.02559
G1 X155.492 Y88.878 E0.02559
G1 X155.651 Y89.366 E0.02560
G1 X155.704 Y89.876 E0.02560
G1 X155.651 Y90.386 E0.02559
G1 X155.492 Y90.874 E0.02560
G1 X155.235 Y91.319 E0.02559
G1 X154.892 Y91.700 E0.02559
G1 X154.477 Y92.001 E0.02559
G1 X154.008 Y92.210 E0.02560
G1 X153.507 Y92.317 E0.02560
G1 X152.993 Y92.317 E0.02560
G1 X152.492 Y92.210 E0.02559
G1 X152.023 Y92.001 E0.02560
G1 X151.608 Y91.700 E0.02559
G1 X151.265 Y91.319 E0.02559
G1 X151.008 Y90.875 E0.02559
G1 X150.849 Y90.386 E0.02561
G1 X150.796 Y89.876 E0.02559
G1 X150.849 Y89.366 E0.02560
G1 X150.985 Y88.949 E0.02186
G1 X151.455 Y89.121 F3600.000
G1 X151.671 Y88.729 E0.02233 F600.000
G1 X151.944 Y88.426 E0.02035
G1 X152.274 Y88.186 E0.02035
G1 X152.647 Y88.020 E0.02036
G1 X153.046 Y87.935 E0.02035
G1 X153.454 Y87.935 E0.02035
G1 X153.853 Y88.020 E0.02035
G1 X154.226 Y88.186 E0.02035
G1 X154.556 Y88.426 E0.02035
G1 X154.829 Y88.729 E0.02035
G1 X155.033 Y89.082 E0.02035
G1 X155.159 Y89.470 E0.02035
G1 X155.201 Y89.876 E0.02036
G1 X155.159 Y90.282 E0.02035
G1 X155.033 Y90.670 E0.02036
G1 X154.829 Y91.023 E0.02035
G1 X154.556 Y91.326 E0.02035
G1 X154.226 Y91.566 E0.02035
G1 X153.853 Y91.732 E0.02035
G1 X153.454 Y91.817 E0.02035
G1 X153.046 Y91.817 E0.02035
G1 X152.647 Y91.732 E0.02035
G1 X152.274 Y91.566 E0.02036
G1 X151.944 Y91.326 E0.02035
G1 X151.671 Y91.023 E0.02035
G1 X151.467 Y90.670 E0.02035
G1 X151.341 Y90.282 E0.02036
G1 X151.299 Y89.876 E0.02035
G1 X151.341 Y89.470 E0.02036
G1 X151.432 Y89.192 E0.01459
G1 X151.200 Y88.753 F3600.000
G1 X89.204 Y89.876 F3600.000
G1 X89.151 Y90.386 E0.02559 F600.000
G1 X88.992 Y90.874 E0.02561
G1 X88.735 Y91.319 E0.02559
G1 X88.392 Y91.700 E0.02559
G1 X87.977 Y92.001 E0.02559
G1 X87.508 Y92.210 E0.02560
G1 X87.007 Y92.317 E0.02560
G1 X86.493 Y92.317 E0.02560
G1 X85.992 Y92.210 E0.02560
G1 X85.523 Y92.001 E0.02560
G1 X85.108 Y91.700 E0.02559
G1 X84.765 Y91.319 E0.02559
G1 X84.508 Y90.874 E0.02559
G1 X84.349 Y90.386 E0.02561
G1 X84.296 Y89.876 E0.02559
G1 X84.349 Y89.366 E0.02560
G1 X84.508 Y88.878 E0.02560
G1 X84.765 Y88.434 E0.02559
G1 X85.108 Y88.052 E0.02559
G1 X85.523 Y87.751 E0.02559
G1 X85.992 Y87.542 E0.02560
G1 X86.493 Y87.435 E0.02560
G1 X87.007 Y87.435 E0.02560
G1 X87.508 Y87.542 E0.02560
G1 X87.977 Y87.751 E0.02560
G1 X88.392 Y88.052 E0.02559
G1 X88.735 Y88.434 E0.02559
G1 X88.992 Y88.878 E0.02559
G1 X89.151 Y89.366 E0.02560
G1 X89.196 Y89.802 E0.02186
G1 X88.701 Y89.876 F3600.000
G1 X88.659 Y90.282 E0.02035 F600.000
G1 X88.533 Y90.670 E0.02036
G1 X88.329 Y91.023 E0.02035
G1 X88.056 Y91.326 E0.02035
G1 X87.726 Y91.566 E0.02035
G1 X87.353 Y91.732 E0.02035
G1 X86.954 Y91.817 E0.02035
G1 X86.546 Y91.817 E0.02035
G1 X86.147 Y91.732 E0.02035
G1 X85.774 Y91.566 E0.02035
G1 X85.444 Y91.326 E0.02035
G1 X85.171 Y91.023 E0.02035
G1 X84.967 Y90.670 E0.02035
G1 X84.841 Y90.282 E0.02036
G1 X84.799 Y89.876 E0.02035
G1 X84.841 Y89.470 E0.02036
G1 X84.967 Y89.082 E0.02036
G1 X85.171 Y88.729 E0.02035
G1 X85.444 Y88.426 E0.02035
G1 X85.774 Y88.186 E0.02035
G1 X86.147 Y88.020 E0.02035
G1 X86.546 Y87.935 E0.02035
G1 X86.954 Y87.935 E0.02035
G1 X87.353 Y88.020 E0.02035
G1 X87.726 Y88.186 E0.02035
G1 X88.056 Y88.426 E0.02035
G1 X88.329 Y88.729 E0.02035
G1 X88.533 Y89.082 E0.02035
G1 X88.659 Y89.470 E0.02036
G1 X88.694 Y89.802 E0.01661
G1 X89.047 Y90.092 F3600.000
G1 F1800.000 E-4.00000
G1 X64.841 Y96.126 F3600.000
G1 E4.00000 F1800.000
G1 X64.127 Y94.668 E0.08101 F600.000
G1 X63.329 Y92.900 E0.09678
G1 X62.586 Y91.108 E0.09678
G1 X62.000 Y89.556 E0.08277
G1 X62.000 Y47.196 E2.11333
G1 X62.586 Y45.644 E0.08277
G1 X63.215 Y44.126 E0.08199
G1 X176.785 Y44.126 E5.66600
G1 X177.414 Y45.644 E0.08199
G1 X178.000 Y47.196 E0.08277
G1 X178.000 Y89.556 E2.11333
G1 X177.414 Y91.108 E0.08277
G1 X176.671 Y92.900 E0.09677
G1 X175.873 Y94.668 E0.09678
G1 X175.159 Y96.126 E0.08101
G1 X64.916 Y96.126 E5.50001
G1 X64.530 Y96.626 F3600.000
G1 X63.675 Y94.881 E0.09696 F420.000
G1 X62.870 Y93.099 E0.09756
G1 X62.121 Y91.292 E0.09756
G1 X61.500 Y89.647 E0.08771
G1 X61.500 Y47.105 E2.12244
G1 X62.121 Y45.460 E0.08771
G1 X62.881 Y43.626 E0.09905
G1 X177.119 Y43.626 E5.69934
G1 X177.879 Y45.460 E0.09905
G1 X178.500 Y47.105 E0.08771
G1 X178.500 Y89.647 E2.12244
G1 X177.879 Y91.292 E0.08771
G1 X177.130 Y93.099 E0.09756
G1 X176.325 Y94.881 E0.09757
G1 X175.470 Y96.626 E0.09696
G1 X64.605 Y96.626 E5.53112
G1 X64.639 Y96.138 F3600.000
G1 X65.149 Y95.737 F3600.000
G1 X65.022 Y95.609 E0.01451 F600.000
G1 X66.286 Y95.737 E0.10192
G1 X64.008 Y93.459 E0.25829
G1 X63.159 Y91.473 F3600.000
G1 X67.423 Y95.737 E0.48348 F600.000
G1 X68.559 Y95.737 E0.09114
G1 X62.439 Y89.617 E0.69404
G1 X62.389 Y88.430 E0.09523
G1 X69.696 Y95.737 E0.82859
G1 X70.832 Y95.737 E0.09114
G1 X62.389 Y87.294 E0.95748
G1 X62.389 Y86.157 E0.09114
G1 X71.969 Y95.737 E1.08638
G1 X73.105 Y95.737 E0.09114
G1 X62.389 Y85.021 E1.21527
G1 X62.389 Y83.884 E0.09114
G1 X74.242 Y95.737 E1.34417
G1 X75.379 Y95.737 E0.09114
G1 X62.389 Y82.748 E1.47306
G1 X62.389 Y81.611 E0.09114
G1 X76.515 Y95.737 E1.60196
G1 X77.652 Y95.737 E0.09114
G1 X62.389 Y80.474 E1.73085
G1 X62.389 Y79.338 E0.09114
G1 X78.788 Y95.737 E1.85975
G1 X79.925 Y95.737 E0.09114
G1 X62.389 Y78.201 E1.98864
G1 X62.389 Y77.065 E0.09114
G1 X81.061 Y95.737 E2.11754
G1 X82.198 Y95.737 E0.09114
G1 X62.389 Y75.928 E2.24643
G1 X62.389 Y74.792 E0.09114
G1 X83.335 Y95.737 E2.37533
G1 X84.471 Y95.737 E0.09114
G1 X62.389 Y73.655 E2.50422
G1 X62.389 Y72.518 E0.09114
G1 X85.608 Y95.737 E2.63312
G1 X86.744 Y95.737 E0.09114
G1 X62.389 Y71.382 E2.76201
G1 X62.389 Y70.245 E0.09114
G1 X87.881 Y95.737 E2.89091
G1 X89.017 Y95.737 E0.09114
G1 X85.857 Y92.577 E0.35836
G1 X87.110 Y92.693 E0.10089
G1 X90.154 Y95.737 E0.34518
G1 X91.291 Y95.737 E0.09114
G1 X87.980 Y92.426 E0.37541
G1 X88.667 Y91.977 E0.06583
G1 X92.427 Y95.737 E0.42642
G1 X93.564 Y95.737 E0.09114
G1 X89.171 Y91.344 E0.49820
G1 X89.509 Y90.545 E0.06954
G1 X94.700 Y95.737 E0.58878
G1 X95.837 Y95.737 E0.09114
G1 X89.551 Y89.451 E0.71285
G1 X87.173 Y87.073 F3600.000
G1 X83.616 Y83.516 E0.40339 F600.000
G1 X82.479 Y83.516 E0.09114
G1 X86.087 Y87.124 E0.40918
G1 X85.276 Y87.449 E0.07009
G1 X81.343 Y83.516 E0.44607
G1 X80.206 Y83.516 E0.09114
G1 X84.659 Y87.969 E0.50502
G1 X84.195 Y88.641 E0.06552
G1 X79.069 Y83.516 E0.58128
G1 X78.111 Y82.557 F3600.000
G1 X62.389 Y66.836 E1.78288 F600.000
G1 X62.389 Y65.699 E0.09114
G1 X78.111 Y81.420 E1.78288
G1 X78.111 Y80.284 E0.09114
G1 X62.389 Y64.562 E1.78288
G1 X62.389 Y63.426 E0.09114
G1 X78.111 Y79.147 E1.78288
G1 X78.111 Y78.010 E0.09114
G1 X62.389 Y62.289 E1.78288
G1 X62.389 Y61.153 E0.09114
G1 X78.111 Y76.874 E1.78288
G1 X78.111 Y75.737 E0.09114
G1 X62.389 Y60.016 E1.78288
G1 X62.389 Y58.880 E0.09114
G1 X78.111 Y74.601 E1.78288
G1 X78.111 Y73.464 E0.09114
G1 X62.389 Y57.743 E1.78288
G1 X62.389 Y56.606 E0.09114
G1 X78.111 Y72.328 E1.78288
G1 X78.111 Y71.191 E0.09114
G1 X62.389 Y55.470 E1.78288
G1 X62.389 Y54.333 E0.09114
G1 X78.111 Y70.054 E1.78288
G1 X78.111 Y68.918 E0.09114
G1 X62.389 Y53.197 E1.78288
G1 X62.389 Y52.060 E0.09114
G1 X78.111 Y67.781 E1.78288
G1 X78.111 Y66.645 E0.09114
G1 X62.389 Y50.924 E1.78288
G1 X62.389 Y49.787 E0.09114
G1 X78.111 Y65.508 E1.78288
G1 X78.111 Y64.372 E0.09114
G1 X62.389 Y48.651 E1.78288
G1 X62.389 Y47.514 E0.09114
G1 X78.111 Y63.235 E1.78288
G1 X78.111 Y62.098 E0.09114
G1 X62.634 Y46.621 E1.75520
G1 X62.945 Y45.797 E0.07071
G1 X78.111 Y60.962 E1.71985
G1 X78.522 Y60.237 E0.06686
G1 X63.278 Y44.993 E1.72878
G1 X63.937 Y44.516 E0.06527
G1 X79.658 Y60.237 E1.78288
G1 X80.795 Y60.237 E0.09114
G1 X65.074 Y44.516 E1.78288
G1 X66.211 Y44.516 E0.09114
G1 X81.932 Y60.237 E1.78288
G1 X83.068 Y60.237 E0.09114
G1 X67.347 Y44.516 E1.78288
G1 X68.484 Y44.516 E0.09114
G1 X84.205 Y60.237 E1.78288
G1 X85.341 Y60.237 E0.09114
G1 X69.620 Y44.516 E1.78288
G1 X70.757 Y44.516 E0.09114
G1 X86.478 Y60.237 E1.78288
G1 X87.614 Y60.237 E0.09114
G1 X71.893 Y44.516 E1.78288
G1 X73.030 Y44.516 E0.09114
G1 X88.751 Y60.237 E1.78288
G1 X89.888 Y60.237 E0.09114
G1 X86.331 Y56.681 E0.40329
G1 X87.416 Y56.628 E0.08703
G1 X91.024 Y60.237 E0.40924
G1 X92.161 Y60.237 E0.09114
G1 X88.226 Y56.302 E0.44622
G1 X88.842 Y55.782 E0.06468
G1 X93.297 Y60.237 E0.50521
G1 X94.434 Y60.237 E0.09114
G1 X89.306 Y55.109 E0.58151
G1 X89.641 Y54.307 E0.06967
G1 X95.570 Y60.237 E0.67244
G1 X96.707 Y60.237 E0.09114
G1 X89.427 Y52.957 E0.82559
G1 X87.648 Y51.178 F3600.000
G1 X80.986 Y44.516 E0.75559 F600.000
G1 X82.122 Y44.516 E0.09114
G1 X97.844 Y60.237 E1.78288
G1 X98.980 Y60.237 E0.09114
G1 X83.259 Y44.516 E1.78288
G1 X84.396 Y44.516 E0.09114
G1 X100.117 Y60.237 E1.78288
G1 X101.253 Y60.237 E0.09114
G1 X85.532 Y44.516 E1.78288
G1 X86.669 Y44.516 E0.09114
G1 X102.390 Y60.237 E1.78288
G1 X103.526 Y60.237 E0.09114
G1 X87.805 Y44.516 E1.78288
G1 X88.942 Y44.516 E0.09114
G1 X104.663 Y60.237 E1.78288
G1 X105.800 Y60.237 E0.09114
G1 X90.078 Y44.516 E1.78288
G1 X91.215 Y44.516 E0.09114
G1 X106.936 Y60.237 E1.78288
G1 X108.073 Y60.237 E0.09114
G1 X92.352 Y44.516 E1.78288
G1 X93.488 Y44.516 E0.09114
G1 X109.209 Y60.237 E1.78288
G1 X110.346 Y60.237 E0.09114
G1 X94.625 Y44.516 E1.78288
G1 X95.761 Y44.516 E0.09114
G1 X111.482 Y60.237 E1.78288
G1 X112.619 Y60.237 E0.09114
G1 X96.898 Y44.516 E1.78288
G1 X98.034 Y44.516 E0.09114
G1 X113.755 Y60.237 E1.78288
G1 X114.892 Y60.237 E0.09114
