; generated by Slic3r 1.2.6 on 2015-04-24 at 10:01:16

; external perimeters extrusion width = 0.50mm
; perimeters extrusion width = 0.72mm
; infill extrusion width = 0.72mm
; solid infill extrusion width = 0.72mm
; top infill extrusion width = 0.72mm

M107
M190 S57 ; set bed temperature
G28 ; home all axes
M83;
G10 P0 S195 R160                       ; Set tool 0 operating and standby temperatures
T0

G21 ; set units to millimeters
G90 ; use absolute coordinates
M83 ; use relative distances for extrusion
G1 E-3.50000 F2400.00000
G1 Z0.300 F12000.000
G1 X53.661 Y48.317 F12000.000
G1 E3.50000 F2400.00000
G1 X55.530 Y46.241 E0.25623 F1200.000
G1 X56.110 Y45.719 E0.07166
G1 X58.647 Y43.875 E0.28772
G1 X59.324 Y43.485 E0.07166
G1 X62.189 Y42.210 E0.28772
G1 X62.931 Y41.968 E0.07164
G1 X65.999 Y41.316 E0.28772
G1 X66.761 Y41.235 E0.07036
G1 X90.343 Y41.152 E2.16369
G1 X92.014 Y41.547 E0.15755
G1 X93.332 Y42.648 E0.15755 F1200.000
G1 X94.054 Y44.458 E0.17884
G1 X96.895 Y68.991 E2.26589
G1 X96.849 Y70.143 E0.10582
G1 X96.479 Y72.021 E0.17566
G1 X96.230 Y72.809 E0.07575
G1 X93.760 Y78.398 E0.56067
G1 X93.131 Y79.375 E0.10662
G1 X78.867 Y95.361 E1.96570
G1 X77.062 Y96.479 E0.19482
G1 X68.846 Y98.716 E0.78123
G1 X67.130 Y98.775 E0.15755
G1 X66.286 Y98.498 E0.08153
G1 X55.410 Y93.426 E1.10101
G1 X53.970 Y92.241 E0.17111
G1 X44.641 Y79.444 E1.45301
G1 X44.307 Y78.890 E0.05936
G1 X43.463 Y77.171 E0.17566
G1 X43.082 Y75.425 E0.16405
G1 X43.133 Y73.511 E0.17566
G1 X43.390 Y72.247 E0.11827
G1 X51.162 Y52.423 E1.95366
G1 X51.405 Y51.919 E0.05134
G1 X52.973 Y49.203 E0.28772
G1 X53.432 Y48.572 E0.07165
G1 X53.611 Y48.372 E0.02461
G1 E-3.50000 F2400.00000
G1 X73.490 Y79.917 F12000.000
G1 E3.50000 F2400.00000
G1 X74.023 Y80.304 E0.06043 F900.000
G1 X74.537 Y81.888 E0.15277
G1 X74.023 Y83.472 E0.15277
G1 X72.676 Y84.450 E0.15277
G1 X71.011 Y84.450 E0.15277
G1 X69.664 Y83.472 E0.15277
G1 X69.532 Y83.068 E0.03896
G1 X69.149 Y81.888 E0.11381
G1 X69.664 Y80.304 E0.15277
G1 X71.011 Y79.326 E0.15277
G1 X72.676 Y79.326 E0.15277
G1 X73.271 Y79.758 E0.06748
G1 X73.537 Y79.463 E0.03646
G1 X72.932 Y78.791 E0.08289
G1 X71.772 Y77.949 E0.13154
G1 X70.462 Y77.365 E0.13155
G1 X69.060 Y77.067 E0.13154
G1 X67.626 Y77.067 E0.13155
G1 X66.224 Y77.365 E0.13154
G1 X64.914 Y77.949 E0.13155
G1 X63.754 Y78.791 E0.13154
G1 X63.150 Y79.463 E0.08289
G1 X63.416 Y79.758 E0.03646
G1 X64.011 Y79.326 E0.06748
G1 X65.676 Y79.326 E0.15277
G1 X67.023 Y80.304 E0.15277
G1 X67.537 Y81.888 E0.15277
G1 X67.023 Y83.472 E0.15277
G1 X65.676 Y84.450 E0.15277
G1 X64.011 Y84.450 E0.15277
G1 X62.664 Y83.472 E0.15277
G1 X62.149 Y81.888 E0.15277
G1 X62.664 Y80.304 E0.15277
G1 X63.196 Y79.917 E0.06043
G1 X61.234 Y78.784 E0.20795
G1 X61.819 Y76.983 E0.17374
G1 X62.565 Y75.690 E0.13699
G1 X63.564 Y74.581 E0.13699
G1 X64.772 Y73.703 E0.13699
G1 X66.136 Y73.096 E0.13699
G1 X67.597 Y72.785 E0.13699
G1 X69.090 Y72.785 E0.13699
G1 X70.550 Y73.096 E0.13699
G1 X71.914 Y73.703 E0.13699
G1 X73.122 Y74.581 E0.13699
G1 X74.121 Y75.690 E0.13699
G1 X74.868 Y76.983 E0.13699
G1 X75.453 Y78.784 E0.17374
G1 X73.555 Y79.880 E0.20107
G1 X73.058 Y80.512 F12000.000
G1 X73.397 Y80.759 E0.03849 F900.000
G1 X73.764 Y81.888 E0.10891
G1 X73.397 Y83.017 E0.10891
G1 X72.437 Y83.715 E0.10891
G1 X71.250 Y83.715 E0.10891
G1 X70.289 Y83.017 E0.10891
G1 X69.923 Y81.888 E0.10891
G1 X70.289 Y80.759 E0.10891
G1 X71.250 Y80.061 E0.10891
G1 X72.437 Y80.061 E0.10891 F900.000
G1 X72.997 Y80.468 E0.06353
G1 X73.441 Y80.342 F12000.000
G1 E-3.50000 F2400.00000
G1 X66.764 Y81.888 F12000.000
G1 E3.50000 F2400.00000
G1 X66.397 Y83.017 E0.10891 F900.000
G1 X65.437 Y83.715 E0.10891
G1 X64.250 Y83.715 E0.10891
G1 X63.289 Y83.017 E0.10891
G1 X62.923 Y81.888 E0.10891
G1 X63.289 Y80.759 E0.10891
G1 X64.250 Y80.061 E0.10891
G1 X65.437 Y80.061 E0.10891 F900.000
G1 X66.397 Y80.759 E0.10891
G1 X66.741 Y81.817 E0.10203
G1 X67.168 Y82.182 F12000.000
G1 E-3.50000 F2400.00000
G1 X62.748 Y78.809 F12000.000
G1 E3.50000 F2400.00000
G1 X62.117 Y78.445 E0.06686 F900.000
G1 X62.494 Y77.284 E0.11199
G1 X63.164 Y76.125 E0.12280
G1 X64.059 Y75.130 E0.12280
G1 X65.142 Y74.343 E0.12280
G1 X66.365 Y73.799 E0.12280
G1 X67.674 Y73.521 E0.12280
G1 X69.012 Y73.521 E0.12280
G1 X70.322 Y73.799 E0.12280
G1 X71.544 Y74.343 E0.12280
G1 X72.627 Y75.130 E0.12280
G1 X73.523 Y76.125 E0.12280
G1 X74.192 Y77.284 E0.12280
G1 X74.569 Y78.445 E0.11199
G1 X73.938 Y78.809 E0.06686
G1 X73.427 Y78.242 E0.07006
G1 X72.142 Y77.308 E0.14573
G1 X70.691 Y76.662 E0.14574
G1 X69.137 Y76.332 E0.14573
G1 X67.549 Y76.332 E0.14573
G1 X65.995 Y76.662 E0.14573
G1 X64.544 Y77.308 E0.14574
G1 X63.259 Y78.242 E0.14573
G1 X62.799 Y78.753 E0.06318
G1 X62.469 Y79.224 F12000.000
G1 E-3.50000 F2400.00000
G1 X67.665 Y69.975 F12000.000
G1 E3.50000 F2400.00000
G1 X66.568 Y69.178 E0.12442 F900.000
G1 X66.149 Y67.888 E0.12441
G1 X66.568 Y66.598 E0.12441
G1 X67.665 Y65.801 E0.12441
G1 X69.021 Y65.801 E0.12441 F900.000
G1 X70.118 Y66.598 E0.12441
G1 X70.537 Y67.888 E0.12442
G1 X70.118 Y69.178 E0.12441
G1 X69.021 Y69.975 E0.12441
G1 X67.740 Y69.975 E0.11753
G1 X67.904 Y69.239 F12000.000
G1 X67.194 Y68.723 E0.08056 F900.000
G1 X66.923 Y67.888 E0.08055
G1 X67.194 Y67.053 E0.08055
G1 X67.904 Y66.537 E0.08055
G1 X68.782 Y66.537 E0.08055 F900.000
G1 X69.492 Y67.053 E0.08055
G1 X69.764 Y67.888 E0.08055
G1 X69.492 Y68.723 E0.08055
G1 X68.782 Y69.239 E0.08055
G1 X67.979 Y69.239 E0.07367
G1 X67.500 Y69.533 F12000.000
G1 E-3.50000 F2400.00000
G1 X67.904 Y64.975 F12000.000
G1 E3.50000 F2400.00000
G1 X67.665 Y64.975 E0.02193 F900.000
G1 X66.568 Y64.178 E0.12442
G1 X66.149 Y62.888 E0.12441
G1 X66.568 Y61.598 E0.12441
G1 X67.665 Y60.801 E0.12441
G1 X69.021 Y60.801 E0.12441 F900.000
G1 X70.118 Y61.598 E0.12441
G1 X70.537 Y62.888 E0.12441
G1 X70.118 Y64.178 E0.12441
G1 X69.021 Y64.975 E0.12441
G1 X67.979 Y64.975 E0.09560
G1 X67.904 Y64.239 F12000.000
G1 X67.194 Y63.723 E0.08056 F900.000
G1 X66.923 Y62.888 E0.08055
G1 X67.194 Y62.053 E0.08055
G1 X67.904 Y61.537 E0.08055
G1 X68.782 Y61.537 E0.08055 F900.000
G1 X69.492 Y62.053 E0.08055
G1 X69.764 Y62.888 E0.08055
G1 X69.492 Y63.723 E0.08055
G1 X68.782 Y64.239 E0.08055
G1 X67.979 Y64.239 E0.07367
G1 X67.500 Y64.533 F12000.000
G1 E-3.50000 F2400.00000
G1 X67.904 Y59.975 F12000.000
G1 E3.50000 F2400.00000
G1 X67.665 Y59.975 E0.02193 F900.000
G1 X66.568 Y59.178 E0.12441
G1 X66.149 Y57.888 E0.12441
G1 X66.568 Y56.598 E0.12441
G1 X67.337 Y56.040 E0.08716
G1 X67.665 Y55.801 E0.03726 F900.000
G1 X69.021 Y55.801 E0.12442
G1 X70.118 Y56.598 E0.12441
G1 X70.537 Y57.888 E0.12441
G1 X70.118 Y59.178 E0.12442
G1 X69.021 Y59.975 E0.12441
G1 X67.979 Y59.975 E0.09560
G1 X67.904 Y59.239 F12000.000
G1 X67.194 Y58.723 E0.08055 F900.000
G1 X66.923 Y57.888 E0.08055
G1 X67.194 Y57.053 E0.08055
G1 X67.769 Y56.635 E0.06523
G1 X67.904 Y56.537 E0.01533 F900.000
G1 X68.782 Y56.537 E0.08055
G1 X69.492 Y57.053 E0.08055
G1 X69.764 Y57.888 E0.08055
G1 X69.492 Y58.723 E0.08055
G1 X68.782 Y59.239 E0.08055
G1 X67.979 Y59.239 E0.07367
G1 X67.500 Y59.533 F12000.000
G1 X63.763 Y71.809 F12000.000
G1 X61.224 Y71.751 E0.23304 F900.000
G1 X59.017 Y70.148 E0.25030
G1 X53.559 Y74.727 E0.65363
G1 X53.194 Y76.054 E0.12632
G1 X52.269 Y77.044 E0.12430
G1 X50.990 Y77.490 E0.12430
G1 X49.650 Y77.291 E0.12429
G1 X48.556 Y76.491 E0.12430
G1 X47.959 Y75.275 E0.12430
G1 X47.995 Y73.921 E0.12430
G1 X48.657 Y72.739 E0.12429
G1 X49.792 Y72.000 E0.12430
G1 X51.163 Y71.871 E0.12631
G1 X56.676 Y67.244 E0.66035
G1 X55.683 Y65.525 E0.18218
G1 X54.788 Y62.769 E0.26581
G1 X54.485 Y59.888 E0.26581
G1 X54.788 Y57.007 E0.26581
G1 X55.683 Y54.251 E0.26581
G1 X57.132 Y51.742 E0.26581
G1 X59.070 Y49.589 E0.26581
G1 X61.414 Y47.886 E0.26582
G1 X64.061 Y46.708 E0.26581
G1 X66.895 Y46.106 E0.26581
G1 X69.792 Y46.106 E0.26581
G1 X72.626 Y46.708 E0.26581
G1 X75.272 Y47.886 E0.26581
G1 X77.616 Y49.589 E0.26582
G1 X79.555 Y51.742 E0.26582
G1 X81.003 Y54.251 E0.26581
G1 X81.898 Y57.007 E0.26581
G1 X82.201 Y59.888 E0.26581
G1 X81.898 Y62.769 E0.26582
G1 X81.508 Y63.970 E0.11583
G1 X88.040 Y67.016 E0.66119
G1 X89.397 Y66.786 E0.12631
G1 X90.685 Y67.206 E0.12430
G1 X91.630 Y68.177 E0.12430
G1 X92.016 Y69.475 E0.12429
G1 X91.753 Y70.804 E0.12430
G1 X90.904 Y71.860 E0.12430
G1 X89.661 Y72.399 E0.12429
G1 X88.310 Y72.299 E0.12430
G1 X87.160 Y71.583 E0.12430
G1 X86.464 Y70.395 E0.12631
G1 X80.100 Y67.428 E0.64422
G1 X77.616 Y70.187 E0.34064
G1 X75.463 Y71.751 E0.24422
G1 X72.923 Y71.809 E0.23304
G1 X75.510 Y74.681 E0.35460
G1 X76.436 Y76.285 E0.16991
G1 X77.008 Y78.046 E0.16991
G1 X77.201 Y79.888 E0.16991
G1 X77.008 Y81.730 E0.16991
G1 X76.436 Y83.491 E0.16991
G1 X75.510 Y85.095 E0.16991
G1 X74.270 Y86.471 E0.16990
G1 X71.334 Y88.604 E0.33301
G1 X75.838 Y90.705 E0.45600
G1 X75.531 Y91.365 E0.06686
G1 X69.639 Y88.618 E0.59638
G1 X68.352 Y91.380 E0.27962
G1 X67.940 Y90.638 E0.07784
G1 X66.711 Y90.065 E0.12441
G1 X65.380 Y90.324 E0.12441
G1 X64.455 Y91.316 E0.12442
G1 X64.345 Y92.218 E0.08339
G1 X58.498 Y89.491 E0.59190
G1 X60.822 Y84.507 E0.50463
G1 X54.931 Y81.760 E0.59638
G1 X55.239 Y81.099 E0.06687
G1 X59.838 Y83.243 E0.46553
G1 X59.485 Y79.888 E0.30955
G1 X59.679 Y78.046 E0.16991
G1 X60.251 Y76.285 E0.16991
G1 X61.177 Y74.681 E0.16991
G1 X63.713 Y71.865 E0.34772
G1 X62.144 Y72.508 F12000.000
G1 X60.977 Y72.481 E0.10706 F900.000
G1 X59.049 Y71.081 E0.21865
G1 X54.208 Y75.143 E0.57987
G1 X53.855 Y76.424 E0.12192
G1 X52.682 Y77.679 E0.15757
G1 X51.061 Y78.244 E0.15757
G1 X49.362 Y77.992 E0.15756
G1 X47.976 Y76.978 E0.15757
G1 X47.219 Y75.437 E0.15757
G1 X47.265 Y73.720 E0.15757
G1 X48.103 Y72.222 E0.15756
G1 X49.542 Y71.284 E0.15757
G1 X50.865 Y71.160 E0.12192
G1 X55.730 Y67.077 E0.58268
G1 X55.007 Y65.825 E0.13264
G1 X54.064 Y62.923 E0.28000
G1 X53.745 Y59.888 E0.28000
G1 X54.064 Y56.853 E0.28000
G1 X55.007 Y53.951 E0.28000
G1 X56.533 Y51.308 E0.28000
G1 X58.575 Y49.040 E0.28000
G1 X61.044 Y47.246 E0.28000
G1 X63.832 Y46.005 E0.28000
G1 X66.817 Y45.370 E0.28000
G1 X69.869 Y45.370 E0.28000
G1 X72.854 Y46.005 E0.28000
G1 X75.642 Y47.246 E0.28000
G1 X78.111 Y49.040 E0.28000
G1 X80.153 Y51.308 E0.28000
G1 X81.679 Y53.951 E0.28000
G1 X82.622 Y56.853 E0.28000
G1 X82.941 Y59.888 E0.28000
G1 X82.622 Y62.923 E0.28000
G1 X82.409 Y63.578 E0.06321
G1 X88.143 Y66.252 E0.58045
G1 X88.743 Y66.150 E0.05587
G1 X88.743 Y45.288 E1.91412
G1 X89.943 Y45.288 E0.11010
G1 X89.943 Y66.190 E1.91777
G1 X91.086 Y66.563 E0.11025
G1 X92.284 Y67.793 E0.15757
G1 X92.772 Y69.440 E0.15757
G1 X92.440 Y71.125 E0.15757
G1 X91.363 Y72.462 E0.15757
G1 X89.943 Y73.078 E0.14201
G1 X89.943 Y76.488 E0.31284
G1 X88.743 Y76.488 E0.11010
G1 X88.743 Y73.069 E0.31373
G1 X88.075 Y73.019 E0.06148
G1 X86.617 Y72.111 E0.15757
G1 X85.945 Y70.965 E0.12192
G1 X80.283 Y68.324 E0.57324
G1 X78.111 Y70.736 E0.29779
G1 X75.709 Y72.481 E0.27240
G1 X74.543 Y72.508 E0.10706
G1 X76.108 Y74.247 E0.21464
G1 X77.111 Y75.984 E0.18410
G1 X77.731 Y77.893 E0.18410
G1 X77.941 Y79.888 E0.18409
G1 X77.731 Y81.883 E0.18409
G1 X77.111 Y83.792 E0.18410
G1 X76.108 Y85.529 E0.18410
G1 X74.765 Y87.021 E0.18409
G1 X72.777 Y88.465 E0.22553
G1 X76.816 Y90.349 E0.40892
G1 X75.886 Y92.343 E0.20185
G1 X69.995 Y89.596 E0.59638
G1 X67.671 Y94.580 E0.50463
G1 X66.325 Y93.953 E0.13623
G1 X66.364 Y93.635 E0.02942
G1 X67.133 Y93.485 E0.07180
G1 X67.731 Y92.843 E0.08056
G1 X67.838 Y91.972 E0.08056
G1 X67.413 Y91.204 E0.08055
G1 X66.617 Y90.833 E0.08055
G1 X65.755 Y91.000 E0.08055
G1 X65.156 Y91.642 E0.08056
G1 X65.049 Y92.514 E0.08056
G1 X65.429 Y93.198 E0.07180
G1 X65.210 Y93.433 E0.02942
G1 X57.520 Y89.847 E0.77848
G1 X59.845 Y84.862 E0.50463
G1 X53.954 Y82.115 E0.59638
G1 X54.883 Y80.122 E0.20185
G1 X58.970 Y82.027 E0.41372
G1 X58.745 Y79.888 E0.19735
G1 X58.955 Y77.893 E0.18409
G1 X59.575 Y75.984 E0.18410
G1 X60.578 Y74.247 E0.18410
G1 X62.094 Y72.564 E0.20776
G1 X62.272 Y72.025 F12000.000
G1 X63.257 Y73.647 F12000.000
G1 X61.872 Y75.186 E0.29327 F600.000
G1 X61.060 Y76.590 E0.22964
G1 X60.518 Y78.225 E0.24396
G1 X60.410 Y78.733 E0.07364
G1 X60.908 Y79.325 F12000.000
G1 X62.157 Y80.574 E0.16224 F900.000
G1 X61.901 Y81.360 E0.07598
G1 X59.961 Y79.420 E0.25216
G1 X60.010 Y80.510 E0.10034
G1 X61.744 Y82.245 E0.22539
G1 X65.089 Y78.297 F12000.000
G1 X65.679 Y78.886 E0.07656 F900.000
G1 X65.810 Y77.976 E0.08450
G1 X68.973 Y81.139 E0.41099
G1 X68.718 Y81.925 E0.07598
G1 X67.759 Y80.966 E0.12460
G1 X67.879 Y82.128 E0.10733
G1 X69.105 Y83.354 E0.15930
G1 X69.229 Y80.352 F12000.000
G1 X66.585 Y77.709 E0.34357 F900.000
G1 X67.444 Y77.526 E0.08072
G1 X69.717 Y79.799 E0.29538
G1 X70.320 Y79.361 E0.06854
G1 X68.467 Y77.507 E0.24087
G1 X69.689 Y77.687 E0.11350
G1 X70.924 Y78.922 E0.16049
G1 X71.456 Y78.413 E0.06771
G1 X71.930 Y78.886 E0.06155
G1 X76.700 Y79.489 F12000.000
G1 X76.349 Y79.138 E0.04567 F900.000
G1 X75.490 Y79.320 E0.08072
G1 X76.707 Y80.537 E0.15817
G1 X76.608 Y81.480 E0.08711
G1 X74.756 Y79.628 E0.24066
G1 X74.618 Y80.532 E0.08402
G1 X76.399 Y82.313 E0.23145
G1 X76.143 Y83.100 E0.07598
G1 X74.951 Y81.907 E0.15497
G1 X74.695 Y82.693 E0.07598
G1 X75.810 Y83.809 E0.14494
G1 X75.429 Y84.469 E0.07008
G1 X74.440 Y83.480 E0.12859
G1 X73.926 Y84.008 E0.06770
G1 X75.008 Y85.090 E0.14062
G1 X74.515 Y85.639 E0.06779
G1 X73.323 Y84.447 E0.15489
G1 X72.719 Y84.885 E0.06854
G1 X74.007 Y86.172 E0.16728
G1 X73.417 Y86.624 E0.06829
G1 X71.682 Y84.890 E0.22540
G1 X70.585 Y84.834 E0.10095
G1 X72.813 Y87.063 E0.28958
G1 X72.210 Y87.501 E0.06854
G1 X67.623 Y82.915 E0.59602
G1 X67.360 Y83.693 E0.07553
G1 X71.606 Y87.940 E0.55181
G1 X71.003 Y88.378 E0.06854
G1 X66.757 Y84.132 E0.55181
G1 X66.153 Y84.570 E0.06854
G1 X69.617 Y88.034 E0.45007
G1 X69.195 Y88.654 E0.06891
G1 X65.431 Y84.890 E0.48909
G1 X64.389 Y84.890 E0.09574
G1 X68.863 Y89.364 E0.58143
G1 X68.532 Y90.075 E0.07204
G1 X60.132 Y81.675 E1.09155
G1 X60.254 Y82.839 E0.10757
G1 X67.078 Y89.662 E0.88665
G1 X66.131 Y89.758 E0.08741
G1 X61.133 Y84.759 E0.64952
G1 X60.801 Y85.470 E0.07204
G1 X65.259 Y89.927 E0.57922
G1 X64.745 Y90.455 E0.06770
G1 X60.470 Y86.180 E0.55550
G1 X60.139 Y86.891 E0.07204
G1 X64.242 Y90.994 E0.53323
G1 X63.418 Y91.212 E0.07835
G1 X59.807 Y87.601 E0.46914
G1 X59.476 Y88.312 E0.07204
G1 X61.465 Y90.301 E0.25851
G1 X59.513 Y89.391 F12000.000
G1 X59.145 Y89.022 E0.04788 F900.000
G1 E-3.50000 F2400.00000
G1 X76.276 Y78.733 F12000.000
G1 E3.50000 F2400.00000
G1 X76.168 Y78.225 E0.07364 F600.000
G1 X75.626 Y76.590 E0.24396
G1 X74.814 Y75.186 E0.22964
G1 X73.430 Y73.647 E0.29327
G1 X73.307 Y73.252 F12000.000
G1 X69.876 Y69.821 E0.44608 F900.000
G1 X69.272 Y70.259 E0.06858
G1 X72.340 Y73.327 E0.39880
G1 X70.589 Y72.618 F12000.000
G1 X68.385 Y70.414 E0.28645 F900.000
G1 X67.343 Y70.414 F12000.000
G1 X69.274 Y72.346 E0.25108 F900.000
G1 X68.232 Y72.346 E0.09580
G1 X54.994 Y59.107 E1.72087
G1 X54.969 Y60.125 E0.09359
G1 X67.278 Y72.433 E1.59995
G1 X66.418 Y72.616 E0.08077
G1 X55.092 Y61.290 E1.47231
G1 X55.214 Y62.454 E0.10764
G1 X65.647 Y72.887 E1.35615
G1 X64.926 Y73.208 E0.07256
G1 X63.917 Y72.199 E0.13115
G1 X63.423 Y72.748 E0.06783
G1 X64.274 Y73.598 E0.11059
G1 X63.067 Y71.350 F12000.000
G1 X55.704 Y63.987 E0.95712 F900.000
G1 X56.448 Y65.773 F12000.000
G1 X62.001 Y71.326 E0.72177 F900.000
G1 X59.274 Y69.641 F12000.000
G1 X57.052 Y67.419 E0.28887 F900.000
G1 X56.485 Y67.895 E0.06800
G1 X58.599 Y70.008 E0.27471
G1 X58.032 Y70.483 E0.06800
G1 X55.919 Y68.370 E0.27471
G1 X55.352 Y68.846 E0.06800
G1 X57.465 Y70.959 E0.27471
G1 X56.899 Y71.434 E0.06800
G1 X54.785 Y69.321 E0.27471
G1 X54.219 Y69.797 E0.06800
G1 X56.332 Y71.910 E0.27470
G1 X55.765 Y72.385 E0.06800
G1 X53.652 Y70.272 E0.27470
G1 X53.085 Y70.748 E0.06800
G1 X55.198 Y72.861 E0.27470
G1 X54.632 Y73.336 E0.06800
G1 X52.519 Y71.223 E0.27470
G1 X51.952 Y71.699 E0.06800
G1 X54.065 Y73.812 E0.27470
G1 X53.498 Y74.287 E0.06800
G1 X51.385 Y72.174 E0.27470
G1 X50.527 Y72.358 E0.08070
G1 X53.088 Y74.919 E0.33292
G1 X52.863 Y75.736 E0.07792
G1 X49.663 Y72.537 E0.41593
G1 X49.032 Y72.948 E0.06923
G1 X52.419 Y76.334 E0.44024
G1 X51.822 Y76.780 E0.06845
G1 X48.624 Y73.582 E0.41565
G1 X48.417 Y74.418 E0.07911
