; generated by Slic3r 1.2.6 on 2015-04-24 at 10:01:35

; external perimeters extrusion width = 0.50mm
; perimeters extrusion width = 0.72mm
; infill extrusion width = 0.72mm
; solid infill extrusion width = 0.72mm
; top infill extrusion width = 0.72mm

M107
M190 S57 ; set bed temperature
G28 ; home all axes
M83;
G10 P0 S185 R160                       ; Set tool 0 operating and standby temperatures
T0

G21 ; set units to millimeters
G90 ; use absolute coordinates
M83 ; use relative distances for extrusion
G1 E-3.50000 F2400.00000
G1 Z0.300 F12000.000
G1 X53.309 Y58.363 F12000.000
G1 E3.50000 F2400.00000
G1 X54.416 Y57.373 E0.13624 F1200.000
G1 X55.376 Y56.646 E0.11046
G1 X55.664 Y56.449 E0.03204
G1 X56.670 Y55.825 E0.10856
G1 X56.978 Y55.654 E0.03239
G1 X58.025 Y55.135 E0.10713
G1 X58.351 Y54.993 E0.03266
G1 X59.431 Y54.580 E0.10612
G1 X59.772 Y54.469 E0.03291
G1 X60.881 Y54.163 E0.10556
G1 X61.232 Y54.085 E0.03296
G1 X62.364 Y53.888 E0.10542
G1 X62.721 Y53.843 E0.03300
G1 X63.870 Y53.756 E0.10577
G1 X64.227 Y53.746 E0.03278
G1 X65.379 Y53.768 E0.10573
G1 X65.743 Y53.793 E0.03342 F1200.000
G1 X66.910 Y53.927 E0.10776
G1 X67.256 Y53.984 E0.03220
G1 X68.423 Y54.231 E0.10944
G1 X69.589 Y54.566 E0.11129
G1 X70.698 Y54.973 E0.10841
G1 X72.158 Y55.648 E0.14756
G1 X72.479 Y55.819 E0.03341
G1 X73.573 Y56.472 E0.11688
G1 X96.750 Y72.742 E2.59814
G1 X97.891 Y74.025 E0.15755
G1 X98.338 Y75.799 E0.16779
G1 X98.338 Y82.519 E0.61664
G1 X97.944 Y84.191 E0.15755
G1 X96.843 Y85.509 E0.15755
G1 X94.603 Y86.255 E0.21667
G1 X64.434 Y86.251 E2.76798
G1 X62.863 Y86.164 E0.14433
G1 X61.671 Y86.000 E0.11047
G1 X61.328 Y85.936 E0.03203
G1 X60.176 Y85.665 E0.10857
G1 X59.837 Y85.569 E0.03235
G1 X58.730 Y85.196 E0.10712
G1 X58.398 Y85.066 E0.03275
G1 X57.342 Y84.593 E0.10609
G1 X57.022 Y84.431 E0.03292
G1 X56.022 Y83.863 E0.10554
G1 X55.719 Y83.670 E0.03296
G1 X54.779 Y83.009 E0.10545
G1 X54.496 Y82.789 E0.03293
G1 X53.621 Y82.038 E0.10579
G1 X53.361 Y81.792 E0.03282
G1 X52.556 Y80.955 E0.10655
G1 X52.322 Y80.687 E0.03260
G1 X51.593 Y79.767 E0.10776
G1 X51.388 Y79.482 E0.03219
G1 X50.737 Y78.482 E0.10947
G1 X50.150 Y77.420 E0.11129
G1 X49.653 Y76.349 E0.10840
G1 X49.123 Y74.919 E0.13993
G1 X48.717 Y73.426 E0.14193
G1 X48.644 Y73.085 E0.03202
G1 X48.453 Y71.914 E0.10884
G1 X48.413 Y71.566 E0.03211
G1 X48.333 Y70.385 E0.10861
G1 X48.327 Y70.047 E0.03104
G1 X48.360 Y68.883 E0.10686
G1 X48.388 Y68.524 E0.03300
G1 X48.530 Y67.390 E0.10489
G1 X48.591 Y67.036 E0.03296
G1 X48.842 Y65.914 E0.10546
G1 X48.938 Y65.568 E0.03296
G1 X49.297 Y64.472 E0.10581
G1 X49.424 Y64.139 E0.03274
G1 X49.890 Y63.075 E0.10653
G1 X50.047 Y62.756 E0.03261
G1 X50.618 Y61.730 E0.10779
G1 X50.803 Y61.431 E0.03221
G1 X51.660 Y60.205 E0.13723
G1 X52.403 Y59.306 E0.10700
G1 X53.254 Y58.414 E0.11316
G1 E-3.50000 F2400.00000
G1 X93.467 Y81.384 F12000.000
G1 E3.50000 F2400.00000
G1 X64.628 Y81.384 E2.64597 F900.000
G1 X63.478 Y81.332 E0.10569
G1 X62.389 Y81.181 E0.10079
G1 X61.342 Y80.935 E0.09874
G1 X60.338 Y80.597 E0.09718
G1 X59.382 Y80.169 E0.09610
G1 X58.477 Y79.655 E0.09551
G1 X57.627 Y79.057 E0.09539
G1 X56.835 Y78.377 E0.09574
G1 X56.106 Y77.618 E0.09658
G1 X55.443 Y76.782 E0.09790
G1 X54.847 Y75.865 E0.10031
G1 X54.455 Y75.140 E0.07567
G1 X54.107 Y74.374 E0.07718
G1 X53.721 Y73.309 E0.10392
G1 X53.443 Y72.246 E0.10079
G1 X53.270 Y71.184 E0.09874
G1 X53.198 Y70.127 E0.09718
G1 X53.228 Y69.080 E0.09611
G1 X53.357 Y68.047 E0.09550
G1 X53.584 Y67.033 E0.09538
G1 X53.909 Y66.041 E0.09575
G1 X54.331 Y65.077 E0.09658
G1 X54.849 Y64.144 E0.09789
G1 X55.468 Y63.243 E0.10031
G1 X55.989 Y62.603 E0.07567
G1 X56.563 Y61.989 E0.07718
G1 X57.399 Y61.225 E0.10392
G1 X58.275 Y60.561 E0.10079
G1 X59.190 Y59.995 E0.09873
G1 X60.139 Y59.524 E0.09718
G1 X61.117 Y59.151 E0.09610
G1 X62.121 Y58.875 E0.09550
G1 X63.145 Y58.696 E0.09538
G1 X64.186 Y58.617 E0.09574
G1 X65.230 Y58.638 E0.09582
G1 X66.298 Y58.760 E0.09869
G1 X67.368 Y58.987 E0.10027
G1 X68.158 Y59.223 E0.07567
G1 X68.944 Y59.518 E0.07704
G1 X70.030 Y60.030 E0.11017
G1 X71.028 Y60.626 E0.10662
G1 X71.942 Y61.303 E0.10438
G1 X72.770 Y62.056 E0.10272
G1 X73.510 Y62.880 E0.10164
G1 X74.159 Y63.771 E0.10113
G1 X74.714 Y64.724 E0.10119
G1 X75.172 Y65.735 E0.10182
G1 X75.530 Y66.799 E0.10302
G1 X75.783 Y67.907 E0.10421
G1 X76.118 Y70.836 E0.27049
G1 X76.410 Y72.094 E0.11855
G1 X76.751 Y73.113 E0.09855
G1 X77.092 Y73.878 E0.07680
G1 X77.509 Y74.597 E0.07633
G1 X77.853 Y75.069 E0.05357
G1 X78.240 Y75.504 E0.05342
G1 X78.682 Y75.900 E0.05443
G1 X79.179 Y76.247 E0.05569
G1 X79.732 Y76.534 E0.05717
G1 X80.337 Y76.750 E0.05889
G1 X80.987 Y76.885 E0.06092
G1 X81.649 Y76.934 E0.06086
G1 X93.467 Y76.934 E1.08435
G1 X93.467 Y81.309 E0.40137
G1 X94.203 Y82.119 F12000.000
G1 X64.612 Y82.119 E2.71499 F900.000
G1 X63.411 Y82.065 E0.11032
G1 X62.255 Y81.905 E0.10705
G1 X61.140 Y81.644 E0.10509
G1 X60.070 Y81.283 E0.10360
G1 X59.049 Y80.826 E0.10257
G1 X58.083 Y80.277 E0.10200
G1 X57.175 Y79.638 E0.10189
G1 X56.329 Y78.912 E0.10223
G1 X55.551 Y78.103 E0.10303
G1 X54.845 Y77.212 E0.10429
G1 X54.214 Y76.241 E0.10623
G1 X53.795 Y75.467 E0.08073
G1 X53.425 Y74.652 E0.08217
G1 X53.018 Y73.528 E0.10970
G1 X52.723 Y72.399 E0.10705
G1 X52.538 Y71.268 E0.10509
G1 X52.462 Y70.142 E0.10360
G1 X52.493 Y69.024 E0.10258
G1 X52.631 Y67.921 E0.10199
G1 X52.874 Y66.837 E0.10189
G1 X53.221 Y65.779 E0.10223
G1 X53.671 Y64.750 E0.10303
G1 X54.223 Y63.757 E0.10429
G1 X54.879 Y62.802 E0.10623
G1 X55.434 Y62.120 E0.08073
G1 X56.045 Y61.465 E0.08217
G1 X56.928 Y60.659 E0.10970
G1 X57.858 Y59.954 E0.10706
G1 X58.832 Y59.351 E0.10509
G1 X59.844 Y58.850 E0.10360
G1 X60.888 Y58.451 E0.10257
G1 X61.960 Y58.156 E0.10200
G1 X63.054 Y57.966 E0.10189
G1 X64.165 Y57.881 E0.10223
G1 X65.279 Y57.903 E0.10224
G1 X66.417 Y58.033 E0.10508
G1 X67.549 Y58.274 E0.10621
G1 X68.392 Y58.525 E0.08073
G1 X69.230 Y58.840 E0.08212
G1 X70.376 Y59.380 E0.11623
G1 X71.436 Y60.013 E0.11326
G1 X72.409 Y60.734 E0.11112
G1 X73.293 Y61.537 E0.10954
G1 X74.083 Y62.417 E0.10851
G1 X74.776 Y63.369 E0.10802
G1 X75.369 Y64.386 E0.10808
G1 X75.858 Y65.465 E0.10868
G1 X76.239 Y66.600 E0.10982
G1 X76.509 Y67.783 E0.11132
G1 X76.844 Y70.710 E0.27035
G1 X77.119 Y71.894 E0.11151
G1 X77.437 Y72.846 E0.09208
G1 X77.748 Y73.542 E0.06997
G1 X78.126 Y74.195 E0.06921
G1 X78.426 Y74.606 E0.04669
G1 X78.762 Y74.983 E0.04636
G1 X79.140 Y75.322 E0.04658
G1 X79.561 Y75.617 E0.04713
G1 X80.027 Y75.858 E0.04813
G1 X80.537 Y76.040 E0.04967
G1 X81.090 Y76.155 E0.05186
G1 X81.676 Y76.199 E0.05391
G1 X94.203 Y76.199 E1.14935
G1 X94.203 Y82.044 E0.53636
G1 X93.770 Y81.869 F12000.000
G1 X93.028 Y77.726 F12000.000
G1 X92.675 Y77.374 E0.04646 F900.000
G1 X91.617 Y77.374 E0.09872
G1 X93.028 Y78.784 E0.18608
G1 X93.028 Y79.842 E0.09872
G1 X90.559 Y77.374 E0.32570
G1 X89.501 Y77.374 E0.09872
G1 X93.028 Y80.900 E0.46531
G1 X92.014 Y80.944 E0.09468
G1 X88.443 Y77.374 E0.47117
G1 X87.385 Y77.374 E0.09872
G1 X90.956 Y80.944 E0.47117
G1 X89.898 Y80.944 E0.09872
G1 X86.327 Y77.374 E0.47117
G1 X85.269 Y77.374 E0.09872
G1 X88.840 Y80.944 E0.47117
G1 X87.782 Y80.944 E0.09872
G1 X84.211 Y77.374 E0.47117
G1 X83.153 Y77.374 E0.09872
G1 X86.724 Y80.944 E0.47117
G1 X85.666 Y80.944 E0.09872
G1 X82.095 Y77.374 E0.47117
G1 X81.003 Y77.339 E0.10201
G1 X84.608 Y80.944 E0.47574
G1 X83.550 Y80.944 E0.09872
G1 X79.638 Y77.032 E0.51622
G1 X79.318 Y80.944 F12000.000
G1 X58.959 Y60.586 E2.68655 F900.000
G1 X58.318 Y61.002 E0.07137
G1 X78.260 Y80.944 E2.63158
G1 X77.202 Y80.944 E0.09872
G1 X57.716 Y61.458 E2.57141
G1 X57.155 Y61.956 E0.06993
G1 X76.144 Y80.944 E2.50574
G1 X75.086 Y80.944 E0.09872
G1 X56.626 Y62.485 E2.43594
G1 X56.121 Y63.037 E0.06988
G1 X74.028 Y80.944 E2.36304
G1 X72.970 Y80.944 E0.09872
G1 X55.659 Y63.634 E2.28430
G1 X55.229 Y64.261 E0.07100
G1 X71.912 Y80.944 E2.20152
G1 X70.854 Y80.944 E0.09872
G1 X54.847 Y64.937 E2.11226
G1 X54.504 Y65.653 E0.07402
G1 X69.796 Y80.944 E2.01784
G1 X68.738 Y80.944 E0.09872
G1 X54.207 Y66.413 E1.91754
G1 X53.960 Y67.225 E0.07915
G1 X67.680 Y80.944 E1.81043
G1 X66.622 Y80.944 E0.09872
G1 X53.775 Y68.098 E1.69526
G1 X53.664 Y69.045 E0.08898
G1 X65.564 Y80.944 E1.57027
G1 X64.492 Y80.930 E0.10002
G1 X53.647 Y70.086 E1.43109
G1 X53.753 Y71.250 E0.10911
G1 X63.351 Y80.847 E1.26648
G1 X62.056 Y80.611 E0.12281
G1 X54.033 Y72.587 E1.05877
G1 X54.604 Y74.217 F12000.000
G1 X60.483 Y80.095 E0.77571 F900.000
G1 X57.600 Y78.271 F12000.000
G1 X56.397 Y77.068 E0.15881 F900.000
G1 X59.636 Y60.205 F12000.000
G1 X80.376 Y80.944 E2.73680 F900.000
G1 X81.434 Y80.944 E0.09872
G1 X60.354 Y59.864 E2.78174
G1 X61.119 Y59.572 E0.07648
G1 X82.492 Y80.944 E2.82032
G1 X76.561 Y73.955 F12000.000
G1 X61.947 Y59.341 E1.92845 F900.000
G1 X62.835 Y59.172 E0.08439
G1 X75.967 Y72.304 E1.73294
G1 X75.670 Y70.948 E0.12951
G1 X63.798 Y59.076 E1.56666
G1 X64.853 Y59.073 E0.09844
G1 X75.533 Y69.753 E1.40937
G1 X75.396 Y68.558 E0.11223
G1 X66.028 Y59.191 E1.23615
G1 X67.406 Y59.511 E0.13201
G1 X75.142 Y67.246 E1.02075
G1 X74.533 Y65.580 F12000.000
G1 X69.140 Y60.186 E0.71173 F900.000
G1 E-3.50000 F2400.00000
G1 Z0.600 F12000.000
G1 X93.808 Y81.724 F12000.000
G1 E3.50000 F2400.00000
G1 X64.621 Y81.724 E2.38261 F1800.000
G1 X63.447 Y81.671 E0.09594
G1 X62.327 Y81.517 E0.09225
G1 X61.248 Y81.263 E0.09047
G1 X60.214 Y80.915 E0.08911
G1 X59.228 Y80.473 E0.08817
G1 X58.295 Y79.943 E0.08765
G1 X57.417 Y79.326 E0.08755
G1 X56.601 Y78.625 E0.08786
G1 X55.849 Y77.842 E0.08858
G1 X55.166 Y76.981 E0.08973
G1 X54.554 Y76.039 E0.09169
G1 X54.150 Y75.291 E0.06941
G1 X53.791 Y74.503 E0.07073
G1 X53.395 Y73.410 E0.09484
G1 X53.110 Y72.317 E0.09226
G1 X52.931 Y71.223 E0.09047
G1 X52.857 Y70.134 E0.08911
G1 X52.888 Y69.054 E0.08820
G1 X53.021 Y67.989 E0.08762
G1 X53.255 Y66.942 E0.08754
G1 X53.590 Y65.920 E0.08786
G1 X54.025 Y64.925 E0.08858
G1 X54.560 Y63.965 E0.08973
G1 X55.195 Y63.039 E0.09169
G1 X55.732 Y62.379 E0.06941
G1 X56.323 Y61.746 E0.07073
G1 X57.181 Y60.963 E0.09484
G1 X58.082 Y60.280 E0.09226
G1 X59.024 Y59.697 E0.09046
G1 X60.002 Y59.212 E0.08911
G1 X61.011 Y58.827 E0.08817
G1 X62.046 Y58.542 E0.08765
G1 X63.103 Y58.358 E0.08754
G1 X64.176 Y58.276 E0.08786
G1 X65.236 Y58.297 E0.08652
G1 X66.354 Y58.424 E0.09186
G1 X67.452 Y58.657 E0.09162
G1 X68.266 Y58.900 E0.06941
G1 X69.077 Y59.204 E0.07064
G1 X70.190 Y59.729 E0.10052
G1 X71.217 Y60.342 E0.09760
G1 X72.158 Y61.039 E0.09565
G1 X73.012 Y61.816 E0.09420
G1 X73.775 Y62.666 E0.09326
G1 X74.445 Y63.585 E0.09282
G1 X75.017 Y64.568 E0.09287
G1 X75.490 Y65.610 E0.09342
G1 X75.858 Y66.707 E0.09446
G1 X76.119 Y67.849 E0.09565
G1 X76.454 Y70.778 E0.24060
G1 X76.739 Y72.002 E0.10258
G1 X77.069 Y72.989 E0.08502
G1 X77.395 Y73.722 E0.06552
G1 X77.794 Y74.411 E0.06498
G1 X78.118 Y74.855 E0.04483
G1 X78.482 Y75.263 E0.04462
G1 X78.894 Y75.633 E0.04519
G1 X79.356 Y75.955 E0.04602
G1 X79.869 Y76.221 E0.04714
G1 X80.429 Y76.421 E0.04859
G1 X81.035 Y76.547 E0.05047
G1 X81.661 Y76.594 E0.05129
G1 X93.808 Y76.594 E0.99155
G1 X93.808 Y81.649 E0.41271
G1 X94.353 Y82.269 F12000.000
G1 X64.608 Y82.269 E1.61610 F1800.000
G1 X63.397 Y82.215 E0.06589
G1 X62.227 Y82.053 E0.06415
G1 X61.098 Y81.788 E0.06300
G1 X60.015 Y81.423 E0.06212
G1 X58.981 Y80.960 E0.06152
G1 X58.002 Y80.404 E0.06119
G1 X57.082 Y79.756 E0.06112
G1 X56.226 Y79.021 E0.06132
G1 X55.438 Y78.201 E0.06179
G1 X54.723 Y77.300 E0.06253
G1 X54.085 Y76.318 E0.06362
G1 X53.661 Y75.534 E0.04842
G1 X53.286 Y74.708 E0.04926
G1 X52.874 Y73.572 E0.06566
G1 X52.576 Y72.430 E0.06415
G1 X52.389 Y71.286 E0.06300
G1 X52.312 Y70.145 E0.06212
G1 X52.344 Y69.013 E0.06154
G1 X52.483 Y67.895 E0.06117
G1 X52.729 Y66.798 E0.06112
G1 X53.080 Y65.725 E0.06132
G1 X53.536 Y64.683 E0.06179
G1 X54.096 Y63.678 E0.06253
G1 X54.758 Y62.712 E0.06362
G1 X55.321 Y62.021 E0.04842
G1 X55.940 Y61.358 E0.04926
G1 X56.832 Y60.543 E0.06566
G1 X57.773 Y59.830 E0.06415
G1 X58.759 Y59.220 E0.06300
G1 X59.783 Y58.712 E0.06213
G1 X60.841 Y58.308 E0.06152
G1 X61.927 Y58.009 E0.06119
G1 X63.035 Y57.817 E0.06112
G1 X64.161 Y57.731 E0.06132
G1 X65.272 Y57.753 E0.06038
G1 X66.441 Y57.885 E0.06394
G1 X67.586 Y58.128 E0.06361
G1 X68.440 Y58.383 E0.04842
G1 X69.289 Y58.701 E0.04925
G1 X70.447 Y59.247 E0.06956
G1 X71.519 Y59.888 E0.06788
G1 X72.505 Y60.617 E0.06662
G1 X73.399 Y61.431 E0.06569
G1 X74.199 Y62.322 E0.06509
G1 X74.902 Y63.286 E0.06480
G1 X75.502 Y64.318 E0.06483
G1 X75.998 Y65.410 E0.06519
G1 X76.384 Y66.559 E0.06586
G1 X76.657 Y67.757 E0.06678
G1 X76.992 Y70.685 E0.16008
G1 X77.264 Y71.853 E0.06519
G1 X77.577 Y72.792 E0.05375
G1 X77.882 Y73.474 E0.04061
G1 X78.252 Y74.113 E0.04013
G1 X78.542 Y74.512 E0.02681
G1 X78.868 Y74.877 E0.02660
G1 X79.233 Y75.205 E0.02663
G1 X79.639 Y75.488 E0.02688
G1 X80.087 Y75.720 E0.02741
G1 X80.577 Y75.895 E0.02830
G1 X81.111 Y76.006 E0.02961
G1 X81.681 Y76.049 E0.03109
G1 X94.353 Y76.049 E0.68847
G1 X94.353 Y82.194 E0.33392
G1 X93.920 Y82.019 F12000.000
G1 X93.102 Y81.336 F12000.000
G1 X93.420 Y81.019 E0.03671 F1800.000
G1 X93.420 Y80.092 E0.07572
G1 X92.176 Y81.336 E0.14380
G1 X91.249 Y81.336 E0.07572
G1 X93.420 Y79.166 E0.25089
G1 X93.420 Y78.239 E0.07572
G1 X90.322 Y81.336 E0.35797
G1 X89.396 Y81.336 E0.07572
G1 X93.420 Y77.312 E0.46506
G1 X92.824 Y76.981 E0.05568
G1 X88.469 Y81.336 E0.50332
G1 X87.543 Y81.336 E0.07572
G1 X91.898 Y76.981 E0.50332
G1 X90.971 Y76.981 E0.07572
G1 X86.616 Y81.336 E0.50332
G1 X85.689 Y81.336 E0.07572
G1 X90.045 Y76.981 E0.50332
G1 X89.118 Y76.981 E0.07572
G1 X84.763 Y81.336 E0.50332
G1 X83.836 Y81.336 E0.07572
G1 X88.191 Y76.981 E0.50332
G1 X87.265 Y76.981 E0.07572
G1 X82.910 Y81.336 E0.50332
G1 X81.983 Y81.336 E0.07572
G1 X86.338 Y76.981 E0.50332
G1 X85.412 Y76.981 E0.07572
G1 X81.056 Y81.336 E0.50332
G1 X80.130 Y81.336 E0.07572
G1 X84.485 Y76.981 E0.50332
G1 X83.558 Y76.981 E0.07572
G1 X79.203 Y81.336 E0.50332
G1 X78.277 Y81.336 E0.07572
G1 X82.632 Y76.981 E0.50332
G1 X81.710 Y76.976 E0.07530
G1 X77.350 Y81.336 E0.50392
G1 X76.424 Y81.336 E0.07572
G1 X80.876 Y76.884 E0.51455
G1 X80.144 Y76.690 E0.06191
G1 X75.497 Y81.336 E0.53701
G1 X74.570 Y81.336 E0.07572
G1 X79.496 Y76.411 E0.56929
G1 X78.922 Y76.059 E0.05507
G1 X73.644 Y81.336 E0.60996
G1 X72.717 Y81.336 E0.07572
G1 X78.411 Y75.643 E0.65799
G1 X77.956 Y75.171 E0.05355
G1 X71.791 Y81.336 E0.71259
G1 X70.864 Y81.336 E0.07572
G1 X77.554 Y74.646 E0.77316
G1 X77.206 Y74.068 E0.05518
G1 X69.937 Y81.336 E0.84004
G1 X69.011 Y81.336 E0.07572
G1 X76.898 Y73.449 E0.91150
G1 X76.632 Y72.789 E0.05818
G1 X68.084 Y81.336 E0.98781
G1 X67.158 Y81.336 E0.07572
G1 X76.400 Y72.095 E1.06808
G1 X76.218 Y71.350 E0.06265
G1 X66.231 Y81.336 E1.15415
G1 X65.304 Y81.336 E0.07572
G1 X76.057 Y70.584 E1.24265
G1 X75.962 Y69.753 E0.06838
G1 X64.383 Y81.331 E1.33814
G1 X63.496 Y81.291 E0.07252
G1 X75.866 Y68.921 E1.42958
G1 X75.771 Y68.090 E0.06838
G1 X62.671 Y81.190 E1.51399
G1 X61.890 Y81.044 E0.06490
G1 X75.626 Y67.309 E1.58744
G1 X75.441 Y66.567 E0.06248
G1 X61.148 Y80.860 E1.65181
G1 X60.456 Y80.626 E0.05976
G1 X75.208 Y65.873 E1.70495
G1 X74.936 Y65.219 E0.05792
G1 X59.801 Y80.354 E1.74913
G1 X59.174 Y80.054 E0.05680
G1 X74.640 Y64.589 E1.78738
G1 X74.299 Y64.003 E0.05538
G1 X58.583 Y79.719 E1.81625
G1 X58.028 Y79.348 E0.05459
G1 X73.931 Y63.444 E1.83793
G1 X73.540 Y62.908 E0.05420
G1 X57.494 Y78.955 E1.85452
G1 X56.997 Y78.525 E0.05368
G1 X73.106 Y62.415 E1.86176
G1 X72.656 Y61.939 E0.05356
G1 X56.534 Y78.062 E1.86330
G1 X56.075 Y77.594 E0.05355
G1 X72.171 Y61.498 E1.86023
G1 X71.659 Y61.083 E0.05384
G1 X55.665 Y77.077 E1.84841
G1 X55.277 Y76.538 E0.05425
G1 X71.127 Y60.689 E1.83173
G1 X70.552 Y60.337 E0.05506
G1 X54.912 Y75.977 E1.80753
G1 X54.582 Y75.380 E0.05572
G1 X69.963 Y60.000 E1.77751
G1 X69.333 Y59.703 E0.05689
G1 X54.282 Y74.754 E1.73946
G1 X54.014 Y74.095 E0.05813
G1 X68.682 Y59.427 E1.69511
G1 X67.994 Y59.188 E0.05948
G1 X53.768 Y73.415 E1.64414
G1 X53.574 Y72.682 E0.06195
G1 X67.268 Y58.988 E1.58258
G1 X66.504 Y58.826 E0.06386
G1 X53.416 Y71.913 E1.51254
G1 X53.302 Y71.101 E0.06708
G1 X65.680 Y58.723 E1.43046
G1 X64.802 Y58.674 E0.07182
G1 X53.247 Y70.230 E1.33549
