; generated by Slic3r 1.0.0RC2 on 2014-02-10 at 15:03:45

; layer_height = 0.24
; perimeters = 2
; top_solid_layers = 4
; bottom_solid_layers = 3
; fill_density = 0.3
; perimeter_speed = 20
; infill_speed = 20
; travel_speed = 60
; nozzle_diameter = 0.5
; filament_diameter = 1.75
; extrusion_multiplier = 1
; perimeters extrusion width = 0.50mm
; infill extrusion width = 0.87mm
; solid infill extrusion width = 0.85mm
; top infill extrusion width = 0.85mm

G21 ; set units to millimeters
M140 S65; Set bed temperature
G28 X0 Y0; Home all axes
G1 Z5 F200 ; lift nozzle
G1 X2 Y50 F2000; Go to wait for warm position
M116; Wait for all temperatures
G10 P0 S185 R0 ; Set extruder temperature
T0; Select extruder
M116; Wait for all temperatures
G90 ; use absolute coordinates
M83 ; use relative distances for extrusion
G1 F1800.000 E-4.00000
G1 X100.020 Y84.034 F3600.000
G1 Z0.240 F3600.000
G1 E4.00000 F1800.000
G1 X101.190 Y82.634 E0.09103 F600.000
G1 X101.710 Y82.084 E0.03776
G1 X103.030 Y80.834 E0.09070
G1 X103.690 Y80.284 E0.04286
G1 X105.170 Y79.214 E0.09111
G1 X105.860 Y78.784 E0.04056
G1 X107.450 Y77.914 E0.09042
G1 X108.170 Y77.574 E0.03972
G1 X109.860 Y76.904 E0.09070
G1 X110.630 Y76.654 E0.04039
G1 X112.400 Y76.194 E0.09124
G1 X113.240 Y76.034 E0.04266
G1 X115.040 Y75.814 E0.09047
G1 X115.830 Y75.764 E0.03949
G1 X117.660 Y75.764 E0.09130
G1 X118.450 Y75.814 E0.03949
G1 X120.250 Y76.034 E0.09047
G1 X121.090 Y76.194 E0.04266
G1 X122.860 Y76.654 E0.09124
G1 X123.630 Y76.904 E0.04039
G1 X125.320 Y77.574 E0.09070
G1 X126.040 Y77.914 E0.03972
G1 X140.870 Y86.034 E0.84352
G1 X142.010 Y86.824 E0.06920
G1 X142.960 Y87.844 E0.06954
G1 X143.660 Y89.034 E0.06888
G1 X144.100 Y90.354 E0.06942
G1 X144.250 Y91.734 E0.06925
G1 X144.250 Y101.734 E0.49890
G1 X144.130 Y103.004 E0.06364
G1 X143.760 Y104.224 E0.06360
G1 X143.150 Y105.344 E0.06363
G1 X142.350 Y106.334 E0.06350
G1 X126.350 Y122.334 E1.12889
G1 X125.360 Y123.134 E0.06350
G1 X124.240 Y123.744 E0.06363
G1 X123.020 Y124.114 E0.06360
G1 X121.750 Y124.234 E0.06364
G1 X111.750 Y124.234 E0.49890
G1 X110.370 Y124.084 E0.06925
G1 X109.060 Y123.654 E0.06879
G1 X107.860 Y122.944 E0.06956
G1 X106.850 Y122.004 E0.06884
G1 X106.050 Y120.864 E0.06948
G1 X98.160 Y106.494 E0.81788
G1 X97.380 Y104.844 E0.09105
G1 X97.080 Y104.064 E0.04169
G1 X96.520 Y102.334 E0.09072
G1 X96.310 Y101.544 E0.04078
G1 X95.970 Y99.754 E0.09090
G1 X95.870 Y98.934 E0.04121
G1 X95.760 Y97.124 E0.09047
G1 X95.760 Y96.334 E0.03941
G1 X95.870 Y94.554 E0.08897
G1 X95.970 Y93.764 E0.03973
G1 X96.310 Y91.934 E0.09286
G1 X96.520 Y91.124 E0.04175
G1 X97.080 Y89.394 E0.09072
G1 X97.380 Y88.614 E0.04169
G1 X98.160 Y86.964 E0.09105
G1 X98.540 Y86.284 E0.03886
G1 X99.510 Y84.744 E0.09080
G1 X99.976 Y84.095 E0.03987
G1 F1800.000 E-4.00000
G1 X115.602 Y113.156 F3600.000
G1 E4.00000 F1800.000
G1 X116.146 Y112.878 E0.03049 F600.000
G1 X116.750 Y112.783 E0.03049
G1 X117.354 Y112.878 E0.03049
G1 X117.898 Y113.156 E0.03049
G1 X118.330 Y113.588 E0.03049
G1 X118.608 Y114.132 E0.03049
G1 X118.703 Y114.736 E0.03048
G1 X118.608 Y115.339 E0.03049
G1 X118.330 Y115.884 E0.03049
G1 X117.898 Y116.316 E0.03049
G1 X117.354 Y116.593 E0.03049
G1 X116.750 Y116.689 E0.03049
G1 X116.146 Y116.593 E0.03049
G1 X115.602 Y116.316 E0.03049
G1 X115.170 Y115.884 E0.03049
G1 X114.892 Y115.339 E0.03049
G1 X114.797 Y114.736 E0.03048
G1 X114.892 Y114.132 E0.03048
G1 X115.170 Y113.588 E0.03049
G1 X115.549 Y113.209 E0.02674
G1 X115.576 Y112.656 F3600.000
G1 X115.304 Y112.746 F3600.000
G1 X114.760 Y113.290 E0.03839 F600.000
G1 X114.699 Y113.410 E0.00672
G1 X114.411 Y113.976 E0.03167
G1 X114.291 Y114.736 E0.03839
G1 X114.411 Y115.496 E0.03839
G1 X114.760 Y116.181 E0.03839
G1 X115.565 Y116.986 E0.05676
G1 X112.500 Y116.986 E0.15290
G1 X112.500 Y109.811 E0.35796
G1 X110.896 Y109.176 E0.08606
G1 X109.383 Y108.344 E0.08614
G1 X107.986 Y107.329 E0.08614
G1 X106.728 Y106.147 E0.08614
G1 X105.627 Y104.817 E0.08614
G1 X104.702 Y103.359 E0.08614
G1 X103.967 Y101.797 E0.08614
G1 X103.433 Y100.155 E0.08614
G1 X103.110 Y98.459 E0.08614
G1 X103.001 Y96.736 E0.08614
G1 X103.110 Y95.013 E0.08614
G1 X103.433 Y93.317 E0.08614
G1 X103.967 Y91.675 E0.08614
G1 X104.702 Y90.112 E0.08614
G1 X105.627 Y88.655 E0.08614
G1 X106.728 Y87.324 E0.08614
G1 X107.986 Y86.142 E0.08614
G1 X109.383 Y85.127 E0.08614
G1 X110.896 Y84.296 E0.08614
G1 X112.501 Y83.660 E0.08614
G1 X114.174 Y83.231 E0.08614
G1 X115.887 Y83.014 E0.08614
G1 X117.613 Y83.014 E0.08614
G1 X119.326 Y83.231 E0.08614
G1 X120.999 Y83.660 E0.08614
G1 X122.604 Y84.296 E0.08614
G1 X124.117 Y85.127 E0.08614
G1 X125.514 Y86.142 E0.08614
G1 X126.772 Y87.324 E0.08614
G1 X127.873 Y88.655 E0.08614
G1 X128.798 Y90.112 E0.08614
G1 X129.533 Y91.674 E0.08614
G1 X129.797 Y92.486 E0.04255
G1 X137.000 Y92.486 E0.35938
G1 X137.000 Y94.486 E0.09978
G1 X127.753 Y94.486 E0.46136
G1 X127.648 Y93.938 E0.02784
G1 X127.211 Y92.594 E0.07049
G1 X126.610 Y91.315 E0.07049
G1 X125.853 Y90.122 E0.07049
G1 X124.952 Y89.034 E0.07049
G1 X123.922 Y88.066 E0.07049
G1 X122.779 Y87.236 E0.07049
G1 X121.541 Y86.555 E0.07049
G1 X120.227 Y86.035 E0.07049
G1 X118.858 Y85.684 E0.07049
G1 X117.456 Y85.506 E0.07049
G1 X116.044 Y85.506 E0.07049
G1 X114.642 Y85.684 E0.07049
G1 X113.273 Y86.035 E0.07049
G1 X111.959 Y86.555 E0.07049
G1 X110.721 Y87.236 E0.07049
G1 X109.578 Y88.066 E0.07049
G1 X108.548 Y89.034 E0.07049
G1 X107.647 Y90.122 E0.07049
G1 X106.890 Y91.315 E0.07049
G1 X106.289 Y92.594 E0.07049
G1 X105.852 Y93.938 E0.07049
G1 X105.587 Y95.326 E0.07049
G1 X105.499 Y96.736 E0.07049
G1 X105.587 Y98.146 E0.07049
G1 X105.852 Y99.534 E0.07049
G1 X106.289 Y100.878 E0.07049
G1 X106.890 Y102.156 E0.07049
G1 X107.647 Y103.349 E0.07049
G1 X108.548 Y104.438 E0.07049
G1 X109.578 Y105.405 E0.07049
G1 X110.721 Y106.236 E0.07049
G1 X111.959 Y106.916 E0.07049
G1 X113.273 Y107.436 E0.07049
G1 X114.642 Y107.788 E0.07049
G1 X116.043 Y107.965 E0.07049
G1 X117.456 Y107.965 E0.07049
G1 X118.858 Y107.788 E0.07049
G1 X120.227 Y107.436 E0.07049
G1 X121.541 Y106.916 E0.07049
G1 X122.779 Y106.236 E0.07049
G1 X123.922 Y105.405 E0.07049
G1 X124.952 Y104.438 E0.07049
G1 X125.853 Y103.349 E0.07049
G1 X126.610 Y102.156 E0.07049
G1 X127.211 Y100.878 E0.07049
G1 X127.648 Y99.534 E0.07049
G1 X127.753 Y98.986 E0.02784
G1 X137.000 Y98.986 E0.46136
G1 X137.000 Y100.986 E0.09978
G1 X129.796 Y100.986 E0.35938
G1 X129.533 Y101.797 E0.04255
G1 X128.798 Y103.359 E0.08614
G1 X127.873 Y104.817 E0.08614
G1 X126.772 Y106.147 E0.08614
G1 X125.514 Y107.329 E0.08614
G1 X124.117 Y108.344 E0.08614
G1 X122.604 Y109.176 E0.08614
G1 X121.000 Y109.811 E0.08606
G1 X121.000 Y116.986 E0.35796
G1 X117.935 Y116.986 E0.15290
G1 X118.740 Y116.181 E0.05676
G1 X119.089 Y115.496 E0.03839
G1 X119.209 Y114.736 E0.03839
G1 X119.089 Y113.976 E0.03839
G1 X118.740 Y113.290 E0.03839
G1 X118.196 Y112.746 E0.03839
G1 X117.510 Y112.397 E0.03839
G1 X116.750 Y112.276 E0.03839
G1 X115.990 Y112.397 E0.03839
G1 X115.371 Y112.712 E0.03465
G1 X112.000 Y110.150 F3600.000
G1 X110.683 Y109.629 E0.07068 F420.000
G1 X109.115 Y108.767 E0.08928
G1 X107.667 Y107.715 E0.08928
G1 X106.363 Y106.490 E0.08927
G1 X105.222 Y105.111 E0.08928
G1 X104.263 Y103.600 E0.08928
G1 X103.501 Y101.981 E0.08928
G1 X102.948 Y100.279 E0.08928
G1 X102.613 Y98.522 E0.08928
G1 X102.500 Y96.736 E0.08928
G1 X102.613 Y94.950 E0.08928
G1 X102.948 Y93.192 E0.08928
G1 X103.501 Y91.490 E0.08928
G1 X104.263 Y89.871 E0.08928
G1 X105.222 Y88.360 E0.08928
G1 X106.363 Y86.981 E0.08928
G1 X107.667 Y85.756 E0.08927
G1 X109.115 Y84.704 E0.08928
G1 X110.683 Y83.842 E0.08928
G1 X112.347 Y83.184 E0.08928
G1 X114.080 Y82.739 E0.08928
G1 X115.855 Y82.514 E0.08928
G1 X117.645 Y82.514 E0.08928
G1 X119.420 Y82.739 E0.08928
G1 X121.153 Y83.184 E0.08928
G1 X122.817 Y83.842 E0.08928
G1 X124.385 Y84.704 E0.08928
G1 X125.833 Y85.756 E0.08928
G1 X127.137 Y86.981 E0.08927
G1 X128.278 Y88.360 E0.08928
G1 X129.237 Y89.871 E0.08928
G1 X129.999 Y91.490 E0.08928
G1 X130.160 Y91.986 E0.02600
G1 X137.500 Y91.986 E0.36620
G1 X137.500 Y94.986 E0.14967
G1 X127.339 Y94.986 E0.50694
G1 X127.163 Y94.062 E0.04691
G1 X126.746 Y92.778 E0.06735
G1 X126.171 Y91.557 E0.06735
G1 X125.447 Y90.417 E0.06735
G1 X124.587 Y89.376 E0.06735
G1 X123.603 Y88.452 E0.06736
G1 X122.510 Y87.659 E0.06735
G1 X121.327 Y87.008 E0.06735
G1 X120.072 Y86.511 E0.06735
G1 X118.764 Y86.176 E0.06735
G1 X117.425 Y86.006 E0.06735
G1 X116.075 Y86.006 E0.06736
G1 X114.736 Y86.176 E0.06735
G1 X113.428 Y86.511 E0.06735
G1 X112.173 Y87.008 E0.06735
G1 X110.990 Y87.659 E0.06735
G1 X109.897 Y88.452 E0.06735
G1 X108.913 Y89.376 E0.06735
G1 X108.053 Y90.417 E0.06736
G1 X107.329 Y91.557 E0.06735
G1 X106.754 Y92.778 E0.06735
G1 X106.337 Y94.062 E0.06735
G1 X106.084 Y95.388 E0.06735
G1 X106.000 Y96.736 E0.06735
G1 X106.084 Y98.083 E0.06735
G1 X106.337 Y99.409 E0.06735
G1 X106.754 Y100.693 E0.06735
G1 X107.329 Y101.915 E0.06735
G1 X108.030 Y103.019 E0.06525
G1 X108.913 Y104.095 E0.06944
G1 X109.897 Y105.019 E0.06735
G1 X110.990 Y105.813 E0.06735
G1 X112.173 Y106.463 E0.06735
G1 X113.428 Y106.960 E0.06735
G1 X114.736 Y107.296 E0.06735
G1 X116.075 Y107.465 E0.06736
G1 X117.425 Y107.465 E0.06736
G1 X118.764 Y107.296 E0.06735
G1 X120.072 Y106.960 E0.06735
G1 X121.327 Y106.463 E0.06735
G1 X122.510 Y105.813 E0.06735
G1 X123.603 Y105.019 E0.06735
G1 X124.587 Y104.095 E0.06735
G1 X125.447 Y103.055 E0.06735
G1 X126.171 Y101.915 E0.06735
G1 X126.746 Y100.693 E0.06735
G1 X127.163 Y99.409 E0.06735
G1 X127.339 Y98.486 E0.04691
G1 X137.500 Y98.486 E0.50694
G1 X137.500 Y101.486 E0.14967
G1 X130.160 Y101.486 E0.36620
G1 X129.999 Y101.981 E0.02600
G1 X129.237 Y103.600 E0.08928
G1 X128.278 Y105.111 E0.08928
G1 X127.137 Y106.490 E0.08928
G1 X125.833 Y107.715 E0.08927
G1 X124.385 Y108.767 E0.08928
G1 X122.817 Y109.629 E0.08928
G1 X121.500 Y110.150 E0.07068
G1 X121.500 Y117.486 E0.36596
G1 X112.000 Y117.486 E0.47396
G1 X112.000 Y110.225 E0.36221
G1 X112.124 Y109.666 F3600.000
G1 X117.620 Y112.020 F3600.000
G1 X113.494 Y107.895 E0.47473 F600.000
G1 X112.807 Y109.514 E0.14312
G1 X104.032 Y100.739 E1.00966
G1 F1800.000 E-4.00000
G1 X112.970 Y116.597 F3600.000
G1 E4.00000 F1800.000
G1 X112.889 Y116.515 E0.00938 F600.000
G1 X112.889 Y115.362 E0.09383
G1 X114.124 Y116.597 E0.14208
G1 X113.987 Y115.308 E0.10549
G1 X112.889 Y114.209 E0.12642
G1 X113.989 Y114.156 E0.08960
G1 X112.889 Y113.056 E0.12657
G1 X112.889 Y111.902 E0.09383
G1 X114.308 Y113.322 E0.16329
G1 X114.820 Y112.680 E0.06676
G1 X112.889 Y110.749 E0.22222
G1 X112.889 Y109.596 E0.09383
G1 X115.502 Y112.209 E0.30067
G1 X116.386 Y111.940 E0.07521
G1 X111.619 Y107.173 E0.54855
G1 X110.842 Y108.702 E0.13956
G1 X104.806 Y102.666 E0.69452
G1 X106.335 Y101.889 E0.13955
G1 X103.647 Y99.201 E0.30921
G1 X103.462 Y97.863 E0.10995
G1 X105.592 Y99.993 E0.24514
G1 X105.260 Y98.508 E0.12382
G1 X103.397 Y96.644 E0.21444
G1 X103.465 Y95.559 E0.08845
G1 X105.140 Y97.235 E0.19276
G1 X105.149 Y96.091 E0.09309
G1 X103.596 Y94.537 E0.17871
G1 X103.781 Y93.569 E0.08022
G1 X105.247 Y95.035 E0.16866
G1 X105.432 Y94.066 E0.08022
G1 X104.048 Y92.683 E0.15919
G1 X104.332 Y91.813 E0.07444
G1 X105.692 Y93.173 E0.15650
G1 X105.989 Y92.317 E0.07372
G1 X104.701 Y91.029 E0.14825
G1 X105.075 Y90.250 E0.07030
G1 X106.358 Y91.533 E0.14761
G1 X106.765 Y90.787 E0.06916
G1 X105.523 Y89.545 E0.14293
G1 X105.975 Y88.844 E0.06787
G1 X107.213 Y90.081 E0.14239
G1 X107.715 Y89.430 E0.06690
G1 X106.497 Y88.213 E0.14011
G1 X107.049 Y87.611 E0.06641
G1 X108.237 Y88.799 E0.13670
G1 X108.828 Y88.237 E0.06637
G1 X107.626 Y87.035 E0.13835
G1 X108.210 Y86.466 E0.06635
G1 X109.434 Y87.690 E0.14087
G1 X110.102 Y87.205 E0.06718
G1 X108.875 Y85.977 E0.14123
G1 X109.543 Y85.492 E0.06717
G1 X110.799 Y86.749 E0.14461
G1 X111.544 Y86.340 E0.06909
G1 X110.281 Y85.077 E0.14526
G1 X111.025 Y84.668 E0.06909
G1 X112.342 Y85.985 E0.15153
G1 X113.170 Y85.660 E0.07237
G1 X111.847 Y84.337 E0.15219
G1 X112.679 Y84.016 E0.07256
G1 X114.088 Y85.424 E0.16206
G1 X115.056 Y85.239 E0.08020
G1 X113.597 Y83.780 E0.16788
G1 X114.545 Y83.576 E0.07896
G1 X116.087 Y85.118 E0.17742
G1 X117.241 Y85.118 E0.09383
G1 X115.569 Y83.446 E0.19230
G1 X116.679 Y83.403 E0.09039
G1 X118.526 Y85.250 E0.21246
G1 X120.006 Y85.577 E0.12336
G1 X117.868 Y83.438 E0.24605
G1 X119.188 Y83.605 E0.10825
G1 X121.881 Y86.298 E0.30991
G1 X122.658 Y84.769 E0.13956
G1 X128.694 Y90.805 E0.69451
G1 X127.165 Y91.583 E0.13955
G1 X129.679 Y94.097 E0.28928
G1 X130.833 Y94.097 E0.09383
G1 X120.728 Y83.992 E1.16273
G1 X127.908 Y93.478 F3600.000
G1 X128.526 Y94.097 E0.07118 F600.000
G1 X130.764 Y92.875 F3600.000
G1 X131.986 Y94.097 E0.14064 F600.000
G1 X133.139 Y94.097 E0.09383
G1 X131.917 Y92.875 E0.14064
G1 X133.070 Y92.875 E0.09383
G1 X134.292 Y94.097 E0.14064
G1 X135.445 Y94.097 E0.09383
G1 X134.223 Y92.875 E0.14064
G1 X135.376 Y92.875 E0.09383
G1 X136.599 Y94.097 E0.14064
G1 X136.611 Y92.956 E0.09282
G1 X136.530 Y92.875 E0.00938
G1 F1800.000 E-4.00000
G1 X136.110 Y99.375 F3600.000
G1 E4.00000 F1800.000
G1 X136.611 Y99.875 E0.05762 F600.000
G1 X136.179 Y100.597 E0.06841
G1 X134.957 Y99.375 E0.14064
G1 X133.804 Y99.375 E0.09383
G1 X135.026 Y100.597 E0.14064
G1 X133.873 Y100.597 E0.09383
G1 X132.651 Y99.375 E0.14064
G1 X131.498 Y99.375 E0.09383
G1 X132.720 Y100.597 E0.14064
G1 X131.567 Y100.597 E0.09383
G1 X130.344 Y99.375 E0.14064
G1 X129.191 Y99.375 E0.09383
G1 X130.413 Y100.597 E0.14064
G1 X129.452 Y100.788 E0.07978
G1 X128.068 Y99.405 E0.15917
G1 X127.808 Y100.298 E0.07569
G1 X129.168 Y101.658 E0.15649
G1 X128.799 Y102.443 E0.07052
G1 X127.511 Y101.154 E0.14825
G1 X127.142 Y101.938 E0.07052
G1 X128.425 Y103.221 E0.14761
G1 X127.977 Y103.927 E0.06799
G1 X126.735 Y102.684 E0.14293
G1 X126.287 Y103.390 E0.06799
G1 X127.525 Y104.627 E0.14239
G1 X127.003 Y105.259 E0.06664
G1 X125.785 Y104.041 E0.14011
G1 X125.263 Y104.672 E0.06664
G1 X126.480 Y105.889 E0.13999
G1 X125.885 Y106.447 E0.06638
G1 X124.672 Y105.234 E0.13956
G1 X124.066 Y105.781 E0.06644
G1 X125.290 Y107.006 E0.14087
G1 X124.625 Y107.494 E0.06712
G1 X123.398 Y106.267 E0.14123
G1 X122.701 Y106.722 E0.06779
G1 X123.957 Y107.979 E0.14461
G1 X123.219 Y108.394 E0.06891
G1 X121.956 Y107.132 E0.14526
G1 X121.158 Y107.486 E0.07110
G1 X122.475 Y108.803 E0.15153
G1 X121.653 Y109.134 E0.07211
G1 X120.330 Y107.812 E0.15219
G1 X119.412 Y108.047 E0.07708
G1 X120.826 Y109.461 E0.16271
G1 X120.611 Y110.399 E0.07830
G1 X118.444 Y108.232 E0.24934
G1 X117.413 Y108.354 E0.08451
G1 X120.611 Y111.552 E0.36803
G1 X120.611 Y112.705 E0.09383
G1 X116.260 Y108.354 E0.50073
G1 X114.974 Y108.222 E0.10512
G1 X120.611 Y113.859 E0.64862
G1 X119.465 Y113.866 E0.09323
G1 X120.611 Y115.012 E0.13184
G1 X119.545 Y115.099 E0.08700
G1 X120.611 Y116.165 E0.12262
G1 X119.890 Y116.597 E0.06841
G1 X119.277 Y115.984 E0.07053
G1 X117.530 Y116.896 F3600.000
G1 X117.519 Y116.886 E0.00040 F300.000
G1 X117.530 Y116.896 F3600.000
G1 X117.335 Y117.091 E0.00758 F300.000
G1 X117.201 Y116.958 E0.00519 F300.000
G1 X117.003 Y117.149 E0.00758 F300.000
G1 X116.865 Y117.011 E0.00538 F300.000
G1 X116.613 Y117.149 E0.00789 F300.000
G1 X116.445 Y116.981 E0.00656 F300.000
G1 X115.970 Y116.896 E0.01325 F300.000
G1 X116.224 Y117.149 E0.00985 F300.000
G1 F1800.000 E-4.00000
G1 Z0.480 F3600.000
G1 X116.146 Y116.593 F3600.000
G1 E4.00000 F1800.000
G1 X115.602 Y116.316 E0.03049 F1200
G1 X115.170 Y115.884 E0.03049
G1 X114.892 Y115.339 E0.03049
G1 X114.797 Y114.736 E0.03048
G1 X114.892 Y114.132 E0.03048
G1 X115.170 Y113.588 E0.03049
G1 X115.602 Y113.156 E0.03049
G1 X116.146 Y112.878 E0.03049
G1 X116.750 Y112.783 E0.03049
G1 X117.354 Y112.878 E0.03049
G1 X117.898 Y113.156 E0.03049
G1 X118.330 Y113.588 E0.03049
G1 X118.608 Y114.132 E0.03049
G1 X118.703 Y114.736 E0.03049
G1 X118.608 Y115.339 E0.03049
G1 X118.330 Y115.884 E0.03049
G1 X117.898 Y116.316 E0.03049
G1 X117.354 Y116.593 E0.03049
G1 X116.750 Y116.689 E0.03049
G1 X116.221 Y116.605 E0.02674
G1 X115.758 Y116.908 F3600.000
G1 X115.565 Y116.986 F3600.000
G1 X112.500 Y116.986 E0.15290 F1200
G1 X112.500 Y109.811 E0.35796
G1 X110.896 Y109.176 E0.08606
G1 X109.383 Y108.344 E0.08614
