; generated by Slic3r 1.2.0-dev on 2014-11-27 at 11:16:34

; external perimeters extrusion width = 0.50mm
; perimeters extrusion width = 0.50mm
; infill extrusion width = 0.50mm
; solid infill extrusion width = 0.50mm
; top infill extrusion width = 0.50mm

G21 ; set units to millimeters
M107
M104 S215 ; set temperature
G28
G32
M83
M109 S215 ; wait for temperature to be reached
G90 ; use absolute coordinates
M83 ; use relative distances for extrusion
G1 F2400.000 E-3.50000
G1 Z0.300 F15000.000
G1 X55.660 Y44.737 F15000.000
G1 E3.50000 F2400.000
G1 X71.190 Y29.087 E1.37498 F450.000
G1 X72.607 Y28.219 E0.10360
G1 X73.693 Y28.053 E0.06851
G1 X88.349 Y28.129 E0.91402
G1 X89.961 Y28.531 E0.10360
G1 X91.205 Y29.632 E0.10360
G1 X91.831 Y31.627 E0.13037
G1 X91.856 Y76.336 E2.78818
G1 X91.463 Y77.950 E0.10360
G1 X90.834 Y78.810 E0.06645
G1 X58.835 Y110.877 E2.82515
G1 X57.416 Y111.741 E0.10360
G1 X55.759 Y111.854 E0.10360
G1 X53.853 Y110.850 E0.13431
G1 X51.364 Y108.298 E0.22230
G1 X49.101 Y105.825 E0.20905
G1 X48.302 Y104.369 E0.10360
G1 X48.205 Y103.063 E0.08169
G1 X54.667 Y46.803 E3.53155
G1 X55.627 Y44.805 E0.13827
G1 F2400.000 E-3.50000
G1 X78.019 Y40.470 F15000.000
G1 E3.50000 F2400.000
G1 X72.644 Y42.250 E0.35310 F1200.000
G1 X63.528 Y51.715 E0.81947
G1 X61.087 Y49.444 E0.20790
G1 X59.167 Y47.236 E0.18246
G1 X73.985 Y32.304 E1.31190
G1 X87.581 Y32.375 E0.84790
G1 X87.606 Y76.028 E2.72231
G1 X56.364 Y107.338 E2.75840
G1 X54.491 Y105.419 E0.16719
G1 X52.722 Y103.487 E0.16335
G1 X73.823 Y82.573 E1.85274
G1 X82.439 Y63.677 E1.29515
G1 X82.422 Y46.206 E1.08949
G1 X78.064 Y40.529 E0.44630
G1 X77.838 Y41.056 F15000.000
G1 X72.918 Y42.686 E0.32323 F1200.000
G1 X63.547 Y52.416 E0.84242
G1 X60.727 Y49.792 E0.24020
G1 X58.485 Y47.214 E0.21308
G1 X73.778 Y31.803 E1.35395
G1 X88.081 Y31.877 E0.89198
G1 X88.106 Y76.234 E2.76622
G1 X56.360 Y108.049 E2.80290
G1 X54.128 Y105.763 E0.19928
G1 X52.029 Y103.470 E0.19382
G1 X73.406 Y82.283 E1.87700
G1 X81.938 Y63.568 E1.28266
G1 X81.922 Y46.376 E1.07213
G1 X77.884 Y41.116 E0.41357
G1 X77.629 Y40.602 F15000.000
G1 F2400.000 E-3.50000
G1 X80.147 Y42.681 F15000.000
G1 E3.50000 F2400.000
G1 X87.249 Y49.782 E0.62630 F1200.000
G1 X87.249 Y50.492 E0.04424
G1 X82.489 Y45.731 E0.41984
G1 X82.765 Y46.716 E0.06380
G1 X87.250 Y51.201 E0.39554
G1 X87.250 Y51.911 E0.04424
G1 X82.765 Y47.426 E0.39551
G1 X82.766 Y48.136 E0.04426
G1 X87.250 Y52.620 E0.39549
G1 X87.251 Y53.329 E0.04424
G1 X82.767 Y48.845 E0.39546
G1 X82.767 Y49.555 E0.04426
G1 X87.251 Y54.039 E0.39544
G1 X87.252 Y54.748 E0.04424
G1 X82.768 Y50.265 E0.39541
G1 X82.769 Y50.975 E0.04426
G1 X87.252 Y55.458 E0.39539
G1 X87.252 Y56.167 E0.04424
G1 X82.770 Y51.684 E0.39537
G1 X82.770 Y52.394 E0.04426
G1 X87.253 Y56.877 E0.39534
G1 X87.253 Y57.586 E0.04424
G1 X82.771 Y53.104 E0.39532
G1 X82.772 Y53.814 E0.04426
G1 X87.254 Y58.296 E0.39529
G1 X87.254 Y59.005 E0.04424
G1 X82.772 Y54.523 E0.39527
G1 X82.773 Y55.233 E0.04426
G1 X87.254 Y59.715 E0.39525
G1 X87.255 Y60.424 E0.04424
G1 X82.774 Y55.943 E0.39522
G1 X82.774 Y56.652 E0.04426
G1 X87.255 Y61.133 E0.39520
G1 X87.256 Y61.843 E0.04424
G1 X82.775 Y57.362 E0.39517
G1 X82.776 Y58.072 E0.04426
G1 X87.256 Y62.552 E0.39515
G1 X87.256 Y63.262 E0.04424
G1 X82.776 Y58.782 E0.39512
G1 X82.777 Y59.491 E0.04426
G1 X87.257 Y63.971 E0.39510
G1 X87.257 Y64.681 E0.04424
G1 X82.778 Y60.201 E0.39508
G1 X82.778 Y60.911 E0.04426
G1 X87.258 Y65.390 E0.39505
G1 X87.258 Y66.100 E0.04424
G1 X82.779 Y61.621 E0.39503
G1 X82.780 Y62.330 E0.04426
G1 X87.259 Y66.809 E0.39500
G1 X87.259 Y67.519 E0.04424
G1 X82.780 Y63.040 E0.39498
G1 X82.781 Y63.750 E0.04426
G1 X87.259 Y68.228 E0.39495
G1 X87.260 Y68.937 E0.04424
G1 X82.559 Y64.237 E0.41454
G1 X82.337 Y64.724 E0.03338
G1 X87.260 Y69.647 E0.43416
G1 X87.261 Y70.356 E0.04424
G1 X82.115 Y65.211 E0.45378
G1 X81.893 Y65.698 E0.03338
G1 X87.261 Y71.066 E0.47340
G1 X87.261 Y71.775 E0.04424
G1 X81.671 Y66.185 E0.49301
G1 X81.449 Y66.672 E0.03338
G1 X87.262 Y72.485 E0.51263
G1 X87.262 Y73.194 E0.04424
G1 X81.227 Y67.159 E0.53225
G1 X81.005 Y67.646 E0.03338
G1 X87.263 Y73.904 E0.55187
G1 X87.263 Y74.613 E0.04424
G1 X80.783 Y68.133 E0.57149
G1 X80.561 Y68.620 E0.03338
G1 X87.263 Y75.322 E0.59111
G1 X87.191 Y75.959 E0.03995
G1 X80.339 Y69.107 E0.60429
G1 X80.117 Y69.594 E0.03338
G1 X86.837 Y76.314 E0.59264
G1 X86.483 Y76.669 E0.03127
G1 X79.895 Y70.081 E0.58099
G1 X79.673 Y70.568 E0.03338
G1 X86.128 Y77.024 E0.56934
G1 X85.774 Y77.379 E0.03127
G1 X79.451 Y71.055 E0.55769
G1 X79.229 Y71.542 E0.03338
G1 X85.420 Y77.734 E0.54604
G1 X85.066 Y78.088 E0.03127
G1 X79.007 Y72.029 E0.53439
G1 X78.785 Y72.516 E0.03338
G1 X84.712 Y78.443 E0.52274
G1 X84.358 Y78.798 E0.03127
G1 X78.563 Y73.003 E0.51109
G1 X78.341 Y73.490 E0.03338
G1 X84.004 Y79.153 E0.49944
G1 X83.649 Y79.508 E0.03127
G1 X78.119 Y73.977 E0.48779
G1 X77.897 Y74.464 E0.03338
G1 X83.295 Y79.863 E0.47614
G1 X82.941 Y80.218 E0.03127
G1 X77.675 Y74.951 E0.46449
G1 X77.452 Y75.438 E0.03338
G1 X82.587 Y80.573 E0.45284
G1 X82.233 Y80.928 E0.03127
G1 X77.230 Y75.925 E0.44119
G1 X77.008 Y76.412 E0.03338
G1 X81.879 Y81.283 E0.42954
G1 X81.525 Y81.637 E0.03127
G1 X76.786 Y76.899 E0.41789
G1 X76.564 Y77.386 E0.03338
G1 X81.170 Y81.992 E0.40624
G1 X80.816 Y82.347 E0.03127
G1 X76.342 Y77.873 E0.39459
G1 X76.120 Y78.360 E0.03338
G1 X80.462 Y82.702 E0.38294
G1 X80.108 Y83.057 E0.03127
G1 X75.898 Y78.847 E0.37129
G1 X75.676 Y79.334 E0.03338
G1 X79.754 Y83.412 E0.35964
G1 X79.400 Y83.767 E0.03127
G1 X75.454 Y79.821 E0.34798
G1 X75.232 Y80.308 E0.03338
G1 X79.046 Y84.122 E0.33633
G1 X78.691 Y84.477 E0.03127
G1 X75.010 Y80.795 E0.32468
G1 X74.788 Y81.282 E0.03338
G1 X78.337 Y84.832 E0.31303
G1 X77.983 Y85.187 E0.03127
G1 X74.566 Y81.769 E0.30138
G1 X74.344 Y82.256 E0.03338
G1 X77.629 Y85.541 E0.28973
G1 X77.275 Y85.896 E0.03127
G1 X74.122 Y82.743 E0.27808
G1 X73.774 Y83.104 E0.03127
G1 X76.921 Y86.251 E0.27755
G1 X76.567 Y86.606 E0.03127
G1 X73.418 Y83.457 E0.27772
G1 X73.062 Y83.810 E0.03127
G1 X76.212 Y86.961 E0.27789
G1 X75.858 Y87.316 E0.03127
G1 X72.705 Y84.163 E0.27806
G1 X72.349 Y84.516 E0.03127
G1 X75.504 Y87.671 E0.27824
G1 X75.150 Y88.026 E0.03127
G1 X71.993 Y84.869 E0.27841
G1 X71.637 Y85.222 E0.03127
G1 X74.796 Y88.381 E0.27858
G1 X74.442 Y88.736 E0.03127
G1 X71.281 Y85.575 E0.27875
G1 X70.925 Y85.928 E0.03127
G1 X74.088 Y89.090 E0.27893
G1 X73.733 Y89.445 E0.03127
G1 X70.569 Y86.281 E0.27910
G1 X70.213 Y86.634 E0.03127
G1 X73.379 Y89.800 E0.27927
G1 X73.025 Y90.155 E0.03127
G1 X69.857 Y86.987 E0.27945
G1 X69.501 Y87.340 E0.03127
G1 X72.671 Y90.510 E0.27962
G1 X72.317 Y90.865 E0.03127
G1 X69.144 Y87.693 E0.27979
G1 X68.788 Y88.045 E0.03127
G1 X71.963 Y91.220 E0.27996
G1 X71.609 Y91.575 E0.03127
G1 X68.432 Y88.398 E0.28014
G1 X68.076 Y88.751 E0.03127
G1 X71.254 Y91.930 E0.28031
G1 X70.900 Y92.285 E0.03127
G1 X67.720 Y89.104 E0.28048
G1 X67.364 Y89.457 E0.03127
G1 X70.546 Y92.639 E0.28065
G1 X70.192 Y92.994 E0.03127
G1 X67.008 Y89.810 E0.28083
G1 X66.652 Y90.163 E0.03127
G1 X69.838 Y93.349 E0.28100
G1 X69.484 Y93.704 E0.03127
G1 X66.296 Y90.516 E0.28117
G1 X65.940 Y90.869 E0.03127
G1 X69.129 Y94.059 E0.28131
G1 X68.775 Y94.413 E0.03127
G1 X65.583 Y91.222 E0.28145
G1 X65.227 Y91.575 E0.03127
G1 X68.420 Y94.768 E0.28159
G1 X68.066 Y95.122 E0.03127
G1 X64.871 Y91.928 E0.28172
G1 X64.515 Y92.281 E0.03127
G1 X67.711 Y95.477 E0.28186
G1 X67.357 Y95.831 E0.03127
G1 X64.159 Y92.634 E0.28200
G1 X63.803 Y92.987 E0.03127
G1 X67.002 Y96.186 E0.28214
G1 X66.648 Y96.540 E0.03127
G1 X63.447 Y93.340 E0.28228
G1 X63.091 Y93.693 E0.03127
G1 X66.293 Y96.895 E0.28242
G1 X65.938 Y97.249 E0.03127
G1 X62.735 Y94.046 E0.28256
G1 X62.379 Y94.399 E0.03127
G1 X65.584 Y97.604 E0.28270
G1 X65.229 Y97.958 E0.03127
G1 X62.022 Y94.751 E0.28284
G1 X61.666 Y95.104 E0.03127
G1 X64.875 Y98.313 E0.28298
G1 X64.520 Y98.667 E0.03127
G1 X61.310 Y95.457 E0.28312
G1 X60.954 Y95.810 E0.03127
G1 X64.166 Y99.022 E0.28325
G1 X63.811 Y99.377 E0.03127
G1 X60.598 Y96.163 E0.28339
G1 X60.242 Y96.516 E0.03127
G1 X63.457 Y99.731 E0.28353
G1 X63.102 Y100.086 E0.03127
G1 X59.886 Y96.869 E0.28367
G1 X59.530 Y97.222 E0.03127
G1 X62.748 Y100.440 E0.28381
G1 X62.393 Y100.795 E0.03127
G1 X59.174 Y97.575 E0.28395
G1 X58.818 Y97.928 E0.03127
G1 X62.039 Y101.149 E0.28409
G1 X61.684 Y101.504 E0.03127
G1 X58.461 Y98.281 E0.28423
G1 X58.105 Y98.634 E0.03127
G1 X61.330 Y101.858 E0.28437
G1 X60.975 Y102.213 E0.03127
G1 X57.749 Y98.987 E0.28451
G1 X57.393 Y99.340 E0.03127
G1 X60.621 Y102.567 E0.28465
G1 X60.266 Y102.922 E0.03127
G1 X57.037 Y99.693 E0.28478
G1 X56.681 Y100.046 E0.03127
G1 X59.912 Y103.276 E0.28492
G1 X59.557 Y103.631 E0.03127
G1 X56.325 Y100.399 E0.28506
G1 X55.969 Y100.752 E0.03127
G1 X59.203 Y103.985 E0.28520
G1 X58.848 Y104.340 E0.03127
G1 X55.613 Y101.104 E0.28534
G1 X55.257 Y101.457 E0.03127
G1 X58.493 Y104.694 E0.28548
G1 X58.139 Y105.049 E0.03127
G1 X54.900 Y101.810 E0.28562
G1 X54.544 Y102.163 E0.03127
G1 X57.784 Y105.403 E0.28576
G1 X57.430 Y105.758 E0.03127
G1 X54.188 Y102.516 E0.28590
G1 X53.832 Y102.869 E0.03127
G1 X57.075 Y106.112 E0.28604
G1 X56.721 Y106.467 E0.03127
G1 X53.476 Y103.222 E0.28618
G1 F2400.000 E-3.50000
G1 X55.197 Y105.652 F15000.000
G1 E3.50000 F2400.000
G1 X56.366 Y106.822 E0.10310 F1200.000
G1 F2400.000 E-3.50000
G1 X59.768 Y47.118 F15000.000
G1 E3.50000 F2400.000
G1 X63.696 Y51.046 E0.34649 F1200.000
G1 X64.044 Y50.685 E0.03127
G1 X60.121 Y46.762 E0.34603
G1 X60.474 Y46.406 E0.03127
G1 X64.392 Y50.324 E0.34556
G1 X64.740 Y49.963 E0.03127
G1 X60.827 Y46.050 E0.34509
G1 X61.180 Y45.694 E0.03127
G1 X65.088 Y49.602 E0.34463
G1 X65.436 Y49.241 E0.03127
G1 X61.533 Y45.338 E0.34416
G1 X61.887 Y44.982 E0.03127
G1 X65.784 Y48.879 E0.34369
G1 X66.131 Y48.518 E0.03127
G1 X62.240 Y44.626 E0.34323
G1 X62.593 Y44.271 E0.03127
G1 X66.479 Y48.157 E0.34276
G1 X66.827 Y47.796 E0.03127
G1 X62.946 Y43.915 E0.34229
G1 X63.299 Y43.559 E0.03127
G1 X67.175 Y47.435 E0.34183
G1 X67.523 Y47.073 E0.03127
G1 X63.652 Y43.203 E0.34136
G1 X64.006 Y42.847 E0.03127
G1 X67.871 Y46.712 E0.34089
G1 X68.219 Y46.351 E0.03127
G1 X64.359 Y42.491 E0.34043
G1 X64.712 Y42.135 E0.03127
G1 X68.567 Y45.990 E0.33996
G1 X68.914 Y45.629 E0.03127
G1 X65.065 Y41.779 E0.33949
G1 X65.418 Y41.424 E0.03127
G1 X69.262 Y45.268 E0.33903
G1 X69.610 Y44.906 E0.03127
G1 X65.771 Y41.068 E0.33856
G1 X66.125 Y40.712 E0.03127
G1 X69.958 Y44.545 E0.33809
G1 X70.306 Y44.184 E0.03127
G1 X66.478 Y40.356 E0.33763
G1 X66.831 Y40.000 E0.03127
G1 X70.654 Y43.823 E0.33716
G1 X71.002 Y43.462 E0.03127
G1 X67.184 Y39.644 E0.33669
G1 X67.537 Y39.288 E0.03127
G1 X71.350 Y43.101 E0.33623
G1 X71.697 Y42.739 E0.03127
G1 X67.890 Y38.932 E0.33576
G1 X68.244 Y38.576 E0.03127
G1 X72.045 Y42.378 E0.33529
G1 X72.393 Y42.017 E0.03127
G1 X68.597 Y38.221 E0.33483
G1 X68.950 Y37.865 E0.03127
G1 X72.892 Y41.807 E0.34772
G1 X73.425 Y41.631 E0.03499
G1 X69.303 Y37.509 E0.36354
G1 X69.656 Y37.153 E0.03127
G1 X73.958 Y41.454 E0.37937
G1 X74.490 Y41.278 E0.03499
G1 X70.009 Y36.797 E0.39519
G1 X70.362 Y36.441 E0.03127
G1 X75.023 Y41.102 E0.41102
G1 X75.555 Y40.925 E0.03499
G1 X70.717 Y36.086 E0.42676
G1 X71.071 Y35.732 E0.03127
G1 X76.088 Y40.749 E0.44246
G1 X76.621 Y40.572 E0.03499
G1 X71.426 Y35.377 E0.45817
G1 X71.780 Y35.023 E0.03127
G1 X77.153 Y40.396 E0.47387
G1 X77.686 Y40.219 E0.03499
G1 X72.135 Y34.668 E0.48958
G1 X72.489 Y34.314 E0.03127
G1 X87.248 Y49.073 E1.30167
G1 X87.248 Y48.363 E0.04424
G1 X72.844 Y33.959 E1.27036
G1 X73.198 Y33.605 E0.03127
G1 X87.248 Y47.654 E1.23906
G1 X87.247 Y46.944 E0.04424
G1 X73.553 Y33.250 E1.20776
G1 X73.907 Y32.896 E0.03127
G1 X87.247 Y46.235 E1.17646
G1 X87.246 Y45.525 E0.04424
G1 X74.370 Y32.649 E1.13566
G1 X75.082 Y32.652 E0.04445
G1 X87.246 Y44.816 E1.07276
G1 X87.246 Y44.107 E0.04424
G1 X75.795 Y32.656 E1.00987
G1 X76.508 Y32.660 E0.04445
G1 X87.245 Y43.397 E0.94697
G1 X87.245 Y42.688 E0.04424
G1 X77.221 Y32.663 E0.88407
G1 X77.933 Y32.667 E0.04445
G1 X87.244 Y41.978 E0.82118
G1 X87.244 Y41.269 E0.04424
G1 X78.646 Y32.671 E0.75828
G1 X79.359 Y32.675 E0.04445
G1 X87.243 Y40.559 E0.69539
G1 X87.243 Y39.850 E0.04424
G1 X80.072 Y32.678 E0.63249
G1 X80.784 Y32.682 E0.04445
G1 X87.243 Y39.140 E0.56960
G1 X87.242 Y38.431 E0.04424
G1 X81.497 Y32.686 E0.50670
G1 X82.210 Y32.689 E0.04445
G1 X87.242 Y37.722 E0.44381
G1 X87.241 Y37.012 E0.04424
G1 X82.922 Y32.693 E0.38091
G1 X83.635 Y32.697 E0.04445
G1 X87.241 Y36.303 E0.31802
G1 X87.241 Y35.593 E0.04424
G1 X84.348 Y32.700 E0.25512
G1 X85.061 Y32.704 E0.04445
G1 X87.240 Y34.884 E0.19222
G1 X87.240 Y34.174 E0.04424
G1 X85.773 Y32.708 E0.12933
G1 X86.486 Y32.712 E0.04445
G1 X87.239 Y33.465 E0.06643
G1 X87.239 Y32.755 E0.04424
G1 X87.199 Y32.715 E0.00354
M104 S185 ; set temperature
G1 F2400.000 E-3.50000
G1 Z0.500 F15000.000
G1 X87.581 Y32.375 F15000.000
G1 E3.50000 F2400.000
G1 X87.606 Y76.028 E1.81487 F2400.000
G1 X56.364 Y107.338 E1.83893
G1 X54.491 Y105.419 E0.11146
G1 X52.722 Y103.487 E0.10890
G1 X73.823 Y82.573 E1.23516
G1 X82.439 Y63.677 E0.86344
G1 X82.422 Y46.206 E0.72633
G1 X78.019 Y40.470 E0.30066
G1 X72.644 Y42.250 E0.23540
G1 X63.528 Y51.715 E0.54631
G1 X61.087 Y49.444 E0.13860
G1 X59.167 Y47.236 E0.12164
G1 X73.985 Y32.304 E0.87460
G1 X87.506 Y32.374 E0.56215
G1 X88.081 Y31.877 F15000.000
G1 X88.106 Y76.234 E1.84415 F2400.000
G1 X56.360 Y108.049 E1.86860
G1 X54.128 Y105.763 E0.13285
G1 X52.029 Y103.470 E0.12921
G1 X73.406 Y82.283 E1.25134
G1 X81.938 Y63.568 E0.85511
G1 X81.922 Y46.376 E0.71476
G1 X77.838 Y41.056 E0.27883
G1 X72.918 Y42.686 E0.21549
G1 X63.547 Y52.416 E0.56161
G1 X60.727 Y49.792 E0.16013
G1 X58.485 Y47.214 E0.14205
G1 X73.778 Y31.803 E0.90263
G1 X88.006 Y31.877 E0.59153
G1 X87.830 Y32.310 F15000.000
G1 F2400.000 E-3.50000
G1 X81.256 Y32.684 F15000.000
G1 E3.50000 F2400.000
G1 X63.096 Y50.845 E1.06775 F2400.000
G1 X62.726 Y50.501 E0.02100
G1 X80.546 Y32.681 E1.04774
G1 X79.836 Y32.677 E0.02952
G1 X62.356 Y50.157 E1.02774
G1 X61.986 Y49.813 E0.02100
G1 X79.126 Y32.673 E1.00773
G1 X78.416 Y32.670 E0.02952
G1 X61.617 Y49.469 E0.98772
G1 X61.256 Y49.116 E0.02098
G1 X77.706 Y32.666 E0.96719
G1 X76.996 Y32.662 E0.02952
G1 X60.924 Y48.734 E0.94496
G1 X60.592 Y48.352 E0.02103
G1 X76.286 Y32.659 E0.92273
G1 X75.575 Y32.655 E0.02952
G1 X60.260 Y47.971 E0.90050
G1 X59.928 Y47.589 E0.02103
G1 X74.865 Y32.651 E0.87827
G1 X74.155 Y32.648 E0.02952
G1 X70.452 Y36.351 E0.21772
G1 F2400.000 E-3.50000
G1 X72.824 Y41.830 F15000.000
G1 E3.50000 F2400.000
G1 X81.966 Y32.688 E0.53751 F2400.000
G1 X82.676 Y32.692 E0.02952
G1 X73.891 Y41.476 E0.51650
G1 X74.959 Y41.123 E0.04675
G1 X83.386 Y32.695 E0.49550
G1 X84.096 Y32.699 E0.02952
G1 X76.026 Y40.769 E0.47449
G1 X77.093 Y40.416 E0.04675
G1 X84.806 Y32.703 E0.45349
G1 X85.516 Y32.707 E0.02952
G1 X78.147 Y40.075 E0.43325
G1 X78.457 Y40.479 E0.02116
G1 X86.226 Y32.710 E0.45678
G1 X86.936 Y32.714 E0.02952
G1 X78.767 Y40.883 E0.48030
G1 X79.077 Y41.287 E0.02116
G1 X87.239 Y33.125 E0.47989
G1 X87.240 Y33.838 E0.02966
G1 X79.387 Y41.690 E0.46169
G1 X79.697 Y42.094 E0.02116
G1 X87.240 Y34.551 E0.44350
G1 X87.240 Y35.265 E0.02966
G1 X80.007 Y42.498 E0.42530
G1 X80.317 Y42.902 E0.02116
G1 X87.241 Y35.978 E0.40710
G1 X87.241 Y36.691 E0.02966
G1 X80.627 Y43.306 E0.38890
G1 X80.937 Y43.709 E0.02116
G1 X87.242 Y37.405 E0.37070
G1 X87.242 Y38.118 E0.02966
G1 X81.247 Y44.113 E0.35250
G1 X81.557 Y44.517 E0.02116
G1 X87.243 Y38.831 E0.33430
G1 X87.243 Y39.545 E0.02966
G1 X81.867 Y44.921 E0.31610
G1 X82.177 Y45.325 E0.02116
G1 X87.243 Y40.258 E0.29790
G1 X87.244 Y40.971 E0.02966
G1 X82.487 Y45.728 E0.27970
G1 X82.764 Y46.164 E0.02149
G1 X87.244 Y41.685 E0.26340
G1 X87.245 Y42.398 E0.02966
G1 X82.765 Y46.878 E0.26339
G1 X82.766 Y47.591 E0.02965
G1 X87.245 Y43.111 E0.26337
G1 X87.245 Y43.825 E0.02966
G1 X82.766 Y48.304 E0.26335
G1 X82.767 Y49.017 E0.02965
G1 X87.246 Y44.538 E0.26334
G1 X87.246 Y45.251 E0.02966
G1 X82.768 Y49.730 E0.26332
G1 X82.768 Y50.443 E0.02965
G1 X87.247 Y45.964 E0.26330
G1 X87.247 Y46.678 E0.02966
G1 X82.769 Y51.156 E0.26329
G1 X82.770 Y51.869 E0.02965
G1 X87.247 Y47.391 E0.26327
