; generated by Slic3r 1.2.0-dev on 2014-11-27 at 11:16:06

; external perimeters extrusion width = 0.50mm
; perimeters extrusion width = 0.50mm
; infill extrusion width = 0.50mm
; solid infill extrusion width = 0.50mm
; top infill extrusion width = 0.50mm

G21 ; set units to millimeters
M107
M104 S215 ; set temperature
G28
G32
M83
T0;
M109 S215 ; wait for temperature to be reached
G90 ; use absolute coordinates
M83 ; use relative distances for extrusion
G1 F2400.000 E-3.50000
G1 Z0.300 F15000.000
G1 X34.282 Y33.100 F15000.000
G1 E3.50000 F2400.000
G1 X35.480 Y31.950 E0.10360 F450.000
G1 X37.235 Y31.478 E0.11329
G1 X97.043 Y31.478 E3.72981
G1 X98.657 Y31.873 E0.10360
G1 X99.529 Y32.514 E0.06749
G1 X110.122 Y43.199 E0.93829
G1 X110.978 Y44.622 E0.10360
G1 X111.136 Y45.663 E0.06564
G1 X111.136 Y52.580 E0.43137
G1 X110.742 Y54.194 E0.10360
G1 X110.111 Y55.055 E0.06656
G1 X58.020 Y107.146 E4.59417
G1 X56.600 Y108.009 E0.10360
G1 X55.545 Y108.172 E0.06656
G1 X48.628 Y108.172 E0.43137
G1 X46.807 Y107.661 E0.11791
G1 X30.202 Y97.549 E1.21247
G1 X29.028 Y96.372 E0.10360
G1 X28.535 Y94.254 E0.13563
G1 X33.748 Y34.673 E3.72982
G1 X34.257 Y33.171 E0.09893
G1 F2400.000 E-3.50000
G1 X43.695 Y42.028 F15000.000
G1 E3.50000 F2400.000
G1 X43.529 Y43.930 E0.11906 F1200.000
G1 X44.477 Y44.878 E0.08362
G1 X43.347 Y46.008 E0.09965
G1 X39.111 Y94.426 E3.03102
G1 X32.835 Y93.877 E0.39289
G1 X37.922 Y35.728 E3.64018
G1 X96.293 Y35.728 E3.64018
G1 X96.293 Y42.028 E0.39289
G1 X43.770 Y42.028 E3.27549
G1 X44.153 Y42.528 F15000.000
G1 X44.047 Y43.742 E0.07595 F1200.000
G1 X45.184 Y44.878 E0.10026
G1 X43.829 Y46.233 E0.11948
G1 X39.565 Y94.968 E3.05085
G1 X32.293 Y94.332 E0.45525
G1 X37.464 Y35.228 E3.69994
G1 X96.793 Y35.228 E3.69994
G1 X96.793 Y42.528 E0.45525
G1 X44.228 Y42.528 E3.27810
G1 X43.654 Y42.499 F15000.000
G1 F2400.000 E-3.50000
G1 X33.209 Y93.529 F15000.000
G1 E3.50000 F2400.000
G1 X33.249 Y93.570 E0.00357 F1200.000
G1 X34.029 Y93.638 E0.04878
G1 X33.266 Y92.876 E0.06724
G1 X33.323 Y92.222 E0.04093
G1 X34.808 Y93.706 E0.13092
G1 X35.587 Y93.774 E0.04878
G1 X33.380 Y91.568 E0.19459
G1 X33.438 Y90.914 E0.04093
G1 X36.366 Y93.843 E0.25826
G1 X37.145 Y93.911 E0.04878
G1 X33.495 Y90.260 E0.32194
G1 X33.552 Y89.607 E0.04093
G1 X37.924 Y93.979 E0.38561
G1 X38.704 Y94.047 E0.04878
G1 X33.609 Y88.953 E0.44928
G1 X33.667 Y88.299 E0.04093
G1 X38.850 Y93.482 E0.45711
G1 X38.907 Y92.828 E0.04093
G1 X33.724 Y87.645 E0.45711
G1 X33.781 Y86.991 E0.04093
G1 X38.964 Y92.174 E0.45711
G1 X39.021 Y91.521 E0.04093
G1 X33.838 Y86.338 E0.45711
G1 X33.895 Y85.684 E0.04093
G1 X39.078 Y90.867 E0.45711
G1 X39.136 Y90.213 E0.04093
G1 X33.953 Y85.030 E0.45711
G1 X34.010 Y84.376 E0.04093
G1 X39.193 Y89.559 E0.45711
G1 X39.250 Y88.905 E0.04093
G1 X34.067 Y83.722 E0.45711
G1 X34.124 Y83.069 E0.04093
G1 X39.307 Y88.252 E0.45711
G1 X39.364 Y87.598 E0.04093
G1 X34.181 Y82.415 E0.45711
G1 X34.239 Y81.761 E0.04093
G1 X39.422 Y86.944 E0.45711
G1 X39.479 Y86.290 E0.04093
G1 X34.296 Y81.107 E0.45711
G1 X34.353 Y80.453 E0.04093
G1 X39.536 Y85.636 E0.45711
G1 X39.593 Y84.983 E0.04093
G1 X34.410 Y79.800 E0.45711
G1 X34.467 Y79.146 E0.04093
G1 X39.650 Y84.329 E0.45711
G1 X39.708 Y83.675 E0.04093
G1 X34.525 Y78.492 E0.45711
G1 X34.582 Y77.838 E0.04093
G1 X39.765 Y83.021 E0.45711
G1 X39.822 Y82.367 E0.04093
G1 X34.639 Y77.184 E0.45711
G1 X34.696 Y76.530 E0.04093
G1 X39.879 Y81.714 E0.45711
G1 X39.936 Y81.060 E0.04093
G1 X34.753 Y75.877 E0.45711
G1 X34.811 Y75.223 E0.04093
G1 X39.994 Y80.406 E0.45711
G1 X40.051 Y79.752 E0.04093
G1 X34.868 Y74.569 E0.45711
G1 X34.925 Y73.915 E0.04093
G1 X40.108 Y79.098 E0.45711
G1 X40.165 Y78.444 E0.04093
G1 X34.982 Y73.261 E0.45711
G1 X35.039 Y72.608 E0.04093
G1 X40.222 Y77.791 E0.45711
G1 X40.280 Y77.137 E0.04093
G1 X35.097 Y71.954 E0.45711
G1 X35.154 Y71.300 E0.04093
G1 X40.337 Y76.483 E0.45711
G1 X40.394 Y75.829 E0.04093
G1 X35.211 Y70.646 E0.45711
G1 X35.268 Y69.992 E0.04093
G1 X40.451 Y75.175 E0.45711
G1 X40.508 Y74.522 E0.04093
G1 X35.325 Y69.339 E0.45711
G1 X35.383 Y68.685 E0.04093
G1 X40.566 Y73.868 E0.45711
G1 X40.623 Y73.214 E0.04093
G1 X35.440 Y68.031 E0.45711
G1 X35.497 Y67.377 E0.04093
G1 X40.680 Y72.560 E0.45711
G1 X40.737 Y71.906 E0.04093
G1 X35.554 Y66.723 E0.45711
G1 X35.611 Y66.070 E0.04093
G1 X40.794 Y71.253 E0.45711
G1 X40.852 Y70.599 E0.04093
G1 X35.669 Y65.416 E0.45711
G1 X35.726 Y64.762 E0.04093
G1 X40.909 Y69.945 E0.45711
G1 X40.966 Y69.291 E0.04093
G1 X35.783 Y64.108 E0.45711
G1 X35.840 Y63.454 E0.04093
G1 X41.023 Y68.637 E0.45711
G1 X41.080 Y67.984 E0.04093
G1 X35.897 Y62.801 E0.45711
G1 X35.955 Y62.147 E0.04093
G1 X41.138 Y67.330 E0.45711
G1 X41.195 Y66.676 E0.04093
G1 X36.012 Y61.493 E0.45711
G1 X36.069 Y60.839 E0.04093
G1 X41.252 Y66.022 E0.45711
G1 X41.309 Y65.368 E0.04093
G1 X36.126 Y60.185 E0.45711
G1 X36.183 Y59.531 E0.04093
G1 X41.366 Y64.715 E0.45711
G1 X41.424 Y64.061 E0.04093
G1 X36.241 Y58.878 E0.45711
G1 X36.298 Y58.224 E0.04093
G1 X41.481 Y63.407 E0.45711
G1 X41.538 Y62.753 E0.04093
G1 X36.355 Y57.570 E0.45711
G1 X36.412 Y56.916 E0.04093
G1 X41.595 Y62.099 E0.45711
G1 X41.652 Y61.445 E0.04093
G1 X36.469 Y56.262 E0.45711
G1 X36.527 Y55.609 E0.04093
G1 X41.710 Y60.792 E0.45711
G1 X41.767 Y60.138 E0.04093
G1 X36.584 Y54.955 E0.45711
G1 X36.641 Y54.301 E0.04093
G1 X41.824 Y59.484 E0.45711
G1 X41.881 Y58.830 E0.04093
G1 X36.698 Y53.647 E0.45711
G1 X36.755 Y52.993 E0.04093
G1 X41.938 Y58.176 E0.45711
G1 X41.996 Y57.523 E0.04093
G1 X36.813 Y52.340 E0.45711
G1 X36.870 Y51.686 E0.04093
G1 X42.053 Y56.869 E0.45711
G1 X42.110 Y56.215 E0.04093
G1 X36.927 Y51.032 E0.45711
G1 X36.984 Y50.378 E0.04093
G1 X42.167 Y55.561 E0.45711
G1 X42.224 Y54.907 E0.04093
G1 X37.041 Y49.724 E0.45711
G1 X37.099 Y49.071 E0.04093
G1 X42.282 Y54.254 E0.45711
G1 X42.339 Y53.600 E0.04093
G1 X37.156 Y48.417 E0.45711
G1 X37.213 Y47.763 E0.04093
G1 X42.396 Y52.946 E0.45711
G1 X42.453 Y52.292 E0.04093
G1 X37.270 Y47.109 E0.45711
G1 X37.327 Y46.455 E0.04093
G1 X42.510 Y51.638 E0.45711
G1 X42.568 Y50.985 E0.04093
G1 X37.385 Y45.802 E0.45711
G1 X37.442 Y45.148 E0.04093
G1 X42.625 Y50.331 E0.45711
G1 X42.682 Y49.677 E0.04093
G1 X37.499 Y44.494 E0.45711
G1 X37.556 Y43.840 E0.04093
G1 X42.739 Y49.023 E0.45711
G1 X42.796 Y48.369 E0.04093
G1 X37.613 Y43.186 E0.45711
G1 X37.671 Y42.532 E0.04093
G1 X42.854 Y47.716 E0.45711
G1 X42.911 Y47.062 E0.04093
G1 X37.728 Y41.879 E0.45711
G1 X37.785 Y41.225 E0.04093
G1 X42.968 Y46.408 E0.45711
G1 X43.071 Y45.800 E0.03846
G1 X37.842 Y40.571 E0.46115
G1 X37.899 Y39.917 E0.04093
G1 X43.426 Y45.444 E0.48746
G1 X43.782 Y45.089 E0.03135
G1 X37.957 Y39.263 E0.51376
G1 X38.014 Y38.610 E0.04093
G1 X43.197 Y43.793 E0.45711
G1 X43.254 Y43.139 E0.04093
G1 X38.071 Y37.956 E0.45711
G1 X38.128 Y37.302 E0.04093
G1 X43.311 Y42.485 E0.45711
G1 X43.368 Y41.831 E0.04093
G1 X38.185 Y36.648 E0.45711
G1 X38.319 Y36.071 E0.03696
G1 X43.934 Y41.686 E0.49521
G1 X44.645 Y41.686 E0.04434
G1 X39.030 Y36.071 E0.49521
G1 X39.741 Y36.071 E0.04434
G1 X45.356 Y41.686 E0.49521
G1 X46.067 Y41.686 E0.04434
G1 X40.452 Y36.071 E0.49521
G1 X41.163 Y36.071 E0.04434
G1 X46.778 Y41.686 E0.49521
G1 X47.489 Y41.686 E0.04434
G1 X41.874 Y36.071 E0.49521
G1 X42.585 Y36.071 E0.04434
G1 X48.200 Y41.686 E0.49521
G1 X48.911 Y41.686 E0.04434
G1 X43.296 Y36.071 E0.49521
G1 X44.007 Y36.071 E0.04434
G1 X49.622 Y41.686 E0.49521
G1 X50.333 Y41.686 E0.04434
G1 X44.718 Y36.071 E0.49521
G1 X45.429 Y36.071 E0.04434
G1 X51.044 Y41.686 E0.49521
G1 X51.755 Y41.686 E0.04434
G1 X46.140 Y36.071 E0.49521
G1 X46.851 Y36.071 E0.04434
G1 X52.466 Y41.686 E0.49521
G1 X53.177 Y41.686 E0.04434
G1 X47.562 Y36.071 E0.49521
G1 X48.273 Y36.071 E0.04434
G1 X53.888 Y41.686 E0.49521
G1 X54.599 Y41.686 E0.04434
G1 X48.984 Y36.071 E0.49521
G1 X49.695 Y36.071 E0.04434
G1 X55.310 Y41.686 E0.49521
G1 X56.021 Y41.686 E0.04434
G1 X50.406 Y36.071 E0.49521
G1 X51.117 Y36.071 E0.04434
G1 X56.732 Y41.686 E0.49521
G1 X57.443 Y41.686 E0.04434
G1 X51.828 Y36.071 E0.49521
G1 X52.539 Y36.071 E0.04434
G1 X58.154 Y41.686 E0.49521
G1 X58.865 Y41.686 E0.04434
G1 X53.250 Y36.071 E0.49521
G1 X53.961 Y36.071 E0.04434
G1 X59.576 Y41.686 E0.49521
G1 X60.287 Y41.686 E0.04434
G1 X54.672 Y36.071 E0.49521
G1 X55.383 Y36.071 E0.04434
G1 X60.998 Y41.686 E0.49521
G1 X61.709 Y41.686 E0.04434
G1 X56.094 Y36.071 E0.49521
G1 X56.805 Y36.071 E0.04434
G1 X62.420 Y41.686 E0.49521
G1 X63.131 Y41.686 E0.04434
G1 X57.516 Y36.071 E0.49521
G1 X58.227 Y36.071 E0.04434
G1 X63.842 Y41.686 E0.49521
G1 X64.553 Y41.686 E0.04434
G1 X58.938 Y36.071 E0.49521
G1 X59.649 Y36.071 E0.04434
G1 X65.264 Y41.686 E0.49521
G1 X65.975 Y41.686 E0.04434
G1 X60.360 Y36.071 E0.49521
G1 X61.071 Y36.071 E0.04434
G1 X66.686 Y41.686 E0.49521
G1 X67.397 Y41.686 E0.04434
G1 X61.782 Y36.071 E0.49521
G1 X62.493 Y36.071 E0.04434
G1 X68.108 Y41.686 E0.49521
G1 X68.819 Y41.686 E0.04434
G1 X63.204 Y36.071 E0.49521
G1 X63.915 Y36.071 E0.04434
G1 X69.530 Y41.686 E0.49521
G1 X70.241 Y41.686 E0.04434
G1 X64.626 Y36.071 E0.49521
G1 X65.337 Y36.071 E0.04434
G1 X70.952 Y41.686 E0.49521
G1 X71.663 Y41.686 E0.04434
G1 X66.048 Y36.071 E0.49521
G1 X66.759 Y36.071 E0.04434
G1 X72.374 Y41.686 E0.49521
G1 X73.085 Y41.686 E0.04434
G1 X67.470 Y36.071 E0.49521
G1 X68.181 Y36.071 E0.04434
G1 X73.796 Y41.686 E0.49521
G1 X74.507 Y41.686 E0.04434
G1 X68.892 Y36.071 E0.49521
G1 X69.603 Y36.071 E0.04434
G1 X75.218 Y41.686 E0.49521
G1 X75.929 Y41.686 E0.04434
G1 X70.314 Y36.071 E0.49521
G1 X71.025 Y36.071 E0.04434
G1 X76.640 Y41.686 E0.49521
G1 X77.351 Y41.686 E0.04434
G1 X71.736 Y36.071 E0.49521
G1 X72.447 Y36.071 E0.04434
G1 X78.062 Y41.686 E0.49521
G1 X78.773 Y41.686 E0.04434
G1 X73.158 Y36.071 E0.49521
G1 X73.869 Y36.071 E0.04434
G1 X79.484 Y41.686 E0.49521
G1 X80.195 Y41.686 E0.04434
G1 X74.580 Y36.071 E0.49521
G1 X75.291 Y36.071 E0.04434
G1 X80.906 Y41.686 E0.49521
G1 X81.617 Y41.686 E0.04434
G1 X76.002 Y36.071 E0.49521
G1 X76.713 Y36.071 E0.04434
G1 X82.329 Y41.686 E0.49521
G1 X83.040 Y41.686 E0.04434
G1 X77.424 Y36.071 E0.49521
G1 X78.135 Y36.071 E0.04434
G1 X83.751 Y41.686 E0.49521
G1 X84.462 Y41.686 E0.04434
G1 X78.846 Y36.071 E0.49521
G1 X79.557 Y36.071 E0.04434
G1 X85.173 Y41.686 E0.49521
G1 X85.884 Y41.686 E0.04434
G1 X80.269 Y36.071 E0.49521
G1 X80.980 Y36.071 E0.04434
G1 X86.595 Y41.686 E0.49521
G1 X87.306 Y41.686 E0.04434
G1 X81.691 Y36.071 E0.49521
G1 X82.402 Y36.071 E0.04434
G1 X88.017 Y41.686 E0.49521
G1 X88.728 Y41.686 E0.04434
G1 X83.113 Y36.071 E0.49521
G1 X83.824 Y36.071 E0.04434
G1 X89.439 Y41.686 E0.49521
G1 X90.150 Y41.686 E0.04434
G1 X84.535 Y36.071 E0.49521
G1 X85.246 Y36.071 E0.04434
G1 X90.861 Y41.686 E0.49521
G1 X91.572 Y41.686 E0.04434
G1 X85.957 Y36.071 E0.49521
G1 X86.668 Y36.071 E0.04434
G1 X92.283 Y41.686 E0.49521
G1 X92.994 Y41.686 E0.04434
G1 X87.379 Y36.071 E0.49521
G1 X88.090 Y36.071 E0.04434
G1 X93.705 Y41.686 E0.49521
G1 X94.416 Y41.686 E0.04434
G1 X88.801 Y36.071 E0.49521
G1 X89.512 Y36.071 E0.04434
G1 X95.127 Y41.686 E0.49521
G1 X95.838 Y41.686 E0.04434
G1 X90.223 Y36.071 E0.49521
G1 X90.934 Y36.071 E0.04434
G1 X95.951 Y41.088 E0.44248
G1 X95.951 Y40.377 E0.04434
G1 X91.645 Y36.071 E0.37977
G1 X92.356 Y36.071 E0.04434
G1 X95.951 Y39.666 E0.31706
G1 X95.951 Y38.955 E0.04434
G1 X93.067 Y36.071 E0.25436
G1 X93.778 Y36.071 E0.04434
G1 X95.951 Y38.244 E0.19165
G1 X95.951 Y37.533 E0.04434
G1 X94.489 Y36.071 E0.12894
G1 X95.200 Y36.071 E0.04434
G1 X95.951 Y36.822 E0.06623
G1 X95.951 Y36.111 E0.04434
G1 X95.911 Y36.071 E0.00353
G1 F2400.000 E-3.50000
G1 X56.886 Y51.922 F15000.000
G1 E3.50000 F2400.000
G1 X56.886 Y53.922 E0.12473 F1200.000
G1 X54.886 Y53.922 E0.12473
G1 X54.886 Y103.922 E3.11814
G1 X49.286 Y103.922 E0.34923
G1 X49.286 Y46.322 E3.59209
G1 X106.886 Y46.322 E3.59209
G1 X106.886 Y51.922 E0.34923
G1 X56.961 Y51.922 E3.11346
G1 X57.386 Y52.422 F15000.000
G1 X57.386 Y54.422 E0.12473 F1200.000
G1 X55.386 Y54.422 E0.12473
G1 X55.386 Y104.422 E3.11814
G1 X48.786 Y104.422 E0.41159
G1 X48.786 Y45.822 E3.65446
G1 X107.386 Y45.822 E3.65446
G1 X107.386 Y52.422 E0.41159
G1 X57.461 Y52.422 E3.11346
G1 X56.886 Y52.422 F15000.000
G1 F2400.000 E-3.50000
G1 X106.504 Y46.664 F15000.000
G1 E3.50000 F2400.000
G1 X106.544 Y46.704 E0.00353 F1200.000
G1 X106.544 Y47.415 E0.04434
G1 X105.793 Y46.664 E0.06623
G1 X105.082 Y46.664 E0.04434
G1 X106.544 Y48.126 E0.12893
G1 X106.544 Y48.837 E0.04434
G1 X104.371 Y46.664 E0.19163
G1 X103.660 Y46.664 E0.04434
G1 X106.544 Y49.548 E0.25433
G1 X106.544 Y50.259 E0.04434
G1 X102.949 Y46.664 E0.31703
G1 X102.238 Y46.664 E0.04434
G1 X106.544 Y50.970 E0.37973
G1 X106.442 Y51.579 E0.03853
G1 X101.527 Y46.664 E0.43348
G1 X100.816 Y46.664 E0.04434
G1 X105.731 Y51.579 E0.43348
G1 X105.020 Y51.579 E0.04434
G1 X100.105 Y46.664 E0.43348
G1 X99.394 Y46.664 E0.04434
G1 X104.309 Y51.579 E0.43348
G1 X103.598 Y51.579 E0.04434
G1 X98.683 Y46.664 E0.43348
G1 X97.972 Y46.664 E0.04434
G1 X102.887 Y51.579 E0.43348
G1 X102.177 Y51.579 E0.04434
G1 X97.262 Y46.664 E0.43348
G1 X96.551 Y46.664 E0.04434
G1 X101.466 Y51.579 E0.43348
G1 X100.755 Y51.579 E0.04434
G1 X95.840 Y46.664 E0.43348
G1 X95.129 Y46.664 E0.04434
G1 X100.044 Y51.579 E0.43348
G1 X99.333 Y51.579 E0.04434
G1 X94.418 Y46.664 E0.43348
G1 X93.707 Y46.664 E0.04434
G1 X98.622 Y51.579 E0.43348
G1 X97.911 Y51.579 E0.04434
G1 X92.996 Y46.664 E0.43348
G1 X92.285 Y46.664 E0.04434
G1 X97.200 Y51.579 E0.43348
G1 X96.489 Y51.579 E0.04434
G1 X91.574 Y46.664 E0.43348
G1 X90.863 Y46.664 E0.04434
G1 X95.778 Y51.579 E0.43348
G1 X95.067 Y51.579 E0.04434
G1 X90.152 Y46.664 E0.43348
G1 X89.441 Y46.664 E0.04434
G1 X94.356 Y51.579 E0.43348
G1 X93.645 Y51.579 E0.04434
G1 X88.730 Y46.664 E0.43348
G1 X88.019 Y46.664 E0.04434
G1 X92.934 Y51.579 E0.43348
G1 X92.223 Y51.579 E0.04434
G1 X87.308 Y46.664 E0.43348
G1 X86.597 Y46.664 E0.04434
G1 X91.512 Y51.579 E0.43348
G1 X90.802 Y51.579 E0.04434
G1 X85.886 Y46.664 E0.43348
G1 X85.176 Y46.664 E0.04434
G1 X90.091 Y51.579 E0.43348
G1 X89.380 Y51.579 E0.04434
G1 X84.465 Y46.664 E0.43348
G1 X83.754 Y46.664 E0.04434
G1 X88.669 Y51.579 E0.43348
G1 X87.958 Y51.579 E0.04434
G1 X83.043 Y46.664 E0.43348
G1 X82.332 Y46.664 E0.04434
G1 X87.247 Y51.579 E0.43348
G1 X86.536 Y51.579 E0.04434
G1 X81.621 Y46.664 E0.43348
G1 X80.910 Y46.664 E0.04434
G1 X85.825 Y51.579 E0.43348
G1 X85.114 Y51.579 E0.04434
G1 X80.199 Y46.664 E0.43348
G1 X79.488 Y46.664 E0.04434
G1 X84.403 Y51.579 E0.43348
G1 X83.692 Y51.579 E0.04434
G1 X78.777 Y46.664 E0.43348
G1 X78.066 Y46.664 E0.04434
G1 X82.981 Y51.579 E0.43348
G1 X82.270 Y51.579 E0.04434
G1 X77.355 Y46.664 E0.43348
G1 X76.644 Y46.664 E0.04434
G1 X81.559 Y51.579 E0.43348
G1 X80.848 Y51.579 E0.04434
G1 X75.933 Y46.664 E0.43348
G1 X75.222 Y46.664 E0.04434
G1 X80.137 Y51.579 E0.43348
G1 X79.427 Y51.579 E0.04434
G1 X74.511 Y46.664 E0.43348
G1 X73.801 Y46.664 E0.04434
G1 X78.716 Y51.579 E0.43348
G1 X78.005 Y51.579 E0.04434
G1 X73.090 Y46.664 E0.43348
G1 X72.379 Y46.664 E0.04434
G1 X77.294 Y51.579 E0.43348
G1 X76.583 Y51.579 E0.04434
G1 X71.668 Y46.664 E0.43348
G1 X70.957 Y46.664 E0.04434
G1 X75.872 Y51.579 E0.43348
G1 X75.161 Y51.579 E0.04434
G1 X70.246 Y46.664 E0.43348
G1 X69.535 Y46.664 E0.04434
G1 X74.450 Y51.579 E0.43348
G1 X73.739 Y51.579 E0.04434
G1 X68.824 Y46.664 E0.43348
G1 X68.113 Y46.664 E0.04434
G1 X73.028 Y51.579 E0.43348
G1 X72.317 Y51.579 E0.04434
G1 X67.402 Y46.664 E0.43348
G1 X66.691 Y46.664 E0.04434
G1 X71.606 Y51.579 E0.43348
G1 X70.895 Y51.579 E0.04434
G1 X65.980 Y46.664 E0.43348
G1 X65.269 Y46.664 E0.04434
G1 X70.184 Y51.579 E0.43348
G1 X69.473 Y51.579 E0.04434
G1 X64.558 Y46.664 E0.43348
G1 X63.847 Y46.664 E0.04434
G1 X68.762 Y51.579 E0.43348
G1 X68.052 Y51.579 E0.04434
G1 X63.136 Y46.664 E0.43348
G1 X62.426 Y46.664 E0.04434
G1 X67.341 Y51.579 E0.43348
G1 X66.630 Y51.579 E0.04434
G1 X61.715 Y46.664 E0.43348
G1 X61.004 Y46.664 E0.04434
G1 X65.919 Y51.579 E0.43348
G1 X65.208 Y51.579 E0.04434
G1 X60.293 Y46.664 E0.43348
G1 X59.582 Y46.664 E0.04434
G1 X64.497 Y51.579 E0.43348
G1 X63.786 Y51.579 E0.04434
G1 X58.871 Y46.664 E0.43348
G1 X58.160 Y46.664 E0.04434
G1 X63.075 Y51.579 E0.43348
G1 X62.364 Y51.579 E0.04434
