; generated by Slic3r 1.2.9 on 2015-07-01 at 10:51:31

; external perimeters extrusion width = 0.40mm
; perimeters extrusion width = 0.40mm
; infill extrusion width = 0.40mm
; solid infill extrusion width = 0.40mm
; top infill extrusion width = 0.40mm

M107
M83
T0
M116
G1 X0 Y0 Z4 F4000
G30
G1 Z0.35 F4000

G21 ; set units to millimeters
G90 ; use absolute coordinates
M83 ; use relative distances for extrusion
G1 E-3.50000 F3000.00000
G1 Z0.400 F15000.000
G1 X0.000 Y11.430 F15000.000
G1 Z0.350 F15000.000
G1 E3.50000 F3000.00000
G1 X-8.634 Y11.430 E0.76314 F960.000
G1 X-10.708 Y11.034 E0.18667
G1 X-12.490 Y9.900 E0.18667
G1 X-13.728 Y8.190 E0.18667
G1 X-14.258 Y5.805 E0.21590
G1 X-14.258 Y-7.964 E1.21716
G1 X-13.862 Y-10.039 E0.18667
G1 X-12.729 Y-11.821 E0.18667
G1 X-11.018 Y-13.059 E0.18667
G1 X-8.634 Y-13.589 E0.21590
G1 X8.634 Y-13.589 E1.52628
G1 X10.708 Y-13.193 E0.18667
G1 X12.490 Y-12.059 E0.18667 F960.000
G1 X13.728 Y-10.349 E0.18667
G1 X14.258 Y-7.964 E0.21590
G1 X14.258 Y5.805 E1.21716
G1 X13.862 Y7.880 E0.18667
G1 X12.729 Y9.662 E0.18667
G1 X11.018 Y10.900 E0.18667
G1 X8.634 Y11.430 E0.21590
G1 X0.060 Y11.430 E0.75784
G1 E-3.50000 F3000.00000
G1 Z0.750 F15000.000
G1 X2.310 Y4.206 F15000.000
G1 Z0.350 F15000.000
G1 E3.50000 F3000.00000
G1 X2.310 Y-6.365 E0.93434 F600.000
G1 X7.034 Y-6.365 E0.41751
G1 X7.034 Y4.206 E0.93434
G1 X2.370 Y4.206 E0.41220
G1 X1.686 Y4.831 F15000.000
G1 X1.686 Y-6.990 E1.04481 F600.000
G1 X7.659 Y-6.990 E0.52798
G1 X7.659 Y4.831 E1.04481
G1 X1.746 Y4.831 E0.52267
G1 X1.061 Y5.456 F15000.000
G1 X1.061 Y-7.615 E1.15528 F600.000
G1 X8.284 Y-7.615 E0.63845
G1 X8.284 Y5.456 E1.15528
G1 X1.121 Y5.456 E0.63314
G1 X1.261 Y5.109 F15000.000
G1 X2.689 Y3.522 F15000.000
G1 X2.994 Y3.827 E0.04060 F960.000
G1 X3.935 Y3.827 E0.08850
G1 X2.689 Y2.581 E0.16576
G1 X2.689 Y1.641 E0.08850
G1 X4.875 Y3.827 E0.29092
G1 X5.816 Y3.827 E0.08850
G1 X2.689 Y0.700 E0.41609
G1 X2.689 Y-0.241 E0.08850
G1 X6.655 Y3.726 E0.52774
G1 X6.655 Y2.785 E0.08850
G1 X2.689 Y-1.181 E0.52774
G1 X2.689 Y-2.122 E0.08850
G1 X6.655 Y1.844 E0.52774
G1 X6.655 Y0.904 E0.08850
G1 X2.689 Y-3.063 E0.52774
G1 X2.689 Y-4.003 E0.08850
G1 X6.655 Y-0.037 E0.52774
G1 X6.655 Y-0.978 E0.08850
G1 X2.689 Y-4.944 E0.52774
G1 X2.689 Y-5.885 E0.08850
G1 X6.655 Y-1.918 E0.52774
G1 X6.655 Y-2.859 E0.08850
G1 X3.528 Y-5.986 E0.41609
G1 X4.469 Y-5.986 E0.08850
G1 X6.655 Y-3.800 E0.29093
G1 X6.655 Y-4.740 E0.08850
G1 X5.409 Y-5.986 E0.16576
G1 X6.350 Y-5.986 E0.08850
G1 X6.655 Y-5.681 E0.04060
G1 E-3.50000 F3000.00000
G1 Z0.750 F15000.000
G1 X-2.310 Y4.206 F15000.000
G1 Z0.350 F15000.000
G1 E3.50000 F3000.00000
G1 X-7.034 Y4.206 E0.41751 F600.000
G1 X-7.034 Y-6.365 E0.93434
G1 X-2.310 Y-6.365 E0.41751
G1 X-2.310 Y4.146 E0.92904
G1 X-1.686 Y4.831 F15000.000
G1 X-7.659 Y4.831 E0.52798 F600.000
G1 X-7.659 Y-6.990 E1.04481
G1 X-1.686 Y-6.990 E0.52798
G1 X-1.686 Y4.771 E1.03951
G1 X-1.061 Y5.456 F15000.000
G1 X-8.284 Y5.456 E0.63845 F600.000
G1 X-8.284 Y-7.615 E1.15528
G1 X-1.061 Y-7.615 E0.63845
G1 X-1.061 Y5.396 E1.14998
G1 X-1.407 Y5.256 F15000.000
G1 X-6.655 Y3.522 F15000.000
G1 X-6.350 Y3.827 E0.04060 F960.000
G1 X-5.409 Y3.827 E0.08850
G1 X-6.655 Y2.581 E0.16576
G1 X-6.655 Y1.641 E0.08850
G1 X-4.469 Y3.827 E0.29092
G1 X-3.528 Y3.827 E0.08850
G1 X-6.655 Y0.700 E0.41609
G1 X-6.655 Y-0.241 E0.08850
G1 X-2.689 Y3.726 E0.52774
G1 X-2.689 Y2.785 E0.08850
G1 X-6.655 Y-1.181 E0.52774
G1 X-6.655 Y-2.122 E0.08850
G1 X-2.689 Y1.844 E0.52774
G1 X-2.689 Y0.904 E0.08850
G1 X-6.655 Y-3.063 E0.52774
G1 X-6.655 Y-4.003 E0.08850
G1 X-2.689 Y-0.037 E0.52774
G1 X-2.689 Y-0.978 E0.08850
G1 X-6.655 Y-4.944 E0.52774
G1 X-6.655 Y-5.885 E0.08850
G1 X-2.689 Y-1.918 E0.52774
G1 X-2.689 Y-2.859 E0.08850
G1 X-5.816 Y-5.986 E0.41609
G1 X-4.875 Y-5.986 E0.08850
G1 X-2.689 Y-3.800 E0.29093
G1 X-2.689 Y-4.740 E0.08850
G1 X-3.935 Y-5.986 E0.16576
G1 X-2.994 Y-5.986 E0.08850
G1 X-2.689 Y-5.681 E0.04060
G1 E-3.50000 F3000.00000
G1 Z0.750 F15000.000
G1 X1.625 Y4.891 F15000.000
G1 Z0.550 F15000.000
G1 E3.50000 F3000.00000
G1 X1.625 Y-7.050 E0.34467 F2400.000
G1 X7.719 Y-7.050 E0.17591
G1 X7.719 Y4.891 E0.34467
G1 X1.685 Y4.891 E0.17417
G1 X1.268 Y5.248 F15000.000
G1 X1.268 Y-7.407 E0.36528 F2400.000
G1 X8.077 Y-7.407 E0.19652
G1 X8.077 Y5.248 E0.36528
G1 X1.328 Y5.248 E0.19479
G1 X0.911 Y5.606 F15000.000
G1 X0.911 Y-7.765 E0.38589 F2400.000
G1 X8.434 Y-7.765 E0.21713
G1 X8.434 Y5.606 E0.38589
G1 X0.971 Y5.606 E0.21540
G1 X1.111 Y5.259 F15000.000
G1 X7.320 Y4.684 F15000.000
G1 X7.512 Y4.492 E0.00789 F2400.000
G1 X7.512 Y3.982 E0.01485
G1 X6.810 Y4.684 E0.02890
G1 X6.301 Y4.684 E0.01485
G1 X7.512 Y3.473 E0.04990
G1 X7.512 Y2.963 E0.01485
G1 X5.791 Y4.684 E0.07090
G1 X5.281 Y4.684 E0.01485
G1 X7.512 Y2.453 E0.09191
G1 X7.512 Y1.943 E0.01485
G1 X4.771 Y4.684 E0.11291
G1 X4.262 Y4.684 E0.01485
G1 X7.512 Y1.433 E0.13392
G1 X7.512 Y0.924 E0.01485
G1 X3.752 Y4.684 E0.15492
G1 X3.242 Y4.684 E0.01485
G1 X7.512 Y0.414 E0.17593
G1 X7.512 Y-0.096 E0.01485
G1 X2.732 Y4.684 E0.19693
G1 X2.223 Y4.684 E0.01485
G1 X7.512 Y-0.606 E0.21794
G1 X7.512 Y-1.115 E0.01485
G1 X1.833 Y4.564 E0.23400
G1 X1.833 Y4.054 E0.01485
G1 X7.512 Y-1.625 E0.23400
G1 X7.512 Y-2.135 E0.01485
G1 X1.833 Y3.544 E0.23400
G1 X1.833 Y3.034 E0.01485
G1 X7.512 Y-2.645 E0.23400
G1 X7.512 Y-3.154 E0.01485
G1 X1.833 Y2.525 E0.23400
G1 X1.833 Y2.015 E0.01485
G1 X7.512 Y-3.664 E0.23400
G1 X7.512 Y-4.174 E0.01485
G1 X1.833 Y1.505 E0.23400
G1 X1.833 Y0.995 E0.01485
G1 X7.512 Y-4.684 E0.23400
G1 X7.512 Y-5.193 E0.01485
G1 X1.833 Y0.486 E0.23400
G1 X1.833 Y-0.024 E0.01485
G1 X7.512 Y-5.703 E0.23400
G1 X7.512 Y-6.213 E0.01485
G1 X1.833 Y-0.534 E0.23400
G1 X1.833 Y-1.044 E0.01485
G1 X7.512 Y-6.723 E0.23400
G1 X7.122 Y-6.843 E0.01189
G1 X1.833 Y-1.553 E0.21794
G1 X1.833 Y-2.063 E0.01485
G1 X6.612 Y-6.843 E0.19693
G1 X6.102 Y-6.843 E0.01485
G1 X1.833 Y-2.573 E0.17593
G1 X1.833 Y-3.083 E0.01485
G1 X5.592 Y-6.843 E0.15492
G1 X5.083 Y-6.843 E0.01485
G1 X1.833 Y-3.593 E0.13392
G1 X1.833 Y-4.102 E0.01485
G1 X4.573 Y-6.843 E0.11291
G1 X4.063 Y-6.843 E0.01485
G1 X1.833 Y-4.612 E0.09191
G1 X1.833 Y-5.122 E0.01485
G1 X3.553 Y-6.843 E0.07090
G1 X3.044 Y-6.843 E0.01485
G1 X1.833 Y-5.632 E0.04990
G1 X1.833 Y-6.141 E0.01485
G1 X2.534 Y-6.843 E0.02889
G1 X2.024 Y-6.843 E0.01485
G1 X1.833 Y-6.651 E0.00789
G1 E-3.50000 F3000.00000
G1 Z0.950 F15000.000
G1 X-1.625 Y4.891 F15000.000
G1 Z0.550 F15000.000
G1 E3.50000 F3000.00000
G1 X-7.719 Y4.891 E0.17591 F2400.000
G1 X-7.719 Y-7.050 E0.34467
G1 X-1.625 Y-7.050 E0.17591
G1 X-1.625 Y4.831 E0.34294
G1 X-1.268 Y5.248 F15000.000
G1 X-8.077 Y5.248 E0.19652 F2400.000
G1 X-8.077 Y-7.407 E0.36528
G1 X-1.268 Y-7.407 E0.19652
G1 X-1.268 Y5.188 E0.36355
G1 X-0.911 Y5.606 F15000.000
G1 X-8.434 Y5.606 E0.21713 F2400.000
G1 X-8.434 Y-7.765 E0.38589
G1 X-0.911 Y-7.765 E0.21713
G1 X-0.911 Y5.546 E0.38416
G1 X-1.257 Y5.405 F15000.000
G1 X-2.024 Y4.684 F15000.000
G1 X-1.833 Y4.492 E0.00789 F2400.000
G1 X-1.833 Y3.982 E0.01485
G1 X-2.534 Y4.684 E0.02890
G1 X-3.044 Y4.684 E0.01485
G1 X-1.833 Y3.473 E0.04990
G1 X-1.833 Y2.963 E0.01485
G1 X-3.553 Y4.684 E0.07090
G1 X-4.063 Y4.684 E0.01485
G1 X-1.833 Y2.453 E0.09191
G1 X-1.833 Y1.943 E0.01485
G1 X-4.573 Y4.684 E0.11291
G1 X-5.083 Y4.684 E0.01485
G1 X-1.833 Y1.433 E0.13392
G1 X-1.833 Y0.924 E0.01485
G1 X-5.592 Y4.684 E0.15492
G1 X-6.102 Y4.684 E0.01485
G1 X-1.833 Y0.414 E0.17593
G1 X-1.833 Y-0.096 E0.01485
G1 X-6.612 Y4.684 E0.19693
G1 X-7.122 Y4.684 E0.01485
G1 X-1.833 Y-0.606 E0.21794
G1 X-1.833 Y-1.115 E0.01485
G1 X-7.512 Y4.564 E0.23400
G1 X-7.512 Y4.054 E0.01485
G1 X-1.833 Y-1.625 E0.23400
G1 X-1.833 Y-2.135 E0.01485
G1 X-7.512 Y3.544 E0.23400
G1 X-7.512 Y3.034 E0.01485
G1 X-1.833 Y-2.645 E0.23400
G1 X-1.833 Y-3.154 E0.01485
G1 X-7.512 Y2.525 E0.23400
G1 X-7.512 Y2.015 E0.01485
G1 X-1.833 Y-3.664 E0.23400
G1 X-1.833 Y-4.174 E0.01485
G1 X-7.512 Y1.505 E0.23400
G1 X-7.512 Y0.995 E0.01485
G1 X-1.833 Y-4.684 E0.23400
G1 X-1.833 Y-5.193 E0.01485
G1 X-7.512 Y0.486 E0.23400
G1 X-7.512 Y-0.024 E0.01485
G1 X-1.833 Y-5.703 E0.23400
G1 X-1.833 Y-6.213 E0.01485
G1 X-7.512 Y-0.534 E0.23400
G1 X-7.512 Y-1.044 E0.01485
G1 X-1.833 Y-6.723 E0.23400
G1 X-2.223 Y-6.843 E0.01189
G1 X-7.512 Y-1.553 E0.21794
G1 X-7.512 Y-2.063 E0.01485
G1 X-2.732 Y-6.843 E0.19693
G1 X-3.242 Y-6.843 E0.01485
G1 X-7.512 Y-2.573 E0.17593
G1 X-7.512 Y-3.083 E0.01485
G1 X-3.752 Y-6.843 E0.15492
G1 X-4.262 Y-6.843 E0.01485
G1 X-7.512 Y-3.593 E0.13392
G1 X-7.512 Y-4.102 E0.01485
G1 X-4.771 Y-6.843 E0.11291
G1 X-5.281 Y-6.843 E0.01485
G1 X-7.512 Y-4.612 E0.09191
G1 X-7.512 Y-5.122 E0.01485
G1 X-5.791 Y-6.843 E0.07090
G1 X-6.301 Y-6.843 E0.01485
G1 X-7.512 Y-5.632 E0.04990
G1 X-7.512 Y-6.141 E0.01485
G1 X-6.810 Y-6.843 E0.02889
G1 X-7.320 Y-6.843 E0.01485
G1 X-7.512 Y-6.651 E0.00789
G1 E-3.50000 F3000.00000
G1 Z0.950 F15000.000
G1 X1.625 Y4.891 F15000.000
G1 Z0.750 F15000.000
G1 E3.50000 F3000.00000
G1 X1.625 Y-7.050 E0.34467 F2400.000
G1 X7.719 Y-7.050 E0.17591
G1 X7.719 Y4.891 E0.34467
G1 X1.685 Y4.891 E0.17417
G1 X1.268 Y5.248 F15000.000
G1 X1.268 Y-7.407 E0.36528 F2400.000
G1 X8.077 Y-7.407 E0.19652
G1 X8.077 Y5.248 E0.36528
G1 X1.328 Y5.248 E0.19479
G1 X0.911 Y5.606 F15000.000
G1 X0.911 Y-7.765 E0.38589 F2400.000
G1 X8.434 Y-7.765 E0.21713
G1 X8.434 Y5.606 E0.38589
G1 X0.971 Y5.606 E0.21540
G1 X1.111 Y5.259 F15000.000
G1 X1.833 Y3.425 F15000.000
G1 X5.476 Y4.684 E0.11125 F2400.000
G1 X7.382 Y4.684 E0.05502
G1 X1.833 Y-0.866 E0.22652
G1 X7.512 Y-1.322 E0.16444
G1 X1.833 Y-3.226 E0.17288
G1 X5.956 Y-6.843 E0.15830
G1 X7.512 Y-5.287 E0.06352
G1 E-3.50000 F3000.00000
G1 Z1.150 F15000.000
G1 X-1.625 Y4.891 F15000.000
G1 Z0.750 F15000.000
G1 E3.50000 F3000.00000
G1 X-7.719 Y4.891 E0.17591 F2400.000
G1 X-7.719 Y-7.050 E0.34467
G1 X-1.625 Y-7.050 E0.17591
G1 X-1.625 Y4.831 E0.34294
G1 X-1.268 Y5.248 F15000.000
G1 X-8.077 Y5.248 E0.19652 F2400.000
G1 X-8.077 Y-7.407 E0.36528
G1 X-1.268 Y-7.407 E0.19652
G1 X-1.268 Y5.188 E0.36355
G1 X-0.911 Y5.606 F15000.000
G1 X-8.434 Y5.606 E0.21713 F2400.000
G1 X-8.434 Y-7.765 E0.38589
G1 X-0.911 Y-7.765 E0.21713
G1 X-0.911 Y5.546 E0.38416
G1 X-1.257 Y5.405 F15000.000
G1 X-7.512 Y-0.110 F15000.000
G1 X-2.718 Y4.684 E0.19568 F2400.000
G1 X-1.833 Y-0.006 E0.13775
G1 X-7.512 Y-2.435 E0.17827
G1 X-4.144 Y-6.843 E0.16010
G1 X-1.833 Y-4.531 E0.09435
M106 S255
G1 E-3.50000 F3000.00000
G1 Z1.150 F15000.000
G1 X1.625 Y4.891 F15000.000
G1 Z0.950 F15000.000
G1 E3.50000 F3000.00000
G1 X1.625 Y-7.050 E0.34467 F2400.000
G1 X7.719 Y-7.050 E0.17591
G1 X7.719 Y4.891 E0.34467
G1 X1.685 Y4.891 E0.17417
G1 X1.268 Y5.248 F15000.000
G1 X1.268 Y-7.407 E0.36528 F2400.000
G1 X8.077 Y-7.407 E0.19652
G1 X8.077 Y5.248 E0.36528
G1 X1.328 Y5.248 E0.19479
G1 X0.911 Y5.606 F15000.000
G1 X0.911 Y-7.765 E0.38589 F2400.000
G1 X8.434 Y-7.765 E0.21713
G1 X8.434 Y5.606 E0.38589
G1 X0.971 Y5.606 E0.21540
G1 X1.111 Y5.259 F15000.000
G1 X3.065 Y4.684 F15000.000
G1 X7.512 Y0.237 E0.18151 F2400.000
G1 X1.833 Y2.389 E0.17529
G1 X5.724 Y-6.843 E0.28914
G1 X4.491 Y-6.843 E0.03558
G1 X1.833 Y-4.184 E0.10852
G1 E-3.50000 F3000.00000
G1 Z1.350 F15000.000
G1 X-1.625 Y4.891 F15000.000
G1 Z0.950 F15000.000
G1 E3.50000 F3000.00000
G1 X-7.719 Y4.891 E0.17591 F2400.000
G1 X-7.719 Y-7.050 E0.34467
G1 X-1.625 Y-7.050 E0.17591
G1 X-1.625 Y4.831 E0.34294
G1 X-1.268 Y5.248 F15000.000
G1 X-8.077 Y5.248 E0.19652 F2400.000
G1 X-8.077 Y-7.407 E0.36528
G1 X-1.268 Y-7.407 E0.19652
G1 X-1.268 Y5.188 E0.36355
G1 X-0.911 Y5.606 F15000.000
G1 X-8.434 Y5.606 E0.21713 F2400.000
G1 X-8.434 Y-7.765 E0.38589
G1 X-0.911 Y-7.765 E0.21713
G1 X-0.911 Y5.546 E0.38416
G1 X-1.257 Y5.405 F15000.000
G1 X-7.035 Y4.684 F15000.000
G1 X-1.833 Y-0.519 E0.21235 F2400.000
G1 X-4.000 Y-6.843 E0.19295
G1 X-7.512 Y3.907 E0.32640
G1 X-7.512 Y-4.939 E0.25534
G1 X-5.609 Y-6.843 E0.07768
G1 E-3.50000 F3000.00000
G1 Z1.350 F15000.000
G1 X1.625 Y4.891 F15000.000
G1 Z1.150 F15000.000
G1 E3.50000 F3000.00000
G1 X1.625 Y-6.905 E0.34046 F2400.000
G1 X7.574 Y-6.905 E0.17170
G1 X7.574 Y4.891 E0.34046
G1 X1.685 Y4.891 E0.16997
G1 X1.268 Y5.248 F15000.000
G1 X1.268 Y-7.262 E0.36108 F2400.000
G1 X7.931 Y-7.262 E0.19231
G1 X7.931 Y5.248 E0.36108
G1 X1.328 Y5.248 E0.19058
G1 X0.911 Y5.606 F15000.000
G1 X0.911 Y-7.619 E0.38169 F2400.000
G1 X8.288 Y-7.619 E0.21293
G1 X8.288 Y5.606 E0.38169
G1 X0.971 Y5.606 E0.21119
G1 X1.111 Y5.259 F15000.000
G1 X1.833 Y3.446 F15000.000
G1 X5.451 Y4.684 E0.11038 F2400.000
G1 X7.366 Y4.668 E0.05527
G1 X1.833 Y-0.866 E0.22586
G1 X1.833 Y-3.186 E0.06696
G1 X7.366 Y-1.348 E0.16828
G1 X6.101 Y-6.697 E0.15863
G1 X7.366 Y-5.432 E0.05162
G1 E-3.50000 F3000.00000
G1 Z1.550 F15000.000
G1 X-1.625 Y4.891 F15000.000
G1 Z1.150 F15000.000
G1 E3.50000 F3000.00000
G1 X-7.574 Y4.891 E0.17170 F2400.000
G1 X-7.574 Y-6.905 E0.34046
G1 X-1.625 Y-6.905 E0.17170
G1 X-1.625 Y4.831 E0.33873
G1 X-1.268 Y5.248 F15000.000
G1 X-7.931 Y5.248 E0.19231 F2400.000
G1 X-7.931 Y-7.262 E0.36108
G1 X-1.268 Y-7.262 E0.19231
G1 X-1.268 Y5.188 E0.35934
G1 X-0.911 Y5.606 F15000.000
G1 X-8.288 Y5.606 E0.21293 F2400.000
G1 X-8.288 Y-7.619 E0.38169
G1 X-0.911 Y-7.619 E0.21293
G1 X-0.911 Y5.546 E0.37996
G1 X-1.257 Y5.405 F15000.000
G1 X-7.366 Y0.035 F15000.000
G1 X-2.718 Y4.684 E0.18973 F2400.000
G1 X-1.833 Y0.032 E0.13667
G1 X-7.366 Y-2.306 E0.17338
G1 X-3.998 Y-6.697 E0.15971
G1 X-1.833 Y-4.531 E0.08840
G1 E-3.50000 F3000.00000
G1 Z1.550 F15000.000
G1 X1.625 Y4.891 F15000.000
G1 Z1.350 F15000.000
G1 E3.50000 F3000.00000
G1 X1.625 Y-6.640 E0.33283 F2400.000
G1 X7.309 Y-6.640 E0.16407
G1 X7.309 Y4.891 E0.33283
G1 X1.685 Y4.891 E0.16234
G1 X1.268 Y5.248 F15000.000
G1 X1.268 Y-6.997 E0.35344 F2400.000
G1 X7.666 Y-6.997 E0.18468
G1 X7.666 Y5.248 E0.35344
G1 X1.328 Y5.248 E0.18295
G1 X0.911 Y5.606 F15000.000
G1 X0.911 Y-7.354 E0.37406 F2400.000
G1 X8.024 Y-7.354 E0.20530
G1 X8.024 Y5.606 E0.37406
G1 X0.971 Y5.606 E0.20356
G1 X1.111 Y5.259 F15000.000
G1 X3.065 Y4.684 F15000.000
G1 X7.102 Y0.647 E0.16478 F2400.000
G1 X1.833 Y2.180 E0.15839
G1 X5.334 Y-6.432 E0.26835
G1 X4.081 Y-6.432 E0.03616
G1 X1.833 Y-4.184 E0.09178
G1 E-3.50000 F3000.00000
G1 Z1.750 F15000.000
G1 X-1.625 Y4.891 F15000.000
G1 Z1.350 F15000.000
G1 E3.50000 F3000.00000
G1 X-7.309 Y4.891 E0.16407 F2400.000
G1 X-7.309 Y-6.640 E0.33283
G1 X-1.625 Y-6.640 E0.16407
G1 X-1.625 Y4.831 E0.33110
G1 X-1.268 Y5.248 F15000.000
G1 X-7.666 Y5.248 E0.18468 F2400.000
G1 X-7.666 Y-6.997 E0.35344
G1 X-1.268 Y-6.997 E0.18468
G1 X-1.268 Y5.188 E0.35171
G1 X-0.911 Y5.606 F15000.000
G1 X-8.024 Y5.606 E0.20530 F2400.000
G1 X-8.024 Y-7.354 E0.37406
G1 X-0.911 Y-7.354 E0.20530
G1 X-0.911 Y5.546 E0.37233
G1 X-1.257 Y5.405 F15000.000
G1 X-7.035 Y4.684 F15000.000
G1 X-1.833 Y-0.519 E0.21235 F2400.000
G1 X-7.102 Y2.530 E0.17570
G1 X-4.251 Y-6.432 E0.27146
G1 X-6.019 Y-6.432 E0.05102
G1 X-7.102 Y-5.350 E0.04420
G1 E-3.50000 F3000.00000
G1 Z1.750 F15000.000
G1 X1.625 Y4.891 F15000.000
G1 Z1.550 F15000.000
G1 E3.50000 F3000.00000
G1 X1.625 Y-6.376 E0.32520 F2400.000
G1 X7.045 Y-6.376 E0.15644
G1 X7.045 Y4.891 E0.32520
G1 X1.685 Y4.891 E0.15471
G1 X1.268 Y5.248 F15000.000
G1 X1.268 Y-6.733 E0.34581 F2400.000
G1 X7.402 Y-6.733 E0.17705
G1 X7.402 Y5.248 E0.34581
G1 X1.328 Y5.248 E0.17532
G1 X0.911 Y5.606 F15000.000
G1 X0.911 Y-7.090 E0.36643 F2400.000
G1 X7.759 Y-7.090 E0.19766
G1 X7.759 Y5.606 E0.36643
G1 X0.971 Y5.606 E0.19593
G1 X1.111 Y5.259 F15000.000
G1 X1.833 Y3.524 F15000.000
G1 X5.354 Y4.684 E0.10701 F2400.000
G1 X6.837 Y4.139 E0.04561
G1 X1.833 Y-0.866 E0.20428
G1 X1.833 Y-3.038 E0.06268
G1 X6.837 Y-1.434 E0.15168
G1 X6.630 Y-6.168 E0.13678
G1 X6.837 Y-5.961 E0.00845
G1 E-3.50000 F3000.00000
G1 Z1.950 F15000.000
G1 X-1.625 Y4.891 F15000.000
G1 Z1.550 F15000.000
G1 E3.50000 F3000.00000
G1 X-7.045 Y4.891 E0.15644 F2400.000
G1 X-7.045 Y-6.376 E0.32520
G1 X-1.625 Y-6.376 E0.15644
G1 X-1.625 Y4.831 E0.32347
G1 X-1.268 Y5.248 F15000.000
G1 X-7.402 Y5.248 E0.17705 F2400.000
G1 X-7.402 Y-6.733 E0.34581
G1 X-1.268 Y-6.733 E0.17705
G1 X-1.268 Y5.188 E0.34408
G1 X-0.911 Y5.606 F15000.000
G1 X-7.759 Y5.606 E0.19766 F2400.000
G1 X-7.759 Y-7.090 E0.36643
